(G-CODE GENERATED BY FLATCAM v8.991 - www.flatcam.org - Version Date: 2019/12/27)

(Name: Gerber_BottomLayer.GBL_ncc_cnc)
(Type: G-code from Geometry)
(Units: MM)

(Created on Tuesday, 08 December 2020 at 13:43)

(TOOL DIAMETER: 0.42 mm)
(Feedrate: 70.0 mm/min)
(Feedrate_Z: 50.0 mm/min)
(Feedrate rapids 60.0 mm/min)

(Z_Cut: -0.5971 mm)
(Z_Move: 2.0 mm)
(Z Toolchange: 20.0 mm)
(X,Y Toolchange: 0.0000, 0.0000 mm)
(Z Start: None mm)
(Z End: 5.0 mm)
(Steps per circle: 64)
(Preprocessor Geometry: default)

(X range:    1.8900 ...   51.7030  mm)
(Y range:    1.7630 ...   54.1160  mm)

(Spindle Speed: 1000 RPM)
G21
G90
G94




G01 F70.00
G00 Z2.0000

M03 S1000
G4 P1.0
G00 X1.8900 Y3.8100
G01 F50.00
G01 Z-0.5971
G01 F70.00
G01 X1.8909 Y3.8718
G01 X1.8937 Y3.9337
G01 X1.8982 Y3.9954
G01 X1.9044 Y4.0548
G01 X1.9135 Y4.1167
G01 X1.9237 Y4.1790
G01 X1.9356 Y4.2401
G01 X1.9489 Y4.2994
G01 X1.9651 Y4.3589
G01 X1.9827 Y4.4192
G01 X2.0013 Y4.4768
G01 X2.0229 Y4.5344
G01 X2.0461 Y4.5929
G01 X2.0707 Y4.6501
G01 X2.0965 Y4.7053
G01 X2.1249 Y4.7604
G01 X2.1540 Y4.8150
G01 X2.1855 Y4.8680
G01 X2.2189 Y4.9217
G01 X2.2521 Y4.9720
G01 X2.2881 Y5.0224
G01 X2.3252 Y5.0713
G01 X2.3647 Y5.1200
G01 X2.4038 Y5.1662
G01 X2.4463 Y5.2114
G01 X2.4895 Y5.2565
G01 X2.5346 Y5.2997
G01 X2.5798 Y5.3422
G01 X2.6260 Y5.3813
G01 X2.6747 Y5.4208
G01 X2.7236 Y5.4579
G01 X2.7740 Y5.4939
G01 X2.8243 Y5.5271
G01 X2.8780 Y5.5605
G01 X2.9310 Y5.5920
G01 X2.9856 Y5.6211
G01 X3.0407 Y5.6495
G01 X3.0959 Y5.6753
G01 X3.1531 Y5.6999
G01 X3.2116 Y5.7231
G01 X3.2692 Y5.7447
G01 X3.3268 Y5.7633
G01 X3.3871 Y5.7809
G01 X3.4466 Y5.7971
G01 X3.5059 Y5.8104
G01 X3.5670 Y5.8223
G01 X3.6293 Y5.8325
G01 X3.6912 Y5.8416
G01 X3.7506 Y5.8478
G01 X3.8123 Y5.8523
G01 X3.8742 Y5.8551
G01 X3.9360 Y5.8560
G01 X3.9988 Y5.8551
G01 X4.0607 Y5.8523
G01 X4.1224 Y5.8478
G01 X4.1818 Y5.8416
G01 X4.2437 Y5.8325
G01 X4.3060 Y5.8223
G01 X4.3671 Y5.8104
G01 X4.4264 Y5.7971
G01 X4.4859 Y5.7809
G01 X4.5462 Y5.7633
G01 X4.6038 Y5.7447
G01 X4.6614 Y5.7231
G01 X4.7199 Y5.6999
G01 X4.7771 Y5.6753
G01 X4.8323 Y5.6495
G01 X4.8874 Y5.6211
G01 X4.9420 Y5.5920
G01 X4.9950 Y5.5605
G01 X5.0487 Y5.5271
G01 X5.0990 Y5.4939
G01 X5.1494 Y5.4579
G01 X5.1983 Y5.4208
G01 X5.2470 Y5.3813
G01 X5.2932 Y5.3422
G01 X5.3384 Y5.2997
G01 X5.3835 Y5.2565
G01 X5.4267 Y5.2114
G01 X5.4692 Y5.1662
G01 X5.5083 Y5.1200
G01 X5.5478 Y5.0713
G01 X5.5849 Y5.0224
G01 X5.6209 Y4.9720
G01 X5.6541 Y4.9217
G01 X5.6875 Y4.8680
G01 X5.7190 Y4.8150
G01 X5.7481 Y4.7604
G01 X5.7765 Y4.7053
G01 X5.8023 Y4.6501
G01 X5.8269 Y4.5929
G01 X5.8501 Y4.5344
G01 X5.8717 Y4.4768
G01 X5.8903 Y4.4192
G01 X5.9079 Y4.3589
G01 X5.9241 Y4.2994
G01 X5.9374 Y4.2401
G01 X5.9493 Y4.1790
G01 X5.9595 Y4.1167
G01 X5.9686 Y4.0548
G01 X5.9748 Y3.9954
G01 X5.9793 Y3.9337
G01 X5.9821 Y3.8718
G01 X5.9830 Y3.8100
G01 X5.9821 Y3.7472
G01 X5.9793 Y3.6853
G01 X5.9748 Y3.6236
G01 X5.9686 Y3.5642
G01 X5.9595 Y3.5023
G01 X5.9493 Y3.4400
G01 X5.9374 Y3.3789
G01 X5.9241 Y3.3196
G01 X5.9079 Y3.2601
G01 X5.8903 Y3.1998
G01 X5.8717 Y3.1422
G01 X5.8501 Y3.0846
G01 X5.8269 Y3.0261
G01 X5.8023 Y2.9689
G01 X5.7765 Y2.9137
G01 X5.7481 Y2.8586
G01 X5.7190 Y2.8040
G01 X5.6875 Y2.7510
G01 X5.6541 Y2.6973
G01 X5.6209 Y2.6470
G01 X5.5849 Y2.5966
G01 X5.5478 Y2.5477
G01 X5.5083 Y2.4990
G01 X5.4692 Y2.4528
G01 X5.4267 Y2.4076
G01 X5.3835 Y2.3625
G01 X5.3384 Y2.3193
G01 X5.2932 Y2.2768
G01 X5.2470 Y2.2377
G01 X5.1983 Y2.1982
G01 X5.1494 Y2.1611
G01 X5.0990 Y2.1251
G01 X5.0487 Y2.0919
G01 X4.9950 Y2.0585
G01 X4.9420 Y2.0270
G01 X4.8874 Y1.9979
G01 X4.8323 Y1.9695
G01 X4.7771 Y1.9437
G01 X4.7199 Y1.9191
G01 X4.6614 Y1.8959
G01 X4.6038 Y1.8743
G01 X4.5462 Y1.8557
G01 X4.4859 Y1.8381
G01 X4.4264 Y1.8219
G01 X4.3671 Y1.8086
G01 X4.3060 Y1.7967
G01 X4.2437 Y1.7865
G01 X4.1818 Y1.7774
G01 X4.1224 Y1.7712
G01 X4.0607 Y1.7667
G01 X3.9988 Y1.7639
G01 X3.9360 Y1.7630
G01 X3.8742 Y1.7639
G01 X3.8123 Y1.7667
G01 X3.7506 Y1.7712
G01 X3.6912 Y1.7774
G01 X3.6293 Y1.7865
G01 X3.5670 Y1.7967
G01 X3.5059 Y1.8086
G01 X3.4466 Y1.8219
G01 X3.3871 Y1.8381
G01 X3.3268 Y1.8557
G01 X3.2692 Y1.8743
G01 X3.2116 Y1.8959
G01 X3.1531 Y1.9191
G01 X3.0959 Y1.9437
G01 X3.0407 Y1.9695
G01 X2.9856 Y1.9979
G01 X2.9310 Y2.0270
G01 X2.8780 Y2.0585
G01 X2.8243 Y2.0919
G01 X2.7740 Y2.1251
G01 X2.7236 Y2.1611
G01 X2.6747 Y2.1982
G01 X2.6260 Y2.2377
G01 X2.5798 Y2.2768
G01 X2.5346 Y2.3193
G01 X2.4895 Y2.3625
G01 X2.4463 Y2.4076
G01 X2.4038 Y2.4528
G01 X2.3647 Y2.4990
G01 X2.3252 Y2.5477
G01 X2.2881 Y2.5966
G01 X2.2521 Y2.6470
G01 X2.2189 Y2.6973
G01 X2.1855 Y2.7510
G01 X2.1540 Y2.8040
G01 X2.1249 Y2.8586
G01 X2.0965 Y2.9137
G01 X2.0707 Y2.9689
G01 X2.0461 Y3.0261
G01 X2.0229 Y3.0846
G01 X2.0013 Y3.1422
G01 X1.9827 Y3.1998
G01 X1.9651 Y3.2601
G01 X1.9489 Y3.3196
G01 X1.9356 Y3.3789
G01 X1.9237 Y3.4400
G01 X1.9135 Y3.5023
G01 X1.9044 Y3.5642
G01 X1.8982 Y3.6236
G01 X1.8937 Y3.6853
G01 X1.8909 Y3.7472
G01 X1.8900 Y3.8100
G01 X4.1465 Y3.7786
G01 X4.1455 Y3.7580
G01 X4.1425 Y3.7376
G01 X4.1375 Y3.7176
G01 X4.1305 Y3.6982
G01 X4.1217 Y3.6796
G01 X4.1111 Y3.6619
G01 X4.0988 Y3.6453
G01 X4.0850 Y3.6301
G01 X4.0697 Y3.6162
G01 X4.0532 Y3.6040
G01 X4.0355 Y3.5934
G01 X4.0169 Y3.5845
G01 X3.9975 Y3.5776
G01 X3.9775 Y3.5726
G01 X3.9571 Y3.5696
G01 X3.9365 Y3.5686
G01 X3.9159 Y3.5696
G01 X3.8955 Y3.5726
G01 X3.8755 Y3.5776
G01 X3.8561 Y3.5845
G01 X3.8375 Y3.5934
G01 X3.8198 Y3.6040
G01 X3.8033 Y3.6162
G01 X3.7880 Y3.6301
G01 X3.7742 Y3.6453
G01 X3.7619 Y3.6619
G01 X3.7513 Y3.6796
G01 X3.7425 Y3.6982
G01 X3.7355 Y3.7176
G01 X3.7305 Y3.7376
G01 X3.7275 Y3.7580
G01 X3.7265 Y3.7786
G01 X3.7275 Y3.7991
G01 X3.7305 Y3.8195
G01 X3.7355 Y3.8395
G01 X3.7425 Y3.8589
G01 X3.7513 Y3.8776
G01 X3.7619 Y3.8952
G01 X3.7742 Y3.9118
G01 X3.7880 Y3.9271
G01 X3.8033 Y3.9409
G01 X3.8198 Y3.9532
G01 X3.8375 Y3.9638
G01 X3.8561 Y3.9726
G01 X3.8755 Y3.9795
G01 X3.8955 Y3.9845
G01 X3.9159 Y3.9876
G01 X3.9365 Y3.9886
G01 X3.9571 Y3.9876
G01 X3.9775 Y3.9845
G01 X3.9975 Y3.9795
G01 X4.0169 Y3.9726
G01 X4.0355 Y3.9638
G01 X4.0532 Y3.9532
G01 X4.0697 Y3.9409
G01 X4.0850 Y3.9271
G01 X4.0988 Y3.9118
G01 X4.1111 Y3.8952
G01 X4.1217 Y3.8776
G01 X4.1305 Y3.8589
G01 X4.1375 Y3.8395
G01 X4.1425 Y3.8195
G01 X4.1455 Y3.7991
G01 X4.1465 Y3.7786
G01 X4.5665 Y3.7786
G01 X4.5635 Y3.7168
G01 X4.5544 Y3.6557
G01 X4.5394 Y3.5957
G01 X4.5185 Y3.5375
G01 X4.4921 Y3.4816
G01 X4.4603 Y3.4286
G01 X4.4235 Y3.3789
G01 X4.3820 Y3.3331
G01 X4.3362 Y3.2916
G01 X4.2865 Y3.2547
G01 X4.2335 Y3.2230
G01 X4.1776 Y3.1965
G01 X4.1194 Y3.1757
G01 X4.0594 Y3.1607
G01 X3.9983 Y3.1516
G01 X3.9365 Y3.1486
G01 X3.8747 Y3.1516
G01 X3.8136 Y3.1607
G01 X3.7536 Y3.1757
G01 X3.6954 Y3.1965
G01 X3.6395 Y3.2230
G01 X3.5865 Y3.2547
G01 X3.5368 Y3.2916
G01 X3.4910 Y3.3331
G01 X3.4495 Y3.3789
G01 X3.4127 Y3.4286
G01 X3.3809 Y3.4816
G01 X3.3545 Y3.5375
G01 X3.3336 Y3.5957
G01 X3.3186 Y3.6557
G01 X3.3095 Y3.7168
G01 X3.3065 Y3.7786
G01 X3.3095 Y3.8403
G01 X3.3186 Y3.9015
G01 X3.3336 Y3.9614
G01 X3.3545 Y4.0197
G01 X3.3809 Y4.0755
G01 X3.4127 Y4.1286
G01 X3.4495 Y4.1782
G01 X3.4910 Y4.2240
G01 X3.5368 Y4.2656
G01 X3.5865 Y4.3024
G01 X3.6395 Y4.3342
G01 X3.6954 Y4.3606
G01 X3.7536 Y4.3814
G01 X3.8136 Y4.3965
G01 X3.8747 Y4.4055
G01 X3.9365 Y4.4086
G01 X3.9983 Y4.4055
G01 X4.0594 Y4.3965
G01 X4.1194 Y4.3814
G01 X4.1776 Y4.3606
G01 X4.2335 Y4.3342
G01 X4.2865 Y4.3024
G01 X4.3362 Y4.2656
G01 X4.3820 Y4.2240
G01 X4.4235 Y4.1782
G01 X4.4603 Y4.1286
G01 X4.4921 Y4.0755
G01 X4.5185 Y4.0197
G01 X4.5394 Y3.9614
G01 X4.5544 Y3.9015
G01 X4.5635 Y3.8403
G01 X4.5665 Y3.7786
G01 X4.9865 Y3.7786
G01 X4.9814 Y3.6756
G01 X4.9663 Y3.5737
G01 X4.9413 Y3.4738
G01 X4.9066 Y3.3767
G01 X4.8625 Y3.2836
G01 X4.8095 Y3.1952
G01 X4.7482 Y3.1125
G01 X4.6790 Y3.0361
G01 X4.6026 Y2.9669
G01 X4.5198 Y2.9055
G01 X4.4315 Y2.8525
G01 X4.3383 Y2.8085
G01 X4.2413 Y2.7738
G01 X4.1413 Y2.7487
G01 X4.0394 Y2.7336
G01 X3.9365 Y2.7286
G01 X3.8336 Y2.7336
G01 X3.7317 Y2.7487
G01 X3.6317 Y2.7738
G01 X3.5347 Y2.8085
G01 X3.4415 Y2.8525
G01 X3.3532 Y2.9055
G01 X3.2704 Y2.9669
G01 X3.1940 Y3.0361
G01 X3.1248 Y3.1125
G01 X3.0635 Y3.1952
G01 X3.0105 Y3.2836
G01 X2.9664 Y3.3767
G01 X2.9317 Y3.4738
G01 X2.9067 Y3.5737
G01 X2.8916 Y3.6756
G01 X2.8865 Y3.7786
G01 X2.8916 Y3.8815
G01 X2.9067 Y3.9834
G01 X2.9317 Y4.0834
G01 X2.9664 Y4.1804
G01 X3.0105 Y4.2735
G01 X3.0635 Y4.3619
G01 X3.1248 Y4.4447
G01 X3.1940 Y4.5210
G01 X3.2704 Y4.5902
G01 X3.3532 Y4.6516
G01 X3.4415 Y4.7046
G01 X3.5347 Y4.7486
G01 X3.6317 Y4.7834
G01 X3.7317 Y4.8084
G01 X3.8336 Y4.8235
G01 X3.9365 Y4.8286
G01 X4.0394 Y4.8235
G01 X4.1413 Y4.8084
G01 X4.2413 Y4.7834
G01 X4.3383 Y4.7486
G01 X4.4315 Y4.7046
G01 X4.5198 Y4.6516
G01 X4.6026 Y4.5902
G01 X4.6790 Y4.5210
G01 X4.7482 Y4.4447
G01 X4.8095 Y4.3619
G01 X4.8625 Y4.2735
G01 X4.9066 Y4.1804
G01 X4.9413 Y4.0834
G01 X4.9663 Y3.9834
G01 X4.9814 Y3.8815
G01 X4.9865 Y3.7786
G01 X5.4065 Y3.7786
G01 X5.3994 Y3.6345
G01 X5.3783 Y3.4918
G01 X5.3432 Y3.3518
G01 X5.2946 Y3.2160
G01 X5.2329 Y3.0856
G01 X5.1588 Y2.9619
G01 X5.0728 Y2.8460
G01 X4.9759 Y2.7391
G01 X4.8691 Y2.6422
G01 X4.7532 Y2.5563
G01 X4.6295 Y2.4821
G01 X4.4990 Y2.4205
G01 X4.3632 Y2.3719
G01 X4.2233 Y2.3368
G01 X4.0806 Y2.3156
G01 X3.9365 Y2.3086
G01 X3.7924 Y2.3156
G01 X3.6497 Y2.3368
G01 X3.5098 Y2.3719
G01 X3.3740 Y2.4205
G01 X3.2435 Y2.4821
G01 X3.1198 Y2.5563
G01 X3.0039 Y2.6422
G01 X2.8971 Y2.7391
G01 X2.8002 Y2.8460
G01 X2.7142 Y2.9619
G01 X2.6401 Y3.0856
G01 X2.5784 Y3.2160
G01 X2.5298 Y3.3518
G01 X2.4947 Y3.4918
G01 X2.4736 Y3.6345
G01 X2.4665 Y3.7786
G01 X2.4736 Y3.9226
G01 X2.4947 Y4.0653
G01 X2.5298 Y4.2053
G01 X2.5784 Y4.3411
G01 X2.6401 Y4.4715
G01 X2.7142 Y4.5953
G01 X2.8002 Y4.7111
G01 X2.8971 Y4.8180
G01 X3.0039 Y4.9149
G01 X3.1198 Y5.0008
G01 X3.2435 Y5.0750
G01 X3.3740 Y5.1367
G01 X3.5098 Y5.1853
G01 X3.6497 Y5.2203
G01 X3.7924 Y5.2415
G01 X3.9365 Y5.2486
G01 X4.0806 Y5.2415
G01 X4.2233 Y5.2203
G01 X4.3632 Y5.1853
G01 X4.4990 Y5.1367
G01 X4.6295 Y5.0750
G01 X4.7532 Y5.0008
G01 X4.8691 Y4.9149
G01 X4.9759 Y4.8180
G01 X5.0728 Y4.7111
G01 X5.1588 Y4.5953
G01 X5.2329 Y4.4715
G01 X5.2946 Y4.3411
G01 X5.3432 Y4.2053
G01 X5.3783 Y4.0653
G01 X5.3994 Y3.9226
G01 X5.4065 Y3.7786
G01 X5.8265 Y3.7786
G01 X5.8174 Y3.5933
G01 X5.7902 Y3.4098
G01 X5.7451 Y3.2299
G01 X5.6826 Y3.0553
G01 X5.6033 Y2.8876
G01 X5.5080 Y2.7285
G01 X5.3975 Y2.5796
G01 X5.2729 Y2.4421
G01 X5.1355 Y2.3176
G01 X4.9865 Y2.2071
G01 X4.8274 Y2.1117
G01 X4.6598 Y2.0324
G01 X4.4851 Y1.9699
G01 X4.3052 Y1.9249
G01 X4.1218 Y1.8977
G01 X3.9365 Y1.8886
G01 X3.7512 Y1.8977
G01 X3.5678 Y1.9249
G01 X3.3879 Y1.9699
G01 X3.2132 Y2.0324
G01 X3.0456 Y2.1117
G01 X2.8865 Y2.2071
G01 X2.7375 Y2.3176
G01 X2.6001 Y2.4421
G01 X2.4755 Y2.5796
G01 X2.3650 Y2.7285
G01 X2.2697 Y2.8876
G01 X2.1904 Y3.0553
G01 X2.1279 Y3.2299
G01 X2.0828 Y3.4098
G01 X2.0556 Y3.5933
G01 X2.0465 Y3.7786
G01 X2.0556 Y3.9638
G01 X2.0828 Y4.1473
G01 X2.1279 Y4.3272
G01 X2.1904 Y4.5018
G01 X2.2697 Y4.6695
G01 X2.3650 Y4.8286
G01 X2.4755 Y4.9776
G01 X2.6001 Y5.1150
G01 X2.7375 Y5.2396
G01 X2.8865 Y5.3500
G01 X3.0456 Y5.4454
G01 X3.2132 Y5.5247
G01 X3.3879 Y5.5872
G01 X3.5678 Y5.6322
G01 X3.7512 Y5.6595
G01 X3.9365 Y5.6686
G01 X4.1218 Y5.6595
G01 X4.3052 Y5.6322
G01 X4.4851 Y5.5872
G01 X4.6598 Y5.5247
G01 X4.8274 Y5.4454
G01 X4.9865 Y5.3500
G01 X5.1355 Y5.2396
G01 X5.2729 Y5.1150
G01 X5.3975 Y4.9776
G01 X5.5080 Y4.8286
G01 X5.6033 Y4.6695
G01 X5.6826 Y4.5018
G01 X5.7451 Y4.3272
G01 X5.7902 Y4.1473
G01 X5.8174 Y3.9638
G01 X5.8265 Y3.7786
G00 Z2.0000
G00 X11.5635 Y23.5618
G01 F50.00
G01 Z-0.5971
G01 F70.00
G01 X11.4501 Y23.6870
G00 Z2.0000
G00 X11.9648 Y23.7544
G01 F50.00
G01 Z-0.5971
G01 F70.00
G01 X12.4141 Y23.3472
G01 X12.8658 Y23.0122
G01 X13.6594 Y23.0122
G01 X13.1937 Y23.2913
G01 X12.6806 Y23.6719
G01 X12.3452 Y23.9759
G01 X12.6875 Y24.2318
G01 X12.9470 Y23.9966
G01 X13.4271 Y23.6405
G01 X13.9397 Y23.3333
G01 X14.4799 Y23.0778
G01 X14.6631 Y23.0122
G01 X14.9903 Y24.2318
G01 X15.4084 Y24.0822
G01 X15.8682 Y23.9670
G01 X16.3371 Y23.8974
G01 X16.8105 Y23.8742
G01 X17.2839 Y23.8974
G01 X17.7528 Y23.9670
G01 X18.2126 Y24.0822
G01 X18.6307 Y24.2318
G01 X19.5484 Y24.2318
G01 X19.2853 Y24.0741
G01 X18.8196 Y23.8538
G01 X18.3345 Y23.6803
G01 X17.8347 Y23.5551
G01 X17.3251 Y23.4795
G01 X16.8105 Y23.4542
G01 X16.2959 Y23.4795
G01 X15.7863 Y23.5551
G01 X15.2865 Y23.6803
G01 X14.8014 Y23.8538
G01 X14.3356 Y24.0741
G01 X14.0726 Y24.2318
G01 X13.3341 Y24.2318
G01 X13.6604 Y23.9898
G01 X14.1377 Y23.7037
G01 X14.6407 Y23.4658
G01 X15.1646 Y23.2783
G01 X15.7043 Y23.1431
G01 X16.2547 Y23.0615
G01 X16.8105 Y23.0342
G01 X17.3662 Y23.0615
G01 X17.9166 Y23.1431
G01 X18.4564 Y23.2783
G01 X18.9803 Y23.4658
G01 X19.4833 Y23.7037
G01 X19.9606 Y23.9898
G01 X20.2869 Y24.2318
G01 X20.9335 Y24.2318
G01 X20.6739 Y23.9966
G01 X20.1939 Y23.6405
G01 X19.6813 Y23.3333
G01 X19.1410 Y23.0778
G01 X18.9579 Y23.0122
G01 X19.9616 Y23.0122
G01 X20.4272 Y23.2913
G01 X20.9404 Y23.6719
G01 X21.2753 Y23.9754
G00 Z2.0000
G00 X21.6558 Y23.7542
G01 F50.00
G01 Z-0.5971
G01 F70.00
G01 X21.2068 Y23.3472
G01 X20.7551 Y23.0122
G00 Z2.0000
G00 X22.0575 Y23.5618
G01 F50.00
G01 Z-0.5971
G01 F70.00
G01 X22.1709 Y23.6870
G00 Z2.0000
G00 X22.2436 Y23.6966
G01 F50.00
G01 Z-0.5971
G01 F70.00
G01 X22.2400 Y23.6826
G01 X22.2363 Y23.6602
G01 X22.2345 Y23.6360
G01 X22.2340 Y23.6220
G01 X22.2344 Y23.6089
G01 X22.2362 Y23.5836
G01 X22.2400 Y23.5604
G01 X22.2433 Y23.5474
G01 X22.1852 Y23.5559
G01 X22.1723 Y23.5569
G01 X22.0640 Y23.5620
G01 X21.9557 Y23.5569
G01 X21.9428 Y23.5559
G01 X21.8307 Y23.5393
G01 X21.8179 Y23.5365
G01 X21.7141 Y23.5103
G01 X21.7030 Y23.5067
G01 X21.6106 Y23.4736
G01 X21.5915 Y23.4657
G01 X21.5028 Y23.4238
G01 X21.4846 Y23.4140
G01 X21.3937 Y23.3594
G01 X21.3833 Y23.3521
G01 X21.3045 Y23.2937
G01 X21.2886 Y23.2806
G01 X21.2159 Y23.2147
G01 X21.2084 Y23.2076
G01 X21.2013 Y23.2001
G01 X21.1354 Y23.1274
G01 X21.1278 Y23.1185
G01 X21.0639 Y23.0327
G01 X21.0566 Y23.0223
G01 X21.0504 Y23.0122
G01 X12.5696 Y23.0122
G01 X12.5616 Y23.0249
G01 X12.5561 Y23.0327
G01 X12.4977 Y23.1115
G01 X12.4846 Y23.1274
G01 X12.4135 Y23.2057
G01 X12.4041 Y23.2147
G01 X12.3314 Y23.2806
G01 X12.3206 Y23.2897
G01 X12.2367 Y23.3521
G01 X12.2263 Y23.3594
G01 X12.1354 Y23.4140
G01 X12.1172 Y23.4238
G01 X12.0219 Y23.4687
G01 X12.0094 Y23.4736
G01 X11.9170 Y23.5067
G01 X11.9070 Y23.5100
G01 X11.8973 Y23.5126
G01 X11.8021 Y23.5365
G01 X11.7893 Y23.5393
G01 X11.6768 Y23.5559
G01 X11.6643 Y23.5569
G01 X11.5663 Y23.5617
G01 X11.5560 Y23.5620
G01 X11.5457 Y23.5617
G01 X11.4477 Y23.5569
G01 X11.4352 Y23.5559
G01 X11.3774 Y23.5475
G01 X11.3819 Y23.5698
G01 X11.3854 Y23.5960
G01 X11.3863 Y23.6046
G01 X11.3870 Y23.6264
G01 X11.3863 Y23.6394
G01 X11.3832 Y23.6648
G01 X11.3809 Y23.6782
G01 X11.3772 Y23.6965
G01 X11.4352 Y23.6881
G01 X11.4477 Y23.6871
G01 X11.5560 Y23.6820
G01 X11.6643 Y23.6871
G01 X11.6768 Y23.6881
G01 X11.7893 Y23.7047
G01 X11.8021 Y23.7075
G01 X11.9070 Y23.7340
G01 X12.0094 Y23.7704
G01 X12.0285 Y23.7783
G01 X12.1172 Y23.8202
G01 X12.1354 Y23.8300
G01 X12.2195 Y23.8804
G01 X12.2367 Y23.8919
G01 X12.3206 Y23.9543
G01 X12.3314 Y23.9634
G01 X12.4041 Y24.0293
G01 X12.4187 Y24.0439
G01 X12.4903 Y24.1232
G01 X12.4977 Y24.1325
G01 X12.5561 Y24.2113
G01 X12.5616 Y24.2191
G01 X12.5696 Y24.2318
G01 X21.0504 Y24.2318
G01 X21.0566 Y24.2217
G01 X21.0639 Y24.2113
G01 X21.1223 Y24.1325
G01 X21.1354 Y24.1166
G01 X21.2084 Y24.0364
G01 X21.2886 Y23.9634
G01 X21.2975 Y23.9558
G01 X21.3833 Y23.8919
G01 X21.4005 Y23.8804
G01 X21.4846 Y23.8300
G01 X21.4957 Y23.8238
G01 X21.5967 Y23.7759
G01 X21.6106 Y23.7704
G01 X21.7030 Y23.7373
G01 X21.7227 Y23.7314
G01 X21.8179 Y23.7075
G01 X21.8307 Y23.7047
G01 X21.9428 Y23.6881
G01 X21.9557 Y23.6871
G01 X22.0537 Y23.6823
G01 X22.0640 Y23.6820
G01 X22.0743 Y23.6823
G01 X22.1723 Y23.6871
G01 X22.1852 Y23.6881
G01 X22.2436 Y23.6966
G00 Z2.0000
G00 X21.0012 Y25.5522
G01 F50.00
G01 Z-0.5971
G01 F70.00
G01 X21.1757 Y25.7874
G01 X21.4406 Y26.2294
G01 X21.5025 Y26.3604
G00 Z2.0000
G00 X21.9065 Y26.2333
G01 F50.00
G01 Z-0.5971
G01 F70.00
G01 X21.8339 Y26.0798
G00 Z2.0000
G00 X22.2436 Y26.2366
G01 F50.00
G01 Z-0.5971
G01 F70.00
G01 X22.2400 Y26.2226
G01 X22.2363 Y26.2002
G01 X22.2345 Y26.1760
G01 X22.2340 Y26.1620
G01 X22.2344 Y26.1489
G01 X22.2362 Y26.1236
G01 X22.2400 Y26.1004
G01 X22.2433 Y26.0874
G01 X22.1852 Y26.0959
G01 X22.1723 Y26.0969
G01 X22.0640 Y26.1020
G01 X21.9557 Y26.0969
G01 X21.9428 Y26.0959
G01 X21.8307 Y26.0793
G01 X21.8179 Y26.0765
G01 X21.7141 Y26.0503
G01 X21.7030 Y26.0467
G01 X21.6106 Y26.0136
G01 X21.5915 Y26.0057
G01 X21.5028 Y25.9638
G01 X21.4846 Y25.9540
G01 X21.3937 Y25.8994
G01 X21.3833 Y25.8921
G01 X21.3045 Y25.8337
G01 X21.2886 Y25.8206
G01 X21.2159 Y25.7547
G01 X21.2084 Y25.7476
G01 X21.2013 Y25.7401
G01 X21.1354 Y25.6674
G01 X21.1278 Y25.6585
G01 X21.0639 Y25.5727
G01 X21.0566 Y25.5623
G01 X21.0504 Y25.5522
G01 X12.5696 Y25.5522
G01 X12.5616 Y25.5649
G01 X12.5561 Y25.5727
G01 X12.4977 Y25.6515
G01 X12.4846 Y25.6674
G01 X12.4135 Y25.7457
G01 X12.4041 Y25.7547
G01 X12.3314 Y25.8206
G01 X12.3206 Y25.8297
G01 X12.2367 Y25.8921
G01 X12.2263 Y25.8994
G01 X12.1354 Y25.9540
G01 X12.1172 Y25.9638
G01 X12.0219 Y26.0087
G01 X12.0094 Y26.0136
G01 X11.9170 Y26.0467
G01 X11.9070 Y26.0500
G01 X11.8973 Y26.0526
G01 X11.8021 Y26.0765
G01 X11.7893 Y26.0793
G01 X11.6768 Y26.0959
G01 X11.6643 Y26.0969
G01 X11.5663 Y26.1017
G01 X11.5560 Y26.1020
G01 X11.5457 Y26.1017
G01 X11.4477 Y26.0969
G01 X11.4352 Y26.0959
G01 X11.3774 Y26.0875
G01 X11.3819 Y26.1098
G01 X11.3854 Y26.1360
G01 X11.3863 Y26.1446
G01 X11.3870 Y26.1664
G01 X11.3863 Y26.1794
G01 X11.3832 Y26.2048
G01 X11.3809 Y26.2182
G01 X11.3772 Y26.2365
G01 X11.4352 Y26.2281
G01 X11.4477 Y26.2271
G01 X11.5560 Y26.2220
G01 X11.6643 Y26.2271
G01 X11.6768 Y26.2281
G01 X11.7893 Y26.2447
G01 X11.8021 Y26.2475
G01 X11.9070 Y26.2740
G01 X12.0094 Y26.3104
G01 X12.0285 Y26.3183
G01 X12.1172 Y26.3602
G01 X12.1354 Y26.3700
G01 X12.2195 Y26.4204
G01 X12.2367 Y26.4319
G01 X12.3206 Y26.4943
G01 X12.3314 Y26.5034
G01 X12.4041 Y26.5693
G01 X12.4187 Y26.5839
G01 X12.4903 Y26.6632
G01 X12.4977 Y26.6725
G01 X12.5561 Y26.7513
G01 X12.5616 Y26.7591
G01 X12.5696 Y26.7718
G01 X21.0504 Y26.7718
G01 X21.0566 Y26.7617
G01 X21.0639 Y26.7513
G01 X21.1223 Y26.6725
G01 X21.1354 Y26.6566
G01 X21.2084 Y26.5764
G01 X21.2886 Y26.5034
G01 X21.2975 Y26.4958
G01 X21.3833 Y26.4319
G01 X21.4005 Y26.4204
G01 X21.4846 Y26.3700
G01 X21.4957 Y26.3638
G01 X21.5967 Y26.3159
G01 X21.6106 Y26.3104
G01 X21.7030 Y26.2773
G01 X21.7227 Y26.2714
G01 X21.8179 Y26.2475
G01 X21.8307 Y26.2447
G01 X21.9428 Y26.2281
G01 X21.9557 Y26.2271
G01 X22.0537 Y26.2223
G01 X22.0640 Y26.2220
G01 X22.0743 Y26.2223
G01 X22.1723 Y26.2271
G01 X22.1852 Y26.2281
G01 X22.2436 Y26.2366
G00 Z2.0000
G00 X21.1638 Y26.6253
G01 F50.00
G01 Z-0.5971
G01 F70.00
G01 X21.0702 Y26.4273
G01 X20.8265 Y26.0208
G01 X20.5441 Y25.6401
G01 X20.4645 Y25.5522
G01 X19.8917 Y25.5522
G01 X19.9288 Y25.5858
G01 X20.2195 Y25.9065
G01 X20.4773 Y26.2541
G01 X20.6998 Y26.6253
G01 X20.7690 Y26.7718
G01 X20.2985 Y26.7718
G01 X20.1280 Y26.4875
G01 X19.8948 Y26.1730
G01 X19.6318 Y25.8828
G01 X19.3417 Y25.6199
G01 X19.2505 Y25.5522
G01 X18.4860 Y25.5522
G01 X18.4934 Y25.5557
G01 X18.7939 Y25.7358
G01 X19.0753 Y25.9445
G01 X19.3349 Y26.1798
G01 X19.5701 Y26.4394
G01 X19.7788 Y26.7208
G01 X19.8094 Y26.7718
G01 X19.2944 Y26.7718
G01 X19.2455 Y26.7058
G01 X19.0379 Y26.4768
G01 X18.8088 Y26.2692
G01 X18.5605 Y26.0851
G01 X18.2954 Y25.9261
G01 X18.0159 Y25.7940
G01 X17.7249 Y25.6898
G01 X17.4250 Y25.6147
G01 X17.1192 Y25.5694
G01 X16.8105 Y25.5542
G01 X16.5017 Y25.5694
G01 X16.1959 Y25.6147
G01 X15.8961 Y25.6898
G01 X15.6050 Y25.7940
G01 X15.3256 Y25.9261
G01 X15.0604 Y26.0851
G01 X14.8121 Y26.2692
G01 X14.5831 Y26.4768
G01 X14.3755 Y26.7058
G01 X14.3266 Y26.7718
G01 X13.8116 Y26.7718
G01 X13.8421 Y26.7208
G01 X14.0508 Y26.4394
G01 X14.2861 Y26.1798
G01 X14.5457 Y25.9445
G01 X14.8271 Y25.7358
G01 X15.1276 Y25.5557
G01 X15.1350 Y25.5522
G01 X14.3705 Y25.5522
G01 X14.2793 Y25.6199
G01 X13.9891 Y25.8828
G01 X13.7262 Y26.1730
G01 X13.4929 Y26.4875
G01 X13.3225 Y26.7718
G01 X12.8519 Y26.7718
G01 X12.9212 Y26.6253
G01 X13.1437 Y26.2541
G01 X13.4015 Y25.9065
G01 X13.6921 Y25.5858
G01 X13.7292 Y25.5522
G01 X13.1565 Y25.5522
G01 X13.0768 Y25.6401
G01 X12.7945 Y26.0208
G01 X12.5508 Y26.4273
G01 X12.4569 Y26.6260
G00 Z2.0000
G00 X12.1182 Y26.3608
G01 F50.00
G01 Z-0.5971
G01 F70.00
G01 X12.1804 Y26.2294
G01 X12.4453 Y25.7874
G01 X12.6197 Y25.5522
G00 Z2.0000
G00 X11.7872 Y26.0796
G01 F50.00
G01 Z-0.5971
G01 F70.00
G01 X11.7144 Y26.2335
G00 Z2.0000
G00 X12.4215 Y28.2771
G01 F50.00
G01 Z-0.5971
G01 F70.00
G01 X12.4005 Y28.7042
G01 X12.4212 Y29.1267
G01 X12.8718 Y29.3118
G01 X12.8397 Y29.0953
G01 X12.8205 Y28.7042
G01 X12.8397 Y28.3131
G01 X12.8725 Y28.0922
G01 X13.2965 Y28.0922
G01 X13.2577 Y28.3543
G01 X13.2405 Y28.7042
G01 X13.2577 Y29.0541
G01 X13.2959 Y29.3118
G01 X13.7200 Y29.3118
G01 X13.6756 Y29.0129
G01 X13.6605 Y28.7042
G01 X13.6756 Y28.3954
G01 X13.7206 Y28.0922
G01 X14.1528 Y28.0922
G01 X14.1329 Y28.1716
G01 X14.0936 Y28.4366
G01 X14.0805 Y28.7042
G01 X14.0936 Y28.9718
G01 X14.1329 Y29.2368
G01 X14.1517 Y29.3118
G01 X14.5842 Y29.3118
G01 X14.5449 Y29.1548
G01 X14.5116 Y28.9306
G01 X14.5005 Y28.7042
G01 X14.5116 Y28.4778
G01 X14.5449 Y28.2535
G01 X14.5853 Y28.0922
G01 X15.0245 Y28.0922
G01 X15.0019 Y28.1555
G01 X14.9568 Y28.3355
G01 X14.9296 Y28.5189
G01 X14.9205 Y28.7042
G01 X14.9296 Y28.8894
G01 X14.9568 Y29.0729
G01 X15.0019 Y29.2528
G01 X15.0230 Y29.3118
G01 X15.4737 Y29.3118
G01 X15.4524 Y29.2667
G01 X15.4038 Y29.1309
G01 X15.3687 Y28.9910
G01 X15.3476 Y28.8483
G01 X15.3405 Y28.7042
G01 X15.3476 Y28.5601
G01 X15.3687 Y28.4174
G01 X15.4038 Y28.2775
G01 X15.4524 Y28.1416
G01 X15.4757 Y28.0922
G01 X15.9587 Y28.0922
G01 X15.9374 Y28.1208
G01 X15.8845 Y28.2092
G01 X15.8404 Y28.3024
G01 X15.8057 Y28.3994
G01 X15.7807 Y28.4993
G01 X15.7655 Y28.6013
G01 X15.7605 Y28.7042
G01 X15.7655 Y28.8071
G01 X15.7807 Y28.9090
G01 X15.8057 Y29.0090
G01 X15.8404 Y29.1060
G01 X15.8845 Y29.1992
G01 X15.9374 Y29.2875
G01 X15.9554 Y29.3118
G01 X16.6464 Y29.3118
G01 X16.6276 Y29.3071
G01 X16.5694 Y29.2862
G01 X16.5135 Y29.2598
G01 X16.4605 Y29.2280
G01 X16.4108 Y29.1912
G01 X16.3650 Y29.1497
G01 X16.3235 Y29.1039
G01 X16.2867 Y29.0542
G01 X16.2549 Y29.0012
G01 X16.2284 Y28.9453
G01 X16.2076 Y28.8871
G01 X16.1926 Y28.8271
G01 X16.1835 Y28.7659
G01 X16.1805 Y28.7042
G01 X16.1835 Y28.6424
G01 X16.1926 Y28.5813
G01 X16.2076 Y28.5213
G01 X16.2284 Y28.4631
G01 X16.2549 Y28.4072
G01 X16.2867 Y28.3542
G01 X16.3235 Y28.3045
G01 X16.3650 Y28.2587
G01 X16.4108 Y28.2172
G01 X16.4605 Y28.1804
G01 X16.5135 Y28.1486
G01 X16.5694 Y28.1221
G01 X16.6276 Y28.1013
G01 X16.6639 Y28.0922
G01 X16.9571 Y28.0922
G01 X16.9934 Y28.1013
G01 X17.0516 Y28.1221
G01 X17.1075 Y28.1486
G01 X17.1605 Y28.1804
G01 X17.2101 Y28.2172
G01 X17.2560 Y28.2587
G01 X17.2975 Y28.3045
G01 X17.3343 Y28.3542
G01 X17.3661 Y28.4072
G01 X17.3925 Y28.4631
G01 X17.4134 Y28.5213
G01 X17.4284 Y28.5813
G01 X17.4374 Y28.6424
G01 X17.4405 Y28.7042
G01 X17.4405 Y28.7042
G01 X17.4405 Y28.7042
G01 X17.4374 Y28.7659
G01 X17.4284 Y28.8271
G01 X17.4134 Y28.8871
G01 X17.3925 Y28.9453
G01 X17.3661 Y29.0012
G01 X17.3343 Y29.0542
G01 X17.2975 Y29.1039
G01 X17.2560 Y29.1497
G01 X17.2101 Y29.1912
G01 X17.1605 Y29.2280
G01 X17.1075 Y29.2598
G01 X17.0516 Y29.2862
G01 X16.9934 Y29.3071
G01 X16.9745 Y29.3118
G01 X17.0205 Y28.7042
G01 X17.0195 Y28.6836
G01 X17.0164 Y28.6632
G01 X17.0114 Y28.6432
G01 X17.0045 Y28.6238
G01 X16.9957 Y28.6052
G01 X16.9851 Y28.5875
G01 X16.9728 Y28.5710
G01 X16.9590 Y28.5557
G01 X16.9437 Y28.5419
G01 X16.9271 Y28.5296
G01 X16.9095 Y28.5190
G01 X16.8908 Y28.5102
G01 X16.8714 Y28.5032
G01 X16.8514 Y28.4982
G01 X16.8311 Y28.4952
G01 X16.8105 Y28.4942
G01 X16.7899 Y28.4952
G01 X16.7695 Y28.4982
G01 X16.7495 Y28.5032
G01 X16.7301 Y28.5102
G01 X16.7115 Y28.5190
G01 X16.6938 Y28.5296
G01 X16.6773 Y28.5419
G01 X16.6620 Y28.5557
G01 X16.6481 Y28.5710
G01 X16.6359 Y28.5875
G01 X16.6253 Y28.6052
G01 X16.6165 Y28.6238
G01 X16.6095 Y28.6432
G01 X16.6045 Y28.6632
G01 X16.6015 Y28.6836
G01 X16.6005 Y28.7042
G01 X16.6015 Y28.7248
G01 X16.6045 Y28.7452
G01 X16.6095 Y28.7651
G01 X16.6165 Y28.7846
G01 X16.6253 Y28.8032
G01 X16.6359 Y28.8209
G01 X16.6481 Y28.8374
G01 X16.6620 Y28.8527
G01 X16.6773 Y28.8665
G01 X16.6938 Y28.8788
G01 X16.7115 Y28.8894
G01 X16.7301 Y28.8982
G01 X16.7495 Y28.9051
G01 X16.7695 Y28.9102
G01 X16.7899 Y28.9132
G01 X16.8105 Y28.9142
G01 X16.8311 Y28.9132
G01 X16.8514 Y28.9102
G01 X16.8714 Y28.9051
G01 X16.8908 Y28.8982
G01 X16.9095 Y28.8894
G01 X16.9271 Y28.8788
G01 X16.9437 Y28.8665
G01 X16.9590 Y28.8527
G01 X16.9728 Y28.8374
G01 X16.9851 Y28.8209
G01 X16.9957 Y28.8032
G01 X17.0045 Y28.7846
G01 X17.0114 Y28.7651
G01 X17.0164 Y28.7452
G01 X17.0195 Y28.7248
G01 X17.0205 Y28.7042
G01 X17.8605 Y28.7042
G01 X17.8554 Y28.6013
G01 X17.8403 Y28.4993
G01 X17.8153 Y28.3994
G01 X17.7806 Y28.3024
G01 X17.7365 Y28.2092
G01 X17.6835 Y28.1208
G01 X17.6623 Y28.0922
G01 X18.1452 Y28.0922
G01 X18.1686 Y28.1416
G01 X18.2172 Y28.2775
G01 X18.2522 Y28.4174
G01 X18.2734 Y28.5601
G01 X18.2805 Y28.7042
G01 X18.2734 Y28.8483
G01 X18.2522 Y28.9910
G01 X18.2172 Y29.1309
G01 X18.1686 Y29.2667
G01 X18.1473 Y29.3118
G01 X18.5980 Y29.3118
G01 X18.6191 Y29.2528
G01 X18.6642 Y29.0729
G01 X18.6914 Y28.8894
G01 X18.7005 Y28.7042
G01 X18.6914 Y28.5189
G01 X18.6642 Y28.3355
G01 X18.6191 Y28.1555
G01 X18.5964 Y28.0922
G01 X19.0357 Y28.0922
G01 X19.0761 Y28.2535
G01 X19.1094 Y28.4778
G01 X19.1205 Y28.7042
G01 X19.1094 Y28.9306
G01 X19.0761 Y29.1548
G01 X19.0368 Y29.3118
G01 X19.4692 Y29.3118
G01 X19.4880 Y29.2368
G01 X19.5273 Y28.9718
G01 X19.5405 Y28.7042
G01 X19.5273 Y28.4366
G01 X19.4880 Y28.1716
G01 X19.4681 Y28.0922
G01 X19.9003 Y28.0922
G01 X19.9453 Y28.3954
G01 X19.9605 Y28.7042
G01 X19.9453 Y29.0129
G01 X19.9010 Y29.3118
G01 X20.3251 Y29.3118
G01 X20.3633 Y29.0541
G01 X20.3805 Y28.7042
G01 X20.3633 Y28.3543
G01 X20.3244 Y28.0922
G01 X20.7485 Y28.0922
G01 X20.7813 Y28.3131
G01 X20.8005 Y28.7042
G01 X20.7813 Y29.0953
G01 X20.7492 Y29.3118
G01 X21.1998 Y29.1255
G01 X21.2205 Y28.7042
G01 X21.1996 Y28.2782
G00 Z2.0000
G00 X21.6335 Y28.5618
G01 F50.00
G01 Z-0.5971
G01 F70.00
G01 X21.6405 Y28.7042
G01 X21.6337 Y28.8421
G00 Z2.0000
G00 X22.0576 Y28.7622
G01 F50.00
G01 Z-0.5971
G01 F70.00
G01 X22.0605 Y28.7042
G01 X22.0574 Y28.6418
G00 Z2.0000
G00 X18.7387 Y26.7718
G01 F50.00
G01 Z-0.5971
G01 F70.00
G01 X18.5424 Y26.5939
G01 X18.3272 Y26.4343
G01 X18.0974 Y26.2965
G01 X17.8552 Y26.1820
G01 X17.6030 Y26.0917
G01 X17.3431 Y26.0266
G01 X17.0781 Y25.9873
G01 X16.8105 Y25.9742
G01 X16.5429 Y25.9873
G01 X16.2779 Y26.0266
G01 X16.0180 Y26.0917
G01 X15.7658 Y26.1820
G01 X15.5236 Y26.2965
G01 X15.2938 Y26.4343
G01 X15.0786 Y26.5939
G01 X14.8823 Y26.7718
G01 X15.5467 Y26.7718
G01 X15.7216 Y26.6669
G01 X15.9265 Y26.5700
G01 X16.1399 Y26.4937
G01 X16.3598 Y26.4386
G01 X16.5841 Y26.4053
G01 X16.8105 Y26.3942
G01 X17.0369 Y26.4053
G01 X17.2611 Y26.4386
G01 X17.4810 Y26.4937
G01 X17.6945 Y26.5700
G01 X17.8994 Y26.6669
G01 X18.0743 Y26.7718
G00 Z2.0000
G00 X17.8605 Y28.7042
G01 F50.00
G01 Z-0.5971
G01 F70.00
G01 X17.8554 Y28.8071
G01 X17.8403 Y28.9090
G01 X17.8153 Y29.0090
G01 X17.7806 Y29.1060
G01 X17.7365 Y29.1992
G01 X17.6835 Y29.2875
G01 X17.6655 Y29.3118
G00 Z2.0000
G00 X18.6429 Y33.1722
G01 F50.00
G01 Z-0.5971
G01 F70.00
G01 X18.2126 Y33.3262
G01 X17.7528 Y33.4414
G01 X17.2839 Y33.5109
G01 X16.8105 Y33.5342
G01 X16.3371 Y33.5109
G01 X15.8682 Y33.4414
G01 X15.4084 Y33.3262
G01 X14.9780 Y33.1722
G00 Z2.0000
G00 X14.0653 Y33.1722
G01 F50.00
G01 Z-0.5971
G01 F70.00
G01 X14.3356 Y33.3343
G01 X14.8014 Y33.5546
G01 X15.2865 Y33.7281
G01 X15.7863 Y33.8533
G01 X16.2959 Y33.9289
G01 X16.8105 Y33.9542
G01 X17.3251 Y33.9289
G01 X17.8347 Y33.8533
G01 X18.3345 Y33.7281
G01 X18.8196 Y33.5546
G01 X19.2853 Y33.3343
G01 X19.5557 Y33.1722
G00 Z2.0000
G00 X20.2928 Y33.1722
G01 F50.00
G01 Z-0.5971
G01 F70.00
G01 X19.9606 Y33.4186
G01 X19.4833 Y33.7047
G01 X18.9803 Y33.9426
G01 X18.4564 Y34.1300
G01 X17.9166 Y34.2652
G01 X17.3662 Y34.3469
G01 X16.8105 Y34.3742
G01 X16.2547 Y34.3469
G01 X15.7043 Y34.2652
G01 X15.1646 Y34.1300
G01 X14.6407 Y33.9426
G01 X14.1377 Y33.7047
G01 X13.6604 Y33.4186
G01 X13.3282 Y33.1722
G00 Z2.0000
G00 X12.6827 Y33.1722
G01 F50.00
G01 Z-0.5971
G01 F70.00
G01 X12.9470 Y33.4118
G01 X13.4271 Y33.7678
G01 X13.9397 Y34.0751
G01 X14.4799 Y34.3306
G01 X14.6509 Y34.3918
G01 X13.6521 Y34.3918
G01 X13.1937 Y34.1171
G01 X12.6806 Y33.7365
G01 X12.3428 Y33.4303
G00 Z2.0000
G00 X11.9614 Y33.6508
G01 F50.00
G01 Z-0.5971
G01 F70.00
G01 X12.4141 Y34.0611
G01 X12.8599 Y34.3918
G00 Z2.0000
G00 X11.5595 Y33.8421
G01 F50.00
G01 Z-0.5971
G01 F70.00
G01 X11.4459 Y33.7168
G00 Z2.0000
G00 X11.7282 Y31.2041
G01 F50.00
G01 Z-0.5971
G01 F70.00
G01 X11.7125 Y31.1708
G00 Z2.0000
G00 X11.7353 Y31.1674
G01 F50.00
G01 Z-0.5971
G01 F70.00
G01 X11.6768 Y31.1759
G01 X11.6643 Y31.1769
G01 X11.5560 Y31.1820
G01 X11.4477 Y31.1769
G01 X11.4352 Y31.1759
G01 X11.3774 Y31.1675
G01 X11.3819 Y31.1898
G01 X11.3854 Y31.2160
G01 X11.3863 Y31.2246
G01 X11.3870 Y31.2464
G01 X11.3863 Y31.2594
G01 X11.3832 Y31.2848
G01 X11.3809 Y31.2982
G01 X11.3772 Y31.3165
G01 X11.4352 Y31.3081
G01 X11.4477 Y31.3071
G01 X11.5560 Y31.3020
G01 X11.6643 Y31.3071
G01 X11.6768 Y31.3081
G01 X11.7356 Y31.3166
G01 X11.7312 Y31.2989
G01 X11.7287 Y31.2840
G01 X11.7265 Y31.2560
G01 X11.7260 Y31.2420
G01 X11.7264 Y31.2289
G01 X11.7286 Y31.2000
G01 X11.7312 Y31.1841
G01 X11.7353 Y31.1674
G00 Z2.0000
G00 X11.9873 Y28.8425
G01 F50.00
G01 Z-0.5971
G01 F70.00
G01 X11.9805 Y28.7042
G01 X11.9875 Y28.5615
G00 Z2.0000
G00 X11.5635 Y28.6418
G01 F50.00
G01 Z-0.5971
G01 F70.00
G01 X11.5605 Y28.7042
G01 X11.5633 Y28.7622
G00 Z2.0000
G00 X11.3772 Y28.7765
G01 F50.00
G01 Z-0.5971
G01 F70.00
G01 X11.4352 Y28.7681
G01 X11.4477 Y28.7671
G01 X11.5457 Y28.7623
G01 X11.5560 Y28.7620
G01 X11.5663 Y28.7623
G01 X11.6643 Y28.7671
G01 X11.6768 Y28.7681
G01 X11.7893 Y28.7847
G01 X11.8021 Y28.7875
G01 X11.8973 Y28.8114
G01 X11.9070 Y28.8140
G01 X11.9170 Y28.8173
G01 X12.0094 Y28.8504
G01 X12.0219 Y28.8553
G01 X12.1172 Y28.9002
G01 X12.1354 Y28.9100
G01 X12.2263 Y28.9646
G01 X12.2367 Y28.9719
G01 X12.3206 Y29.0343
G01 X12.3314 Y29.0434
G01 X12.4041 Y29.1093
G01 X12.4135 Y29.1183
G01 X12.4846 Y29.1966
G01 X12.4977 Y29.2125
G01 X12.5561 Y29.2913
G01 X12.5616 Y29.2991
G01 X12.5696 Y29.3118
G01 X21.0504 Y29.3118
G01 X21.0566 Y29.3017
G01 X21.0639 Y29.2913
G01 X21.1278 Y29.2055
G01 X21.1354 Y29.1966
G01 X21.2013 Y29.1239
G01 X21.2084 Y29.1164
G01 X21.2159 Y29.1093
G01 X21.2886 Y29.0434
G01 X21.3045 Y29.0303
G01 X21.3833 Y28.9719
G01 X21.3937 Y28.9646
G01 X21.4846 Y28.9100
G01 X21.5028 Y28.9002
G01 X21.5915 Y28.8583
G01 X21.6106 Y28.8504
G01 X21.7030 Y28.8173
G01 X21.7141 Y28.8137
G01 X21.8179 Y28.7875
G01 X21.8307 Y28.7847
G01 X21.9428 Y28.7681
G01 X21.9557 Y28.7671
G01 X22.0640 Y28.7620
G01 X22.1723 Y28.7671
G01 X22.1852 Y28.7681
G01 X22.2436 Y28.7766
G01 X22.2400 Y28.7626
G01 X22.2363 Y28.7402
G01 X22.2345 Y28.7160
G01 X22.2340 Y28.7020
G01 X22.2344 Y28.6889
G01 X22.2362 Y28.6636
G01 X22.2400 Y28.6404
G01 X22.2433 Y28.6274
G01 X22.1852 Y28.6359
G01 X22.1723 Y28.6369
G01 X22.0743 Y28.6417
G01 X22.0640 Y28.6420
G01 X22.0537 Y28.6417
G01 X21.9557 Y28.6369
G01 X21.9428 Y28.6359
G01 X21.8307 Y28.6193
G01 X21.8179 Y28.6165
G01 X21.7227 Y28.5926
G01 X21.7030 Y28.5867
G01 X21.6106 Y28.5536
G01 X21.5967 Y28.5481
G01 X21.4957 Y28.5002
G01 X21.4846 Y28.4940
G01 X21.4005 Y28.4436
G01 X21.3833 Y28.4321
G01 X21.2975 Y28.3682
G01 X21.2886 Y28.3606
G01 X21.2084 Y28.2876
G01 X21.1354 Y28.2074
G01 X21.1223 Y28.1915
G01 X21.0639 Y28.1127
G01 X21.0566 Y28.1023
G01 X21.0504 Y28.0922
G01 X12.5696 Y28.0922
G01 X12.5616 Y28.1049
G01 X12.5561 Y28.1127
G01 X12.4977 Y28.1915
G01 X12.4903 Y28.2008
G01 X12.4187 Y28.2801
G01 X12.4041 Y28.2947
G01 X12.3314 Y28.3606
G01 X12.3155 Y28.3737
G01 X12.2367 Y28.4321
G01 X12.2263 Y28.4394
G01 X12.1354 Y28.4940
G01 X12.1172 Y28.5038
G01 X12.0285 Y28.5457
G01 X12.0094 Y28.5536
G01 X11.9070 Y28.5900
G01 X11.8021 Y28.6165
G01 X11.7893 Y28.6193
G01 X11.6768 Y28.6359
G01 X11.6643 Y28.6369
G01 X11.5560 Y28.6420
G01 X11.4477 Y28.6369
G01 X11.4352 Y28.6359
G01 X11.3774 Y28.6275
G01 X11.3819 Y28.6498
G01 X11.3854 Y28.6760
G01 X11.3863 Y28.6846
G01 X11.3870 Y28.7064
G01 X11.3863 Y28.7194
G01 X11.3832 Y28.7448
G01 X11.3809 Y28.7582
G01 X11.3772 Y28.7765
G00 Z2.0000
G00 X18.9701 Y34.3918
G01 F50.00
G01 Z-0.5971
G01 F70.00
G01 X19.1410 Y34.3306
G01 X19.6813 Y34.0751
G01 X20.1939 Y33.7678
G01 X20.6739 Y33.4118
G01 X20.9383 Y33.1722
G00 Z2.0000
G00 X21.5363 Y33.1722
G01 F50.00
G01 Z-0.5971
G01 F70.00
G01 X21.4137 Y33.3075
G01 X20.9404 Y33.7365
G01 X20.4272 Y34.1171
G01 X19.9689 Y34.3918
G01 X20.7610 Y34.3918
G01 X21.2068 Y34.0611
G01 X21.7107 Y33.6044
G01 X22.1025 Y33.1722
G00 Z2.0000
G00 X22.6365 Y33.1722
G01 F50.00
G01 Z-0.5971
G01 F70.00
G01 X22.4921 Y33.3670
G01 X22.0077 Y33.9014
G01 X21.4733 Y34.3858
G01 X21.4652 Y34.3918
G01 X22.0913 Y34.3918
G01 X22.3047 Y34.1984
G01 X22.8168 Y33.6334
G01 X23.1807 Y33.1428
G01 X24.3072 Y32.9241
G01 X24.4038 Y32.7629
G01 X24.7651 Y31.9991
G01 X24.9503 Y31.4814
G01 X25.1986 Y32.0327
G01 X25.4517 Y31.3255
G01 X25.5671 Y30.8646
G01 X25.8768 Y31.3545
G01 X26.0789 Y30.5478
G01 X26.1129 Y30.3188
G01 X26.4538 Y30.7775
G01 X26.4908 Y30.6297
G01 X26.6108 Y29.8209
G01 X26.9695 Y30.2618
G01 X27.0509 Y29.7128
G01 X27.0681 Y29.3636
G01 X27.4674 Y29.7639
G01 X27.4689 Y29.7540
G01 X27.5098 Y28.9219
G01 X27.9405 Y28.7042
G01 X27.9102 Y29.3211
G01 X27.9405 Y28.7042
G01 X27.9305 Y28.5012
G01 X28.3605 Y28.7042
G01 X28.3519 Y28.8794
G01 X28.3605 Y28.7042
G01 X28.3308 Y28.1009
G01 X28.7312 Y27.7005
G01 X28.7686 Y28.4627
G01 X29.1689 Y28.0624
G01 X29.1408 Y27.4898
G01 X29.1151 Y27.3166
G01 X29.4844 Y26.9473
G01 X29.5588 Y27.4486
G01 X29.5693 Y27.6620
G01 X29.9570 Y27.2743
G01 X29.8537 Y26.5780
G01 X30.2230 Y26.2087
G01 X30.3273 Y26.9116
G00 Z2.0000
G00 X30.7307 Y26.7718
G01 F50.00
G01 Z-0.5971
G01 F70.00
G01 X30.6101 Y25.9593
G01 X30.5825 Y25.8492
G01 X30.9406 Y25.5522
G01 X31.0221 Y25.8773
G01 X31.1547 Y26.7718
G00 Z2.0000
G00 X31.5299 Y26.4418
G01 F50.00
G01 Z-0.5971
G01 F70.00
G01 X31.4360 Y25.8092
G00 Z2.0000
G00 X31.8968 Y26.0562
G01 F50.00
G01 Z-0.5971
G01 F70.00
G01 X31.9270 Y26.2602
G00 Z2.0000
G00 X32.3464 Y26.2283
G01 F50.00
G01 Z-0.5971
G01 F70.00
G01 X32.3269 Y26.0972
G00 Z2.0000
G00 X32.4033 Y26.0874
G01 F50.00
G01 Z-0.5971
G01 F70.00
G01 X32.3444 Y26.0960
G01 X32.3323 Y26.0969
G01 X32.2343 Y26.1017
G01 X32.2240 Y26.1020
G01 X32.2137 Y26.1017
G01 X32.1157 Y26.0969
G01 X32.0952 Y26.0949
G01 X31.9893 Y26.0790
G01 X31.9779 Y26.0765
G01 X31.8827 Y26.0526
G01 X31.8630 Y26.0467
G01 X31.7706 Y26.0136
G01 X31.7567 Y26.0081
G01 X31.6557 Y25.9602
G01 X31.6446 Y25.9540
G01 X31.5537 Y25.8994
G01 X31.5433 Y25.8921
G01 X31.4645 Y25.8337
G01 X31.4486 Y25.8206
G01 X31.3684 Y25.7476
G01 X31.2954 Y25.6674
G01 X31.2823 Y25.6515
G01 X31.2239 Y25.5727
G01 X31.2166 Y25.5623
G01 X31.2104 Y25.5522
G01 X30.8795 Y25.5522
G01 X23.4528 Y32.9788
G01 X23.4083 Y33.0195
G01 X23.3967 Y33.0287
G01 X23.3561 Y33.0587
G01 X23.3441 Y33.0665
G01 X23.3062 Y33.0892
G01 X23.2891 Y33.0984
G01 X23.2481 Y33.1178
G01 X23.2290 Y33.1257
G01 X23.1874 Y33.1406
G01 X23.1764 Y33.1442
G01 X23.1249 Y33.1573
G01 X23.1046 Y33.1613
G01 X23.0609 Y33.1678
G01 X23.0404 Y33.1698
G01 X22.9860 Y33.1722
G01 X12.5696 Y33.1722
G01 X12.5622 Y33.1841
G01 X12.5561 Y33.1927
G01 X12.4934 Y33.2771
G01 X12.4846 Y33.2874
G01 X12.4187 Y33.3601
G01 X12.4055 Y33.3734
G01 X12.3314 Y33.4406
G01 X12.3312 Y33.4404
G01 X12.3234 Y33.4475
G01 X12.3155 Y33.4537
G01 X12.2315 Y33.5159
G01 X12.2195 Y33.5236
G01 X12.1354 Y33.5740
G01 X12.1172 Y33.5838
G01 X12.0281 Y33.6259
G01 X12.0094 Y33.6336
G01 X11.9170 Y33.6667
G01 X11.9070 Y33.6700
G01 X11.8973 Y33.6726
G01 X11.8021 Y33.6965
G01 X11.7819 Y33.7005
G01 X11.6842 Y33.7150
G01 X11.6643 Y33.7169
G01 X11.5560 Y33.7220
G01 X11.4477 Y33.7169
G01 X11.4278 Y33.7150
G01 X11.3774 Y33.7075
G01 X11.3824 Y33.7330
G01 X11.3854 Y33.7560
G01 X11.3863 Y33.7646
G01 X11.3870 Y33.7864
G01 X11.3863 Y33.7994
G01 X11.3832 Y33.8248
G01 X11.3809 Y33.8382
G01 X11.3772 Y33.8565
G01 X11.4278 Y33.8490
G01 X11.4477 Y33.8471
G01 X11.5560 Y33.8420
G01 X11.6643 Y33.8471
G01 X11.6842 Y33.8490
G01 X11.7819 Y33.8635
G01 X11.8021 Y33.8675
G01 X11.8973 Y33.8914
G01 X11.9070 Y33.8940
G01 X11.9170 Y33.8973
G01 X12.0094 Y33.9304
G01 X12.0281 Y33.9381
G01 X12.1213 Y33.9823
G01 X12.1354 Y33.9900
G01 X12.2195 Y34.0404
G01 X12.2367 Y34.0519
G01 X12.3155 Y34.1103
G01 X12.3252 Y34.1180
G01 X12.4075 Y34.1924
G01 X12.4187 Y34.2039
G01 X12.4846 Y34.2766
G01 X12.4977 Y34.2925
G01 X12.5561 Y34.3713
G01 X12.5639 Y34.3825
G01 X12.5696 Y34.3918
G01 X22.8395 Y34.3918
G01 X30.2662 Y26.9652
G01 X30.3064 Y26.9284
G01 X30.3223 Y26.9153
G01 X30.3578 Y26.8890
G01 X30.3682 Y26.8818
G01 X30.4128 Y26.8548
G01 X30.4310 Y26.8451
G01 X30.4761 Y26.8238
G01 X30.4900 Y26.8183
G01 X30.5316 Y26.8034
G01 X30.5513 Y26.7975
G01 X30.5941 Y26.7867
G01 X30.6069 Y26.7839
G01 X30.6657 Y26.7752
G01 X30.6786 Y26.7742
G01 X30.7330 Y26.7718
G01 X31.2104 Y26.7718
G01 X31.2166 Y26.7617
G01 X31.2239 Y26.7513
G01 X31.2878 Y26.6655
G01 X31.2954 Y26.6566
G01 X31.3613 Y26.5839
G01 X31.3684 Y26.5764
G01 X31.3759 Y26.5693
G01 X31.4486 Y26.5034
G01 X31.4645 Y26.4903
G01 X31.5433 Y26.4319
G01 X31.5537 Y26.4246
G01 X31.6446 Y26.3700
G01 X31.6628 Y26.3602
G01 X31.7515 Y26.3183
G01 X31.7706 Y26.3104
G01 X31.8630 Y26.2773
G01 X31.8741 Y26.2737
G01 X31.9779 Y26.2475
G01 X31.9893 Y26.2450
G01 X32.1036 Y26.2280
G01 X32.1157 Y26.2271
G01 X32.2240 Y26.2220
G01 X32.3323 Y26.2271
G01 X32.3444 Y26.2280
G01 X32.4036 Y26.2366
G01 X32.4000 Y26.2226
G01 X32.3956 Y26.1925
G01 X32.3945 Y26.1760
G01 X32.3940 Y26.1620
G01 X32.3955 Y26.1310
G01 X32.3972 Y26.1157
G01 X32.4000 Y26.1004
G01 X32.4033 Y26.0874
G00 Z2.0000
G00 X24.1830 Y32.2487
G01 F50.00
G01 Z-0.5971
G01 F70.00
G01 X24.0334 Y32.5649
G01 X23.6202 Y33.2543
G01 X23.1414 Y33.8999
G01 X22.6956 Y34.3918
G00 Z2.0000
G00 X5.8265 Y52.0386
G01 F50.00
G01 Z-0.5971
G01 F70.00
G01 X5.8174 Y52.2238
G01 X5.7902 Y52.4073
G01 X5.7451 Y52.5872
G01 X5.6826 Y52.7618
G01 X5.6033 Y52.9295
G01 X5.5080 Y53.0886
G01 X5.3975 Y53.2376
G01 X5.2729 Y53.3750
G01 X5.1355 Y53.4996
G01 X4.9865 Y53.6100
G01 X4.8274 Y53.7054
G01 X4.6598 Y53.7847
G01 X4.4851 Y53.8472
G01 X4.3052 Y53.8922
G01 X4.1218 Y53.9195
G01 X3.9365 Y53.9286
G01 X3.7512 Y53.9195
G01 X3.5678 Y53.8922
G01 X3.3879 Y53.8472
G01 X3.2132 Y53.7847
G01 X3.0456 Y53.7054
G01 X2.8865 Y53.6100
G01 X2.7375 Y53.4996
G01 X2.6001 Y53.3750
G01 X2.4755 Y53.2376
G01 X2.3650 Y53.0886
G01 X2.2697 Y52.9295
G01 X2.1904 Y52.7618
G01 X2.1279 Y52.5872
G01 X2.0828 Y52.4073
G01 X2.0556 Y52.2238
G01 X2.0465 Y52.0386
G01 X2.0556 Y51.8533
G01 X2.0828 Y51.6698
G01 X2.1279 Y51.4899
G01 X2.1904 Y51.3153
G01 X2.2697 Y51.1476
G01 X2.3650 Y50.9885
G01 X2.4755 Y50.8396
G01 X2.6001 Y50.7021
G01 X2.7375 Y50.5776
G01 X2.8865 Y50.4671
G01 X3.0456 Y50.3717
G01 X3.2132 Y50.2924
G01 X3.3879 Y50.2299
G01 X3.5678 Y50.1849
G01 X3.7512 Y50.1577
G01 X3.9365 Y50.1486
G01 X4.1218 Y50.1577
G01 X4.3052 Y50.1849
G01 X4.4851 Y50.2299
G01 X4.6598 Y50.2924
G01 X4.8274 Y50.3717
G01 X4.9865 Y50.4671
G01 X5.1355 Y50.5776
G01 X5.2729 Y50.7021
G01 X5.3975 Y50.8396
G01 X5.5080 Y50.9885
G01 X5.6033 Y51.1476
G01 X5.6826 Y51.3153
G01 X5.7451 Y51.4899
G01 X5.7902 Y51.6698
G01 X5.8174 Y51.8533
G01 X5.8265 Y52.0386
G01 X5.4065 Y52.0386
G01 X5.3994 Y52.1826
G01 X5.3783 Y52.3253
G01 X5.3432 Y52.4653
G01 X5.2946 Y52.6011
G01 X5.2329 Y52.7315
G01 X5.1588 Y52.8553
G01 X5.0728 Y52.9711
G01 X4.9759 Y53.0780
G01 X4.8691 Y53.1749
G01 X4.7532 Y53.2608
G01 X4.6295 Y53.3350
G01 X4.4990 Y53.3967
G01 X4.3632 Y53.4453
G01 X4.2233 Y53.4803
G01 X4.0806 Y53.5015
G01 X3.9365 Y53.5086
G01 X3.7924 Y53.5015
G01 X3.6497 Y53.4803
G01 X3.5098 Y53.4453
G01 X3.3740 Y53.3967
G01 X3.2435 Y53.3350
G01 X3.1198 Y53.2608
G01 X3.0039 Y53.1749
G01 X2.8971 Y53.0780
G01 X2.8002 Y52.9711
G01 X2.7142 Y52.8553
G01 X2.6401 Y52.7315
G01 X2.5784 Y52.6011
G01 X2.5298 Y52.4653
G01 X2.4947 Y52.3253
G01 X2.4736 Y52.1826
G01 X2.4665 Y52.0386
G01 X2.4736 Y51.8945
G01 X2.4947 Y51.7518
G01 X2.5298 Y51.6118
G01 X2.5784 Y51.4760
G01 X2.6401 Y51.3456
G01 X2.7142 Y51.2219
G01 X2.8002 Y51.1060
G01 X2.8971 Y50.9991
G01 X3.0039 Y50.9022
G01 X3.1198 Y50.8163
G01 X3.2435 Y50.7421
G01 X3.3740 Y50.6805
G01 X3.5098 Y50.6319
G01 X3.6497 Y50.5968
G01 X3.7924 Y50.5756
G01 X3.9365 Y50.5686
G01 X4.0806 Y50.5756
G01 X4.2233 Y50.5968
G01 X4.3632 Y50.6319
G01 X4.4990 Y50.6805
G01 X4.6295 Y50.7421
G01 X4.7532 Y50.8163
G01 X4.8691 Y50.9022
G01 X4.9759 Y50.9991
G01 X5.0728 Y51.1060
G01 X5.1588 Y51.2219
G01 X5.2329 Y51.3456
G01 X5.2946 Y51.4760
G01 X5.3432 Y51.6118
G01 X5.3783 Y51.7518
G01 X5.3994 Y51.8945
G01 X5.4065 Y52.0386
G01 X4.9865 Y52.0386
G01 X4.9814 Y52.1415
G01 X4.9663 Y52.2434
G01 X4.9413 Y52.3434
G01 X4.9066 Y52.4404
G01 X4.8625 Y52.5335
G01 X4.8095 Y52.6219
G01 X4.7482 Y52.7047
G01 X4.6790 Y52.7810
G01 X4.6026 Y52.8502
G01 X4.5198 Y52.9116
G01 X4.4315 Y52.9646
G01 X4.3383 Y53.0086
G01 X4.2413 Y53.0434
G01 X4.1413 Y53.0684
G01 X4.0394 Y53.0835
G01 X3.9365 Y53.0886
G01 X3.8336 Y53.0835
G01 X3.7317 Y53.0684
G01 X3.6317 Y53.0434
G01 X3.5347 Y53.0086
G01 X3.4415 Y52.9646
G01 X3.3532 Y52.9116
G01 X3.2704 Y52.8502
G01 X3.1940 Y52.7810
G01 X3.1248 Y52.7047
G01 X3.0635 Y52.6219
G01 X3.0105 Y52.5335
G01 X2.9664 Y52.4404
G01 X2.9317 Y52.3434
G01 X2.9067 Y52.2434
G01 X2.8916 Y52.1415
G01 X2.8865 Y52.0386
G01 X2.8916 Y51.9356
G01 X2.9067 Y51.8337
G01 X2.9317 Y51.7338
G01 X2.9664 Y51.6367
G01 X3.0105 Y51.5436
G01 X3.0635 Y51.4552
G01 X3.1248 Y51.3725
G01 X3.1940 Y51.2961
G01 X3.2704 Y51.2269
G01 X3.3532 Y51.1655
G01 X3.4415 Y51.1125
G01 X3.5347 Y51.0685
G01 X3.6317 Y51.0338
G01 X3.7317 Y51.0087
G01 X3.8336 Y50.9936
G01 X3.9365 Y50.9886
G01 X4.0394 Y50.9936
G01 X4.1413 Y51.0087
G01 X4.2413 Y51.0338
G01 X4.3383 Y51.0685
G01 X4.4315 Y51.1125
G01 X4.5198 Y51.1655
G01 X4.6026 Y51.2269
G01 X4.6790 Y51.2961
G01 X4.7482 Y51.3725
G01 X4.8095 Y51.4552
G01 X4.8625 Y51.5436
G01 X4.9066 Y51.6367
G01 X4.9413 Y51.7338
G01 X4.9663 Y51.8337
G01 X4.9814 Y51.9356
G01 X4.9865 Y52.0386
G01 X4.5665 Y52.0386
G01 X4.5635 Y52.1003
G01 X4.5544 Y52.1615
G01 X4.5394 Y52.2214
G01 X4.5185 Y52.2797
G01 X4.4921 Y52.3355
G01 X4.4603 Y52.3886
G01 X4.4235 Y52.4382
G01 X4.3820 Y52.4840
G01 X4.3362 Y52.5256
G01 X4.2865 Y52.5624
G01 X4.2335 Y52.5942
G01 X4.1776 Y52.6206
G01 X4.1194 Y52.6414
G01 X4.0594 Y52.6565
G01 X3.9983 Y52.6655
G01 X3.9365 Y52.6686
G01 X3.8747 Y52.6655
G01 X3.8136 Y52.6565
G01 X3.7536 Y52.6414
G01 X3.6954 Y52.6206
G01 X3.6395 Y52.5942
G01 X3.5865 Y52.5624
G01 X3.5368 Y52.5256
G01 X3.4910 Y52.4840
G01 X3.4495 Y52.4382
G01 X3.4127 Y52.3886
G01 X3.3809 Y52.3355
G01 X3.3545 Y52.2797
G01 X3.3336 Y52.2214
G01 X3.3186 Y52.1615
G01 X3.3095 Y52.1003
G01 X3.3065 Y52.0386
G01 X3.3095 Y51.9768
G01 X3.3186 Y51.9157
G01 X3.3336 Y51.8557
G01 X3.3545 Y51.7975
G01 X3.3809 Y51.7416
G01 X3.4127 Y51.6886
G01 X3.4495 Y51.6389
G01 X3.4910 Y51.5931
G01 X3.5368 Y51.5516
G01 X3.5865 Y51.5147
G01 X3.6395 Y51.4830
G01 X3.6954 Y51.4565
G01 X3.7536 Y51.4357
G01 X3.8136 Y51.4207
G01 X3.8747 Y51.4116
G01 X3.9365 Y51.4086
G01 X3.9983 Y51.4116
G01 X4.0594 Y51.4207
G01 X4.1194 Y51.4357
G01 X4.1776 Y51.4565
G01 X4.2335 Y51.4830
G01 X4.2865 Y51.5147
G01 X4.3362 Y51.5516
G01 X4.3820 Y51.5931
G01 X4.4235 Y51.6389
G01 X4.4603 Y51.6886
G01 X4.4921 Y51.7416
G01 X4.5185 Y51.7975
G01 X4.5394 Y51.8557
G01 X4.5544 Y51.9157
G01 X4.5635 Y51.9768
G01 X4.5665 Y52.0386
G01 X4.1465 Y52.0386
G01 X4.1455 Y52.0591
G01 X4.1425 Y52.0795
G01 X4.1375 Y52.0995
G01 X4.1305 Y52.1189
G01 X4.1217 Y52.1376
G01 X4.1111 Y52.1552
G01 X4.0988 Y52.1718
G01 X4.0850 Y52.1871
G01 X4.0697 Y52.2009
G01 X4.0532 Y52.2132
G01 X4.0355 Y52.2238
G01 X4.0169 Y52.2326
G01 X3.9975 Y52.2395
G01 X3.9775 Y52.2445
G01 X3.9571 Y52.2476
G01 X3.9365 Y52.2486
G01 X3.9159 Y52.2476
G01 X3.8955 Y52.2445
G01 X3.8755 Y52.2395
G01 X3.8561 Y52.2326
G01 X3.8375 Y52.2238
G01 X3.8198 Y52.2132
G01 X3.8033 Y52.2009
G01 X3.7880 Y52.1871
G01 X3.7742 Y52.1718
G01 X3.7619 Y52.1552
G01 X3.7513 Y52.1376
G01 X3.7425 Y52.1189
G01 X3.7355 Y52.0995
G01 X3.7305 Y52.0795
G01 X3.7275 Y52.0591
G01 X3.7265 Y52.0386
G01 X3.7275 Y52.0180
G01 X3.7305 Y51.9976
G01 X3.7355 Y51.9776
G01 X3.7425 Y51.9582
G01 X3.7513 Y51.9396
G01 X3.7619 Y51.9219
G01 X3.7742 Y51.9053
G01 X3.7880 Y51.8901
G01 X3.8033 Y51.8762
G01 X3.8198 Y51.8640
G01 X3.8375 Y51.8534
G01 X3.8561 Y51.8445
G01 X3.8755 Y51.8376
G01 X3.8955 Y51.8326
G01 X3.9159 Y51.8296
G01 X3.9365 Y51.8286
G01 X3.9571 Y51.8296
G01 X3.9775 Y51.8326
G01 X3.9975 Y51.8376
G01 X4.0169 Y51.8445
G01 X4.0355 Y51.8534
G01 X4.0532 Y51.8640
G01 X4.0697 Y51.8762
G01 X4.0850 Y51.8901
G01 X4.0988 Y51.9053
G01 X4.1111 Y51.9219
G01 X4.1217 Y51.9396
G01 X4.1305 Y51.9582
G01 X4.1375 Y51.9776
G01 X4.1425 Y51.9976
G01 X4.1455 Y52.0180
G01 X4.1465 Y52.0386
G01 X1.9135 Y51.7623
G01 X1.9237 Y51.7000
G01 X1.9356 Y51.6389
G01 X1.9489 Y51.5796
G01 X1.9651 Y51.5201
G01 X1.9827 Y51.4598
G01 X2.0013 Y51.4022
G01 X2.0229 Y51.3446
G01 X2.0461 Y51.2861
G01 X2.0707 Y51.2289
G01 X2.0965 Y51.1737
G01 X2.1249 Y51.1186
G01 X2.1540 Y51.0640
G01 X2.1855 Y51.0110
G01 X2.2189 Y50.9573
G01 X2.2521 Y50.9070
G01 X2.2881 Y50.8566
G01 X2.3252 Y50.8077
G01 X2.3647 Y50.7590
G01 X2.4038 Y50.7128
G01 X2.4463 Y50.6676
G01 X2.4895 Y50.6225
G01 X2.5346 Y50.5793
G01 X2.5798 Y50.5368
G01 X2.6260 Y50.4977
G01 X2.6747 Y50.4582
G01 X2.7236 Y50.4211
G01 X2.7740 Y50.3851
G01 X2.8243 Y50.3519
G01 X2.8780 Y50.3185
G01 X2.9310 Y50.2870
G01 X2.9856 Y50.2579
G01 X3.0407 Y50.2295
G01 X3.0959 Y50.2037
G01 X3.1531 Y50.1791
G01 X3.2116 Y50.1559
G01 X3.2692 Y50.1343
G01 X3.3268 Y50.1157
G01 X3.3871 Y50.0981
G01 X3.4466 Y50.0819
G01 X3.5059 Y50.0686
G01 X3.5670 Y50.0567
G01 X3.6293 Y50.0465
G01 X3.6912 Y50.0374
G01 X3.7506 Y50.0312
G01 X3.8123 Y50.0267
G01 X3.8742 Y50.0239
G01 X3.9360 Y50.0230
G01 X3.9988 Y50.0239
G01 X4.0607 Y50.0267
G01 X4.1224 Y50.0312
G01 X4.1818 Y50.0374
G01 X4.2437 Y50.0465
G01 X4.3060 Y50.0567
G01 X4.3671 Y50.0686
G01 X4.4264 Y50.0819
G01 X4.4859 Y50.0981
G01 X4.5462 Y50.1157
G01 X4.6038 Y50.1343
G01 X4.6614 Y50.1559
G01 X4.7199 Y50.1791
G01 X4.7771 Y50.2037
G01 X4.8323 Y50.2295
G01 X4.8874 Y50.2579
G01 X4.9420 Y50.2870
G01 X4.9950 Y50.3185
G01 X5.0487 Y50.3519
G01 X5.0990 Y50.3851
G01 X5.1494 Y50.4211
G01 X5.1983 Y50.4582
G01 X5.2470 Y50.4977
G01 X5.2932 Y50.5368
G01 X5.3384 Y50.5793
G01 X5.3835 Y50.6225
G01 X5.4267 Y50.6676
G01 X5.4692 Y50.7128
G01 X5.5083 Y50.7590
G01 X5.5478 Y50.8077
G01 X5.5849 Y50.8566
G01 X5.6209 Y50.9070
G01 X5.6541 Y50.9573
G01 X5.6875 Y51.0110
G01 X5.7190 Y51.0640
G01 X5.7481 Y51.1186
G01 X5.7765 Y51.1737
G01 X5.8023 Y51.2289
G01 X5.8269 Y51.2861
G01 X5.8501 Y51.3446
G01 X5.8717 Y51.4022
G01 X5.8903 Y51.4598
G01 X5.9079 Y51.5201
G01 X5.9241 Y51.5796
G01 X5.9374 Y51.6389
G01 X5.9493 Y51.7000
G01 X5.9595 Y51.7623
G01 X5.9686 Y51.8242
G01 X5.9748 Y51.8836
G01 X5.9793 Y51.9453
G01 X5.9821 Y52.0072
G01 X5.9830 Y52.0700
G01 X5.9821 Y52.1318
G01 X5.9793 Y52.1937
G01 X5.9748 Y52.2554
G01 X5.9686 Y52.3148
G01 X5.9595 Y52.3767
G01 X5.9493 Y52.4390
G01 X5.9374 Y52.5001
G01 X5.9241 Y52.5594
G01 X5.9079 Y52.6189
G01 X5.8903 Y52.6792
G01 X5.8717 Y52.7368
G01 X5.8501 Y52.7944
G01 X5.8269 Y52.8529
G01 X5.8023 Y52.9101
G01 X5.7765 Y52.9653
G01 X5.7481 Y53.0204
G01 X5.7190 Y53.0750
G01 X5.6875 Y53.1280
G01 X5.6541 Y53.1817
G01 X5.6209 Y53.2320
G01 X5.5849 Y53.2824
G01 X5.5478 Y53.3313
G01 X5.5083 Y53.3800
G01 X5.4692 Y53.4262
G01 X5.4267 Y53.4714
G01 X5.3835 Y53.5165
G01 X5.3384 Y53.5597
G01 X5.2932 Y53.6022
G01 X5.2470 Y53.6413
G01 X5.1983 Y53.6808
G01 X5.1494 Y53.7179
G01 X5.0990 Y53.7539
G01 X5.0487 Y53.7871
G01 X4.9950 Y53.8205
G01 X4.9420 Y53.8520
G01 X4.8874 Y53.8811
G01 X4.8323 Y53.9095
G01 X4.7771 Y53.9353
G01 X4.7199 Y53.9599
G01 X4.6614 Y53.9831
G01 X4.6038 Y54.0047
G01 X4.5462 Y54.0233
G01 X4.4859 Y54.0409
G01 X4.4264 Y54.0571
G01 X4.3671 Y54.0704
G01 X4.3060 Y54.0823
G01 X4.2437 Y54.0925
G01 X4.1818 Y54.1016
G01 X4.1224 Y54.1078
G01 X4.0607 Y54.1123
G01 X3.9988 Y54.1151
G01 X3.9360 Y54.1160
G01 X3.8742 Y54.1151
G01 X3.8123 Y54.1123
G01 X3.7506 Y54.1078
G01 X3.6912 Y54.1016
G01 X3.6293 Y54.0925
G01 X3.5670 Y54.0823
G01 X3.5059 Y54.0704
G01 X3.4466 Y54.0571
G01 X3.3871 Y54.0409
G01 X3.3268 Y54.0233
G01 X3.2692 Y54.0047
G01 X3.2116 Y53.9831
G01 X3.1531 Y53.9599
G01 X3.0959 Y53.9353
G01 X3.0407 Y53.9095
G01 X2.9856 Y53.8811
G01 X2.9310 Y53.8520
G01 X2.8780 Y53.8205
G01 X2.8243 Y53.7871
G01 X2.7740 Y53.7539
G01 X2.7236 Y53.7179
G01 X2.6747 Y53.6808
G01 X2.6260 Y53.6413
G01 X2.5798 Y53.6022
G01 X2.5346 Y53.5597
G01 X2.4895 Y53.5165
G01 X2.4463 Y53.4714
G01 X2.4038 Y53.4262
G01 X2.3647 Y53.3800
G01 X2.3252 Y53.3313
G01 X2.2881 Y53.2824
G01 X2.2521 Y53.2320
G01 X2.2189 Y53.1817
G01 X2.1855 Y53.1280
G01 X2.1540 Y53.0750
G01 X2.1249 Y53.0204
G01 X2.0965 Y52.9653
G01 X2.0707 Y52.9101
G01 X2.0461 Y52.8529
G01 X2.0229 Y52.7944
G01 X2.0013 Y52.7368
G01 X1.9827 Y52.6792
G01 X1.9651 Y52.6189
G01 X1.9489 Y52.5594
G01 X1.9356 Y52.5001
G01 X1.9237 Y52.4390
G01 X1.9135 Y52.3767
G01 X1.9044 Y52.3148
G01 X1.8982 Y52.2554
G01 X1.8937 Y52.1937
G01 X1.8909 Y52.1318
G01 X1.8900 Y52.0700
G01 X1.8909 Y52.0072
G01 X1.8937 Y51.9453
G01 X1.8982 Y51.8836
G01 X1.9044 Y51.8242
G01 X1.9135 Y51.7623
G00 Z2.0000
G00 X47.6100 Y52.0700
G01 F50.00
G01 Z-0.5971
G01 F70.00
G01 X47.6109 Y52.1318
G01 X47.6137 Y52.1937
G01 X47.6182 Y52.2554
G01 X47.6244 Y52.3148
G01 X47.6335 Y52.3767
G01 X47.6437 Y52.4390
G01 X47.6556 Y52.5001
G01 X47.6689 Y52.5594
G01 X47.6851 Y52.6189
G01 X47.7027 Y52.6792
G01 X47.7213 Y52.7368
G01 X47.7429 Y52.7944
G01 X47.7661 Y52.8529
G01 X47.7907 Y52.9101
G01 X47.8165 Y52.9653
G01 X47.8449 Y53.0204
G01 X47.8740 Y53.0750
G01 X47.9055 Y53.1280
G01 X47.9389 Y53.1817
G01 X47.9721 Y53.2320
G01 X48.0081 Y53.2824
G01 X48.0452 Y53.3313
G01 X48.0847 Y53.3800
G01 X48.1238 Y53.4262
G01 X48.1663 Y53.4714
G01 X48.2095 Y53.5165
G01 X48.2546 Y53.5597
G01 X48.2998 Y53.6022
G01 X48.3460 Y53.6413
G01 X48.3947 Y53.6808
G01 X48.4436 Y53.7179
G01 X48.4940 Y53.7539
G01 X48.5443 Y53.7871
G01 X48.5980 Y53.8205
G01 X48.6510 Y53.8520
G01 X48.7056 Y53.8811
G01 X48.7607 Y53.9095
G01 X48.8159 Y53.9353
G01 X48.8731 Y53.9599
G01 X48.9316 Y53.9831
G01 X48.9892 Y54.0047
G01 X49.0468 Y54.0233
G01 X49.1071 Y54.0409
G01 X49.1666 Y54.0571
G01 X49.2259 Y54.0704
G01 X49.2870 Y54.0823
G01 X49.3493 Y54.0925
G01 X49.4112 Y54.1016
G01 X49.4706 Y54.1078
G01 X49.5323 Y54.1123
G01 X49.5942 Y54.1151
G01 X49.6560 Y54.1160
G01 X49.7188 Y54.1151
G01 X49.7807 Y54.1123
G01 X49.8424 Y54.1078
G01 X49.9018 Y54.1016
G01 X49.9637 Y54.0925
G01 X50.0260 Y54.0823
G01 X50.0871 Y54.0704
G01 X50.1464 Y54.0571
G01 X50.2059 Y54.0409
G01 X50.2662 Y54.0233
G01 X50.3238 Y54.0047
G01 X50.3814 Y53.9831
G01 X50.4399 Y53.9599
G01 X50.4971 Y53.9353
G01 X50.5523 Y53.9095
G01 X50.6074 Y53.8811
G01 X50.6620 Y53.8520
G01 X50.7150 Y53.8205
G01 X50.7687 Y53.7871
G01 X50.8190 Y53.7539
G01 X50.8694 Y53.7179
G01 X50.9183 Y53.6808
G01 X50.9670 Y53.6413
G01 X51.0132 Y53.6022
G01 X51.0584 Y53.5597
G01 X51.1035 Y53.5165
G01 X51.1467 Y53.4714
G01 X51.1892 Y53.4262
G01 X51.2283 Y53.3800
G01 X51.2678 Y53.3313
G01 X51.3049 Y53.2824
G01 X51.3409 Y53.2320
G01 X51.3741 Y53.1817
G01 X51.4075 Y53.1280
G01 X51.4390 Y53.0750
G01 X51.4681 Y53.0204
G01 X51.4965 Y52.9653
G01 X51.5223 Y52.9101
G01 X51.5469 Y52.8529
G01 X51.5701 Y52.7944
G01 X51.5917 Y52.7368
G01 X51.6103 Y52.6792
G01 X51.6279 Y52.6189
G01 X51.6441 Y52.5594
G01 X51.6574 Y52.5001
G01 X51.6693 Y52.4390
G01 X51.6795 Y52.3767
G01 X51.6886 Y52.3148
G01 X51.6948 Y52.2554
G01 X51.6993 Y52.1937
G01 X51.7021 Y52.1318
G01 X51.7030 Y52.0700
G01 X51.7021 Y52.0072
G01 X51.6993 Y51.9453
G01 X51.6948 Y51.8836
G01 X51.6886 Y51.8242
G01 X51.6795 Y51.7623
G01 X51.6693 Y51.7000
G01 X51.6574 Y51.6389
G01 X51.6441 Y51.5796
G01 X51.6279 Y51.5201
G01 X51.6103 Y51.4598
G01 X51.5917 Y51.4022
G01 X51.5701 Y51.3446
G01 X51.5469 Y51.2861
G01 X51.5223 Y51.2289
G01 X51.4965 Y51.1737
G01 X51.4681 Y51.1186
G01 X51.4390 Y51.0640
G01 X51.4075 Y51.0110
G01 X51.3741 Y50.9573
G01 X51.3409 Y50.9070
G01 X51.3049 Y50.8566
G01 X51.2678 Y50.8077
G01 X51.2283 Y50.7590
G01 X51.1892 Y50.7128
G01 X51.1467 Y50.6676
G01 X51.1035 Y50.6225
G01 X51.0584 Y50.5793
G01 X51.0132 Y50.5368
G01 X50.9670 Y50.4977
G01 X50.9183 Y50.4582
G01 X50.8694 Y50.4211
G01 X50.8190 Y50.3851
G01 X50.7687 Y50.3519
G01 X50.7150 Y50.3185
G01 X50.6620 Y50.2870
G01 X50.6074 Y50.2579
G01 X50.5523 Y50.2295
G01 X50.4971 Y50.2037
G01 X50.4399 Y50.1791
G01 X50.3814 Y50.1559
G01 X50.3238 Y50.1343
G01 X50.2662 Y50.1157
G01 X50.2059 Y50.0981
G01 X50.1464 Y50.0819
G01 X50.0871 Y50.0686
G01 X50.0260 Y50.0567
G01 X49.9637 Y50.0465
G01 X49.9018 Y50.0374
G01 X49.8424 Y50.0312
G01 X49.7807 Y50.0267
G01 X49.7188 Y50.0239
G01 X49.6560 Y50.0230
G01 X49.5942 Y50.0239
G01 X49.5323 Y50.0267
G01 X49.4706 Y50.0312
G01 X49.4112 Y50.0374
G01 X49.3493 Y50.0465
G01 X49.2870 Y50.0567
G01 X49.2259 Y50.0686
G01 X49.1666 Y50.0819
G01 X49.1071 Y50.0981
G01 X49.0468 Y50.1157
G01 X48.9892 Y50.1343
G01 X48.9316 Y50.1559
G01 X48.8731 Y50.1791
G01 X48.8159 Y50.2037
G01 X48.7607 Y50.2295
G01 X48.7056 Y50.2579
G01 X48.6510 Y50.2870
G01 X48.5980 Y50.3185
G01 X48.5443 Y50.3519
G01 X48.4940 Y50.3851
G01 X48.4436 Y50.4211
G01 X48.3947 Y50.4582
G01 X48.3460 Y50.4977
G01 X48.2998 Y50.5368
G01 X48.2546 Y50.5793
G01 X48.2095 Y50.6225
G01 X48.1663 Y50.6676
G01 X48.1238 Y50.7128
G01 X48.0847 Y50.7590
G01 X48.0452 Y50.8077
G01 X48.0081 Y50.8566
G01 X47.9721 Y50.9070
G01 X47.9389 Y50.9573
G01 X47.9055 Y51.0110
G01 X47.8740 Y51.0640
G01 X47.8449 Y51.1186
G01 X47.8165 Y51.1737
G01 X47.7907 Y51.2289
G01 X47.7661 Y51.2861
G01 X47.7429 Y51.3446
G01 X47.7213 Y51.4022
G01 X47.7027 Y51.4598
G01 X47.6851 Y51.5201
G01 X47.6689 Y51.5796
G01 X47.6556 Y51.6389
G01 X47.6437 Y51.7000
G01 X47.6335 Y51.7623
G01 X47.6244 Y51.8242
G01 X47.6182 Y51.8836
G01 X47.6137 Y51.9453
G01 X47.6109 Y52.0072
G01 X47.6100 Y52.0700
G01 X49.8665 Y52.0386
G01 X49.8655 Y52.0180
G01 X49.8625 Y51.9976
G01 X49.8575 Y51.9776
G01 X49.8505 Y51.9582
G01 X49.8417 Y51.9396
G01 X49.8311 Y51.9219
G01 X49.8188 Y51.9053
G01 X49.8050 Y51.8901
G01 X49.7897 Y51.8762
G01 X49.7732 Y51.8640
G01 X49.7555 Y51.8534
G01 X49.7369 Y51.8445
G01 X49.7175 Y51.8376
G01 X49.6975 Y51.8326
G01 X49.6771 Y51.8296
G01 X49.6565 Y51.8286
G01 X49.6359 Y51.8296
G01 X49.6155 Y51.8326
G01 X49.5955 Y51.8376
G01 X49.5761 Y51.8445
G01 X49.5575 Y51.8534
G01 X49.5398 Y51.8640
G01 X49.5233 Y51.8762
G01 X49.5080 Y51.8901
G01 X49.4942 Y51.9053
G01 X49.4819 Y51.9219
G01 X49.4713 Y51.9396
G01 X49.4625 Y51.9582
G01 X49.4555 Y51.9776
G01 X49.4505 Y51.9976
G01 X49.4475 Y52.0180
G01 X49.4465 Y52.0386
G01 X49.4475 Y52.0591
G01 X49.4505 Y52.0795
G01 X49.4555 Y52.0995
G01 X49.4625 Y52.1189
G01 X49.4713 Y52.1376
G01 X49.4819 Y52.1552
G01 X49.4942 Y52.1718
G01 X49.5080 Y52.1871
G01 X49.5233 Y52.2009
G01 X49.5398 Y52.2132
G01 X49.5575 Y52.2238
G01 X49.5761 Y52.2326
G01 X49.5955 Y52.2395
G01 X49.6155 Y52.2445
G01 X49.6359 Y52.2476
G01 X49.6565 Y52.2486
G01 X49.6771 Y52.2476
G01 X49.6975 Y52.2445
G01 X49.7175 Y52.2395
G01 X49.7369 Y52.2326
G01 X49.7555 Y52.2238
G01 X49.7732 Y52.2132
G01 X49.7897 Y52.2009
G01 X49.8050 Y52.1871
G01 X49.8188 Y52.1718
G01 X49.8311 Y52.1552
G01 X49.8417 Y52.1376
G01 X49.8505 Y52.1189
G01 X49.8575 Y52.0995
G01 X49.8625 Y52.0795
G01 X49.8655 Y52.0591
G01 X49.8665 Y52.0386
G01 X50.2865 Y52.0386
G01 X50.2835 Y51.9768
G01 X50.2744 Y51.9157
G01 X50.2594 Y51.8557
G01 X50.2385 Y51.7975
G01 X50.2121 Y51.7416
G01 X50.1803 Y51.6886
G01 X50.1435 Y51.6389
G01 X50.1020 Y51.5931
G01 X50.0562 Y51.5516
G01 X50.0065 Y51.5147
G01 X49.9535 Y51.4830
G01 X49.8976 Y51.4565
G01 X49.8394 Y51.4357
G01 X49.7794 Y51.4207
G01 X49.7183 Y51.4116
G01 X49.6565 Y51.4086
G01 X49.5947 Y51.4116
G01 X49.5336 Y51.4207
G01 X49.4736 Y51.4357
G01 X49.4154 Y51.4565
G01 X49.3595 Y51.4830
G01 X49.3065 Y51.5147
G01 X49.2568 Y51.5516
G01 X49.2110 Y51.5931
G01 X49.1695 Y51.6389
G01 X49.1327 Y51.6886
G01 X49.1009 Y51.7416
G01 X49.0745 Y51.7975
G01 X49.0536 Y51.8557
G01 X49.0386 Y51.9157
G01 X49.0295 Y51.9768
G01 X49.0265 Y52.0386
G01 X49.0295 Y52.1003
G01 X49.0386 Y52.1615
G01 X49.0536 Y52.2214
G01 X49.0745 Y52.2797
G01 X49.1009 Y52.3355
G01 X49.1327 Y52.3886
G01 X49.1695 Y52.4382
G01 X49.2110 Y52.4840
G01 X49.2568 Y52.5256
G01 X49.3065 Y52.5624
G01 X49.3595 Y52.5942
G01 X49.4154 Y52.6206
G01 X49.4736 Y52.6414
G01 X49.5336 Y52.6565
G01 X49.5947 Y52.6655
G01 X49.6565 Y52.6686
G01 X49.7183 Y52.6655
G01 X49.7794 Y52.6565
G01 X49.8394 Y52.6414
G01 X49.8976 Y52.6206
G01 X49.9535 Y52.5942
G01 X50.0065 Y52.5624
G01 X50.0562 Y52.5256
G01 X50.1020 Y52.4840
G01 X50.1435 Y52.4382
G01 X50.1803 Y52.3886
G01 X50.2121 Y52.3355
G01 X50.2385 Y52.2797
G01 X50.2594 Y52.2214
G01 X50.2744 Y52.1615
G01 X50.2835 Y52.1003
G01 X50.2865 Y52.0386
G01 X50.7065 Y52.0386
G01 X50.7014 Y51.9356
G01 X50.6863 Y51.8337
G01 X50.6613 Y51.7338
G01 X50.6266 Y51.6367
G01 X50.5825 Y51.5436
G01 X50.5295 Y51.4552
G01 X50.4682 Y51.3725
G01 X50.3990 Y51.2961
G01 X50.3226 Y51.2269
G01 X50.2398 Y51.1655
G01 X50.1515 Y51.1125
G01 X50.0583 Y51.0685
G01 X49.9613 Y51.0338
G01 X49.8613 Y51.0087
G01 X49.7594 Y50.9936
G01 X49.6565 Y50.9886
G01 X49.5536 Y50.9936
G01 X49.4517 Y51.0087
G01 X49.3517 Y51.0338
G01 X49.2547 Y51.0685
G01 X49.1615 Y51.1125
G01 X49.0732 Y51.1655
G01 X48.9904 Y51.2269
G01 X48.9140 Y51.2961
G01 X48.8448 Y51.3725
G01 X48.7835 Y51.4552
G01 X48.7305 Y51.5436
G01 X48.6864 Y51.6367
G01 X48.6517 Y51.7338
G01 X48.6267 Y51.8337
G01 X48.6116 Y51.9356
G01 X48.6065 Y52.0386
G01 X48.6116 Y52.1415
G01 X48.6267 Y52.2434
G01 X48.6517 Y52.3434
G01 X48.6864 Y52.4404
G01 X48.7305 Y52.5335
G01 X48.7835 Y52.6219
G01 X48.8448 Y52.7047
G01 X48.9140 Y52.7810
G01 X48.9904 Y52.8502
G01 X49.0732 Y52.9116
G01 X49.1615 Y52.9646
G01 X49.2547 Y53.0086
G01 X49.3517 Y53.0434
G01 X49.4517 Y53.0684
G01 X49.5536 Y53.0835
G01 X49.6565 Y53.0886
G01 X49.7594 Y53.0835
G01 X49.8613 Y53.0684
G01 X49.9613 Y53.0434
G01 X50.0583 Y53.0086
G01 X50.1515 Y52.9646
G01 X50.2398 Y52.9116
G01 X50.3226 Y52.8502
G01 X50.3990 Y52.7810
G01 X50.4682 Y52.7047
G01 X50.5295 Y52.6219
G01 X50.5825 Y52.5335
G01 X50.6266 Y52.4404
G01 X50.6613 Y52.3434
G01 X50.6863 Y52.2434
G01 X50.7014 Y52.1415
G01 X50.7065 Y52.0386
G01 X51.1265 Y52.0386
G01 X51.1194 Y51.8945
G01 X51.0983 Y51.7518
G01 X51.0632 Y51.6118
G01 X51.0146 Y51.4760
G01 X50.9529 Y51.3456
G01 X50.8788 Y51.2219
G01 X50.7928 Y51.1060
G01 X50.6959 Y50.9991
G01 X50.5891 Y50.9022
G01 X50.4732 Y50.8163
G01 X50.3495 Y50.7421
G01 X50.2190 Y50.6805
G01 X50.0832 Y50.6319
G01 X49.9433 Y50.5968
G01 X49.8006 Y50.5756
G01 X49.6565 Y50.5686
G01 X49.5124 Y50.5756
G01 X49.3697 Y50.5968
G01 X49.2298 Y50.6319
G01 X49.0940 Y50.6805
G01 X48.9635 Y50.7421
G01 X48.8398 Y50.8163
G01 X48.7239 Y50.9022
G01 X48.6171 Y50.9991
G01 X48.5202 Y51.1060
G01 X48.4342 Y51.2219
G01 X48.3601 Y51.3456
G01 X48.2984 Y51.4760
G01 X48.2498 Y51.6118
G01 X48.2147 Y51.7518
G01 X48.1936 Y51.8945
G01 X48.1865 Y52.0386
G01 X48.1936 Y52.1826
G01 X48.2147 Y52.3253
G01 X48.2498 Y52.4653
G01 X48.2984 Y52.6011
G01 X48.3601 Y52.7315
G01 X48.4342 Y52.8553
G01 X48.5202 Y52.9711
G01 X48.6171 Y53.0780
G01 X48.7239 Y53.1749
G01 X48.8398 Y53.2608
G01 X48.9635 Y53.3350
G01 X49.0940 Y53.3967
G01 X49.2298 Y53.4453
G01 X49.3697 Y53.4803
G01 X49.5124 Y53.5015
G01 X49.6565 Y53.5086
G01 X49.8006 Y53.5015
G01 X49.9433 Y53.4803
G01 X50.0832 Y53.4453
G01 X50.2190 Y53.3967
G01 X50.3495 Y53.3350
G01 X50.4732 Y53.2608
G01 X50.5891 Y53.1749
G01 X50.6959 Y53.0780
G01 X50.7928 Y52.9711
G01 X50.8788 Y52.8553
G01 X50.9529 Y52.7315
G01 X51.0146 Y52.6011
G01 X51.0632 Y52.4653
G01 X51.0983 Y52.3253
G01 X51.1194 Y52.1826
G01 X51.1265 Y52.0386
G01 X51.5465 Y52.0386
G01 X51.5374 Y51.8533
G01 X51.5102 Y51.6698
G01 X51.4651 Y51.4899
G01 X51.4026 Y51.3153
G01 X51.3233 Y51.1476
G01 X51.2280 Y50.9885
G01 X51.1175 Y50.8396
G01 X50.9929 Y50.7021
G01 X50.8555 Y50.5776
G01 X50.7065 Y50.4671
G01 X50.5474 Y50.3717
G01 X50.3798 Y50.2924
G01 X50.2051 Y50.2299
G01 X50.0252 Y50.1849
G01 X49.8418 Y50.1577
G01 X49.6565 Y50.1486
G01 X49.4712 Y50.1577
G01 X49.2878 Y50.1849
G01 X49.1079 Y50.2299
G01 X48.9332 Y50.2924
G01 X48.7656 Y50.3717
G01 X48.6065 Y50.4671
G01 X48.4575 Y50.5776
G01 X48.3201 Y50.7021
G01 X48.1955 Y50.8396
G01 X48.0850 Y50.9885
G01 X47.9897 Y51.1476
G01 X47.9104 Y51.3153
G01 X47.8479 Y51.4899
G01 X47.8028 Y51.6698
G01 X47.7756 Y51.8533
G01 X47.7665 Y52.0386
G01 X47.7756 Y52.2238
G01 X47.8028 Y52.4073
G01 X47.8479 Y52.5872
G01 X47.9104 Y52.7618
G01 X47.9897 Y52.9295
G01 X48.0850 Y53.0886
G01 X48.1955 Y53.2376
G01 X48.3201 Y53.3750
G01 X48.4575 Y53.4996
G01 X48.6065 Y53.6100
G01 X48.7656 Y53.7054
G01 X48.9332 Y53.7847
G01 X49.1079 Y53.8472
G01 X49.2878 Y53.8922
G01 X49.4712 Y53.9195
G01 X49.6565 Y53.9286
G01 X49.8418 Y53.9195
G01 X50.0252 Y53.8922
G01 X50.2051 Y53.8472
G01 X50.3798 Y53.7847
G01 X50.5474 Y53.7054
G01 X50.7065 Y53.6100
G01 X50.8555 Y53.4996
G01 X50.9929 Y53.3750
G01 X51.1175 Y53.2376
G01 X51.2280 Y53.0886
G01 X51.3233 Y52.9295
G01 X51.4026 Y52.7618
G01 X51.4651 Y52.5872
G01 X51.5102 Y52.4073
G01 X51.5374 Y52.2238
G01 X51.5465 Y52.0386
G00 Z2.0000
G00 X47.8449 Y4.7604
G01 F50.00
G01 Z-0.5971
G01 F70.00
G01 X47.8740 Y4.8150
G01 X47.9055 Y4.8680
G01 X47.9389 Y4.9217
G01 X47.9721 Y4.9720
G01 X48.0081 Y5.0224
G01 X48.0452 Y5.0713
G01 X48.0847 Y5.1200
G01 X48.1238 Y5.1662
G01 X48.1663 Y5.2114
G01 X48.2095 Y5.2565
G01 X48.2546 Y5.2997
G01 X48.2998 Y5.3422
G01 X48.3460 Y5.3813
G01 X48.3947 Y5.4208
G01 X48.4436 Y5.4579
G01 X48.4940 Y5.4939
G01 X48.5443 Y5.5271
G01 X48.5980 Y5.5605
G01 X48.6510 Y5.5920
G01 X48.7056 Y5.6211
G01 X48.7607 Y5.6495
G01 X48.8159 Y5.6753
G01 X48.8731 Y5.6999
G01 X48.9316 Y5.7231
G01 X48.9892 Y5.7447
G01 X49.0468 Y5.7633
G01 X49.1071 Y5.7809
G01 X49.1666 Y5.7971
G01 X49.2259 Y5.8104
G01 X49.2870 Y5.8223
G01 X49.3493 Y5.8325
G01 X49.4112 Y5.8416
G01 X49.4706 Y5.8478
G01 X49.5323 Y5.8523
G01 X49.5942 Y5.8551
G01 X49.6560 Y5.8560
G01 X49.7188 Y5.8551
G01 X49.7807 Y5.8523
G01 X49.8424 Y5.8478
G01 X49.9018 Y5.8416
G01 X49.9637 Y5.8325
G01 X50.0260 Y5.8223
G01 X50.0871 Y5.8104
G01 X50.1464 Y5.7971
G01 X50.2059 Y5.7809
G01 X50.2662 Y5.7633
G01 X50.3238 Y5.7447
G01 X50.3814 Y5.7231
G01 X50.4399 Y5.6999
G01 X50.4971 Y5.6753
G01 X50.5523 Y5.6495
G01 X50.6074 Y5.6211
G01 X50.6620 Y5.5920
G01 X50.7150 Y5.5605
G01 X50.7687 Y5.5271
G01 X50.8190 Y5.4939
G01 X50.8694 Y5.4579
G01 X50.9183 Y5.4208
G01 X50.9670 Y5.3813
G01 X51.0132 Y5.3422
G01 X51.0584 Y5.2997
G01 X51.1035 Y5.2565
G01 X51.1467 Y5.2114
G01 X51.1892 Y5.1662
G01 X51.2283 Y5.1200
G01 X51.2678 Y5.0713
G01 X51.3049 Y5.0224
G01 X51.3409 Y4.9720
G01 X51.3741 Y4.9217
G01 X51.4075 Y4.8680
G01 X51.4390 Y4.8150
G01 X51.4681 Y4.7604
G01 X51.4965 Y4.7053
G01 X51.5223 Y4.6501
G01 X51.5469 Y4.5929
G01 X51.5701 Y4.5344
G01 X51.5917 Y4.4768
G01 X51.6103 Y4.4192
G01 X51.6279 Y4.3589
G01 X51.6441 Y4.2994
G01 X51.6574 Y4.2401
G01 X51.6693 Y4.1790
G01 X51.6795 Y4.1167
G01 X51.6886 Y4.0548
G01 X51.6948 Y3.9954
G01 X51.6993 Y3.9337
G01 X51.7021 Y3.8718
G01 X51.7030 Y3.8100
G01 X51.7021 Y3.7472
G01 X51.6993 Y3.6853
G01 X51.6948 Y3.6236
G01 X51.6886 Y3.5642
G01 X51.6795 Y3.5023
G01 X51.6693 Y3.4400
G01 X51.6574 Y3.3789
G01 X51.6441 Y3.3196
G01 X51.6279 Y3.2601
G01 X51.6103 Y3.1998
G01 X51.5917 Y3.1422
G01 X51.5701 Y3.0846
G01 X51.5469 Y3.0261
G01 X51.5223 Y2.9689
G01 X51.4965 Y2.9137
G01 X51.4681 Y2.8586
G01 X51.4390 Y2.8040
G01 X51.4075 Y2.7510
G01 X51.3741 Y2.6973
G01 X51.3409 Y2.6470
G01 X51.3049 Y2.5966
G01 X51.2678 Y2.5477
G01 X51.2283 Y2.4990
G01 X51.1892 Y2.4528
G01 X51.1467 Y2.4076
G01 X51.1035 Y2.3625
G01 X51.0584 Y2.3193
G01 X51.0132 Y2.2768
G01 X50.9670 Y2.2377
G01 X50.9183 Y2.1982
G01 X50.8694 Y2.1611
G01 X50.8190 Y2.1251
G01 X50.7687 Y2.0919
G01 X50.7150 Y2.0585
G01 X50.6620 Y2.0270
G01 X50.6074 Y1.9979
G01 X50.5523 Y1.9695
G01 X50.4971 Y1.9437
G01 X50.4399 Y1.9191
G01 X50.3814 Y1.8959
G01 X50.3238 Y1.8743
G01 X50.2662 Y1.8557
G01 X50.2059 Y1.8381
G01 X50.1464 Y1.8219
G01 X50.0871 Y1.8086
G01 X50.0260 Y1.7967
G01 X49.9637 Y1.7865
G01 X49.9018 Y1.7774
G01 X49.8424 Y1.7712
G01 X49.7807 Y1.7667
G01 X49.7188 Y1.7639
G01 X49.6560 Y1.7630
G01 X49.5942 Y1.7639
G01 X49.5323 Y1.7667
G01 X49.4706 Y1.7712
G01 X49.4112 Y1.7774
G01 X49.3493 Y1.7865
G01 X49.2870 Y1.7967
G01 X49.2259 Y1.8086
G01 X49.1666 Y1.8219
G01 X49.1071 Y1.8381
G01 X49.0468 Y1.8557
G01 X48.9892 Y1.8743
G01 X48.9316 Y1.8959
G01 X48.8731 Y1.9191
G01 X48.8159 Y1.9437
G01 X48.7607 Y1.9695
G01 X48.7056 Y1.9979
G01 X48.6510 Y2.0270
G01 X48.5980 Y2.0585
G01 X48.5443 Y2.0919
G01 X48.4940 Y2.1251
G01 X48.4436 Y2.1611
G01 X48.3947 Y2.1982
G01 X48.3460 Y2.2377
G01 X48.2998 Y2.2768
G01 X48.2546 Y2.3193
G01 X48.2095 Y2.3625
G01 X48.1663 Y2.4076
G01 X48.1238 Y2.4528
G01 X48.0847 Y2.4990
G01 X48.0452 Y2.5477
G01 X48.0081 Y2.5966
G01 X47.9721 Y2.6470
G01 X47.9389 Y2.6973
G01 X47.9055 Y2.7510
G01 X47.8740 Y2.8040
G01 X47.8449 Y2.8586
G01 X47.8165 Y2.9137
G01 X47.7907 Y2.9689
G01 X47.7661 Y3.0261
G01 X47.7429 Y3.0846
G01 X47.7213 Y3.1422
G01 X47.7027 Y3.1998
G01 X47.6851 Y3.2601
G01 X47.6689 Y3.3196
G01 X47.6556 Y3.3789
G01 X47.6437 Y3.4400
G01 X47.6335 Y3.5023
G01 X47.6244 Y3.5642
G01 X47.6182 Y3.6236
G01 X47.6137 Y3.6853
G01 X47.6109 Y3.7472
G01 X47.6100 Y3.8100
G01 X47.6109 Y3.8718
G01 X47.6137 Y3.9337
G01 X47.6182 Y3.9954
G01 X47.6244 Y4.0548
G01 X47.6335 Y4.1167
G01 X47.6437 Y4.1790
G01 X47.6556 Y4.2401
G01 X47.6689 Y4.2994
G01 X47.6851 Y4.3589
G01 X47.7027 Y4.4192
G01 X47.7213 Y4.4768
G01 X47.7429 Y4.5344
G01 X47.7661 Y4.5929
G01 X47.7907 Y4.6501
G01 X47.8165 Y4.7053
G01 X47.8449 Y4.7604
G01 X49.8665 Y3.7786
G01 X49.8655 Y3.7580
G01 X49.8625 Y3.7376
G01 X49.8575 Y3.7176
G01 X49.8505 Y3.6982
G01 X49.8417 Y3.6796
G01 X49.8311 Y3.6619
G01 X49.8188 Y3.6453
G01 X49.8050 Y3.6301
G01 X49.7897 Y3.6162
G01 X49.7732 Y3.6040
G01 X49.7555 Y3.5934
G01 X49.7369 Y3.5845
G01 X49.7175 Y3.5776
G01 X49.6975 Y3.5726
G01 X49.6771 Y3.5696
G01 X49.6565 Y3.5686
G01 X49.6359 Y3.5696
G01 X49.6155 Y3.5726
G01 X49.5955 Y3.5776
G01 X49.5761 Y3.5845
G01 X49.5575 Y3.5934
G01 X49.5398 Y3.6040
G01 X49.5233 Y3.6162
G01 X49.5080 Y3.6301
G01 X49.4942 Y3.6453
G01 X49.4819 Y3.6619
G01 X49.4713 Y3.6796
G01 X49.4625 Y3.6982
G01 X49.4555 Y3.7176
G01 X49.4505 Y3.7376
G01 X49.4475 Y3.7580
G01 X49.4465 Y3.7786
G01 X49.4475 Y3.7991
G01 X49.4505 Y3.8195
G01 X49.4555 Y3.8395
G01 X49.4625 Y3.8589
G01 X49.4713 Y3.8776
G01 X49.4819 Y3.8952
G01 X49.4942 Y3.9118
G01 X49.5080 Y3.9271
G01 X49.5233 Y3.9409
G01 X49.5398 Y3.9532
G01 X49.5575 Y3.9638
G01 X49.5761 Y3.9726
G01 X49.5955 Y3.9795
G01 X49.6155 Y3.9845
G01 X49.6359 Y3.9876
G01 X49.6565 Y3.9886
G01 X49.6771 Y3.9876
G01 X49.6975 Y3.9845
G01 X49.7175 Y3.9795
G01 X49.7369 Y3.9726
G01 X49.7555 Y3.9638
G01 X49.7732 Y3.9532
G01 X49.7897 Y3.9409
G01 X49.8050 Y3.9271
G01 X49.8188 Y3.9118
G01 X49.8311 Y3.8952
G01 X49.8417 Y3.8776
G01 X49.8505 Y3.8589
G01 X49.8575 Y3.8395
G01 X49.8625 Y3.8195
G01 X49.8655 Y3.7991
G01 X49.8665 Y3.7786
G01 X50.2865 Y3.7786
G01 X50.2835 Y3.7168
G01 X50.2744 Y3.6557
G01 X50.2594 Y3.5957
G01 X50.2385 Y3.5375
G01 X50.2121 Y3.4816
G01 X50.1803 Y3.4286
G01 X50.1435 Y3.3789
G01 X50.1020 Y3.3331
G01 X50.0562 Y3.2916
G01 X50.0065 Y3.2547
G01 X49.9535 Y3.2230
G01 X49.8976 Y3.1965
G01 X49.8394 Y3.1757
G01 X49.7794 Y3.1607
G01 X49.7183 Y3.1516
G01 X49.6565 Y3.1486
G01 X49.5947 Y3.1516
G01 X49.5336 Y3.1607
G01 X49.4736 Y3.1757
G01 X49.4154 Y3.1965
G01 X49.3595 Y3.2230
G01 X49.3065 Y3.2547
G01 X49.2568 Y3.2916
G01 X49.2110 Y3.3331
G01 X49.1695 Y3.3789
G01 X49.1327 Y3.4286
G01 X49.1009 Y3.4816
G01 X49.0745 Y3.5375
G01 X49.0536 Y3.5957
G01 X49.0386 Y3.6557
G01 X49.0295 Y3.7168
G01 X49.0265 Y3.7786
G01 X49.0295 Y3.8403
G01 X49.0386 Y3.9015
G01 X49.0536 Y3.9614
G01 X49.0745 Y4.0197
G01 X49.1009 Y4.0755
G01 X49.1327 Y4.1286
G01 X49.1695 Y4.1782
G01 X49.2110 Y4.2240
G01 X49.2568 Y4.2656
G01 X49.3065 Y4.3024
G01 X49.3595 Y4.3342
G01 X49.4154 Y4.3606
G01 X49.4736 Y4.3814
G01 X49.5336 Y4.3965
G01 X49.5947 Y4.4055
G01 X49.6565 Y4.4086
G01 X49.7183 Y4.4055
G01 X49.7794 Y4.3965
G01 X49.8394 Y4.3814
G01 X49.8976 Y4.3606
G01 X49.9535 Y4.3342
G01 X50.0065 Y4.3024
G01 X50.0562 Y4.2656
G01 X50.1020 Y4.2240
G01 X50.1435 Y4.1782
G01 X50.1803 Y4.1286
G01 X50.2121 Y4.0755
G01 X50.2385 Y4.0197
G01 X50.2594 Y3.9614
G01 X50.2744 Y3.9015
G01 X50.2835 Y3.8403
G01 X50.2865 Y3.7786
G01 X50.7065 Y3.7786
G01 X50.7014 Y3.6756
G01 X50.6863 Y3.5737
G01 X50.6613 Y3.4738
G01 X50.6266 Y3.3767
G01 X50.5825 Y3.2836
G01 X50.5295 Y3.1952
G01 X50.4682 Y3.1125
G01 X50.3990 Y3.0361
G01 X50.3226 Y2.9669
G01 X50.2398 Y2.9055
G01 X50.1515 Y2.8525
G01 X50.0583 Y2.8085
G01 X49.9613 Y2.7738
G01 X49.8613 Y2.7487
G01 X49.7594 Y2.7336
G01 X49.6565 Y2.7286
G01 X49.5536 Y2.7336
G01 X49.4517 Y2.7487
G01 X49.3517 Y2.7738
G01 X49.2547 Y2.8085
G01 X49.1615 Y2.8525
G01 X49.0732 Y2.9055
G01 X48.9904 Y2.9669
G01 X48.9140 Y3.0361
G01 X48.8448 Y3.1125
G01 X48.7835 Y3.1952
G01 X48.7305 Y3.2836
G01 X48.6864 Y3.3767
G01 X48.6517 Y3.4738
G01 X48.6267 Y3.5737
G01 X48.6116 Y3.6756
G01 X48.6065 Y3.7786
G01 X48.6116 Y3.8815
G01 X48.6267 Y3.9834
G01 X48.6517 Y4.0834
G01 X48.6864 Y4.1804
G01 X48.7305 Y4.2735
G01 X48.7835 Y4.3619
G01 X48.8448 Y4.4447
G01 X48.9140 Y4.5210
G01 X48.9904 Y4.5902
G01 X49.0732 Y4.6516
G01 X49.1615 Y4.7046
G01 X49.2547 Y4.7486
G01 X49.3517 Y4.7834
G01 X49.4517 Y4.8084
G01 X49.5536 Y4.8235
G01 X49.6565 Y4.8286
G01 X49.7594 Y4.8235
G01 X49.8613 Y4.8084
G01 X49.9613 Y4.7834
G01 X50.0583 Y4.7486
G01 X50.1515 Y4.7046
G01 X50.2398 Y4.6516
G01 X50.3226 Y4.5902
G01 X50.3990 Y4.5210
G01 X50.4682 Y4.4447
G01 X50.5295 Y4.3619
G01 X50.5825 Y4.2735
G01 X50.6266 Y4.1804
G01 X50.6613 Y4.0834
G01 X50.6863 Y3.9834
G01 X50.7014 Y3.8815
G01 X50.7065 Y3.7786
G01 X51.1265 Y3.7786
G01 X51.1194 Y3.6345
G01 X51.0983 Y3.4918
G01 X51.0632 Y3.3518
G01 X51.0146 Y3.2160
G01 X50.9529 Y3.0856
G01 X50.8788 Y2.9619
G01 X50.7928 Y2.8460
G01 X50.6959 Y2.7391
G01 X50.5891 Y2.6422
G01 X50.4732 Y2.5563
G01 X50.3495 Y2.4821
G01 X50.2190 Y2.4205
G01 X50.0832 Y2.3719
G01 X49.9433 Y2.3368
G01 X49.8006 Y2.3156
G01 X49.6565 Y2.3086
G01 X49.5124 Y2.3156
G01 X49.3697 Y2.3368
G01 X49.2298 Y2.3719
G01 X49.0940 Y2.4205
G01 X48.9635 Y2.4821
G01 X48.8398 Y2.5563
G01 X48.7239 Y2.6422
G01 X48.6171 Y2.7391
G01 X48.5202 Y2.8460
G01 X48.4342 Y2.9619
G01 X48.3601 Y3.0856
G01 X48.2984 Y3.2160
G01 X48.2498 Y3.3518
G01 X48.2147 Y3.4918
G01 X48.1936 Y3.6345
G01 X48.1865 Y3.7786
G01 X48.1936 Y3.9226
G01 X48.2147 Y4.0653
G01 X48.2498 Y4.2053
G01 X48.2984 Y4.3411
G01 X48.3601 Y4.4715
G01 X48.4342 Y4.5953
G01 X48.5202 Y4.7111
G01 X48.6171 Y4.8180
G01 X48.7239 Y4.9149
G01 X48.8398 Y5.0008
G01 X48.9635 Y5.0750
G01 X49.0940 Y5.1367
G01 X49.2298 Y5.1853
G01 X49.3697 Y5.2203
G01 X49.5124 Y5.2415
G01 X49.6565 Y5.2486
G01 X49.8006 Y5.2415
G01 X49.9433 Y5.2203
G01 X50.0832 Y5.1853
G01 X50.2190 Y5.1367
G01 X50.3495 Y5.0750
G01 X50.4732 Y5.0008
G01 X50.5891 Y4.9149
G01 X50.6959 Y4.8180
G01 X50.7928 Y4.7111
G01 X50.8788 Y4.5953
G01 X50.9529 Y4.4715
G01 X51.0146 Y4.3411
G01 X51.0632 Y4.2053
G01 X51.0983 Y4.0653
G01 X51.1194 Y3.9226
G01 X51.1265 Y3.7786
G01 X51.5465 Y3.7786
G01 X51.5374 Y3.5933
G01 X51.5102 Y3.4098
G01 X51.4651 Y3.2299
G01 X51.4026 Y3.0553
G01 X51.3233 Y2.8876
G01 X51.2280 Y2.7285
G01 X51.1175 Y2.5796
G01 X50.9929 Y2.4421
G01 X50.8555 Y2.3176
G01 X50.7065 Y2.2071
G01 X50.5474 Y2.1117
G01 X50.3798 Y2.0324
G01 X50.2051 Y1.9699
G01 X50.0252 Y1.9249
G01 X49.8418 Y1.8977
G01 X49.6565 Y1.8886
G01 X49.4712 Y1.8977
G01 X49.2878 Y1.9249
G01 X49.1079 Y1.9699
G01 X48.9332 Y2.0324
G01 X48.7656 Y2.1117
G01 X48.6065 Y2.2071
G01 X48.4575 Y2.3176
G01 X48.3201 Y2.4421
G01 X48.1955 Y2.5796
G01 X48.0850 Y2.7285
G01 X47.9897 Y2.8876
G01 X47.9104 Y3.0553
G01 X47.8479 Y3.2299
G01 X47.8028 Y3.4098
G01 X47.7756 Y3.5933
G01 X47.7665 Y3.7786
G01 X47.7756 Y3.9638
G01 X47.8028 Y4.1473
G01 X47.8479 Y4.3272
G01 X47.9104 Y4.5018
G01 X47.9897 Y4.6695
G01 X48.0850 Y4.8286
G01 X48.1955 Y4.9776
G01 X48.3201 Y5.1150
G01 X48.4575 Y5.2396
G01 X48.6065 Y5.3500
G01 X48.7656 Y5.4454
G01 X48.9332 Y5.5247
G01 X49.1079 Y5.5872
G01 X49.2878 Y5.6322
G01 X49.4712 Y5.6595
G01 X49.6565 Y5.6686
G01 X49.8418 Y5.6595
G01 X50.0252 Y5.6322
G01 X50.2051 Y5.5872
G01 X50.3798 Y5.5247
G01 X50.5474 Y5.4454
G01 X50.7065 Y5.3500
G01 X50.8555 Y5.2396
G01 X50.9929 Y5.1150
G01 X51.1175 Y4.9776
G01 X51.2280 Y4.8286
G01 X51.3233 Y4.6695
G01 X51.4026 Y4.5018
G01 X51.4651 Y4.3272
G01 X51.5102 Y4.1473
G01 X51.5374 Y3.9638
G01 X51.5465 Y3.7786
G00 Z2.0000
M05
G00 Z2.0000
G00 Z5.00
G00 X0.0 Y0.0

