(G-CODE GENERATED BY FLATCAM v8.991 - www.flatcam.org - Version Date: 2019/12/27)

(Name: Gerber_BottomLayer.GBL_iso_cnc)
(Type: G-code from Geometry)
(Units: MM)

(Created on Tuesday, 08 December 2020 at 13:57)

(TOOL DIAMETER: 0.4215 mm)
(Feedrate: 70.0 mm/min)
(Feedrate_Z: 50.0 mm/min)
(Feedrate rapids 60.0 mm/min)

(Z_Cut: -0.5999 mm)
(DepthPerCut: 0.1 mm <=>6 passes)
(Z_Move: 2.0 mm)
(Z Toolchange: 20.0 mm)
(X,Y Toolchange: 0.0000, 0.0000 mm)
(Z Start: None mm)
(Z End: 5.0 mm)
(Steps per circle: 64)
(Preprocessor Geometry: default)

(X range:   -0.2940 ...   53.5060  mm)
(Y range:   -0.2940 ...   56.0460  mm)

(Spindle Speed: 1000 RPM)
G21
G90
G94




G01 F70.00
G00 Z2.0000

M03 S1000
G4 P1.0
G00 X3.8842 Y5.5152
G01 F50.00
G01 Z-0.1000
G01 F70.00
G01 X3.8323 Y5.5129
G01 X3.7808 Y5.5091
G01 X3.7336 Y5.5042
G01 X3.6816 Y5.4965
G01 X3.6270 Y5.4876
G01 X3.5755 Y5.4776
G01 X3.5285 Y5.4671
G01 X3.4795 Y5.4537
G01 X3.4267 Y5.4383
G01 X3.3812 Y5.4235
G01 X3.3340 Y5.4059
G01 X3.2828 Y5.3855
G01 X3.2349 Y5.3650
G01 X3.1908 Y5.3444
G01 X3.1437 Y5.3200
G01 X3.0979 Y5.2956
G01 X3.0544 Y5.2698
G01 X3.0077 Y5.2408
G01 X2.9665 Y5.2136
G01 X2.9252 Y5.1841
G01 X2.8846 Y5.1533
G01 X2.8429 Y5.1195
G01 X2.8062 Y5.0884
G01 X2.7687 Y5.0532
G01 X2.7300 Y5.0160
G01 X2.6928 Y4.9773
G01 X2.6576 Y4.9398
G01 X2.6265 Y4.9031
G01 X2.5927 Y4.8614
G01 X2.5619 Y4.8208
G01 X2.5324 Y4.7795
G01 X2.5052 Y4.7383
G01 X2.4762 Y4.6916
G01 X2.4504 Y4.6481
G01 X2.4260 Y4.6023
G01 X2.4016 Y4.5552
G01 X2.3810 Y4.5111
G01 X2.3605 Y4.4632
G01 X2.3401 Y4.4120
G01 X2.3225 Y4.3648
G01 X2.3077 Y4.3193
G01 X2.2923 Y4.2665
G01 X2.2789 Y4.2175
G01 X2.2684 Y4.1705
G01 X2.2584 Y4.1190
G01 X2.2495 Y4.0644
G01 X2.2418 Y4.0124
G01 X2.2369 Y3.9652
G01 X2.2331 Y3.9137
G01 X2.2308 Y3.8618
G01 X2.2301 Y3.8099
G01 X2.2308 Y3.7571
G01 X2.2331 Y3.7053
G01 X2.2369 Y3.6538
G01 X2.2418 Y3.6066
G01 X2.2495 Y3.5546
G01 X2.2584 Y3.5000
G01 X2.2684 Y3.4485
G01 X2.2789 Y3.4015
G01 X2.2923 Y3.3525
G01 X2.3077 Y3.2997
G01 X2.3225 Y3.2542
G01 X2.3401 Y3.2070
G01 X2.3605 Y3.1558
G01 X2.3810 Y3.1079
G01 X2.4016 Y3.0638
G01 X2.4260 Y3.0167
G01 X2.4504 Y2.9709
G01 X2.4762 Y2.9274
G01 X2.5052 Y2.8807
G01 X2.5324 Y2.8395
G01 X2.5619 Y2.7982
G01 X2.5927 Y2.7576
G01 X2.6265 Y2.7159
G01 X2.6576 Y2.6792
G01 X2.6928 Y2.6417
G01 X2.7300 Y2.6030
G01 X2.7687 Y2.5658
G01 X2.8062 Y2.5306
G01 X2.8429 Y2.4995
G01 X2.8846 Y2.4657
G01 X2.9252 Y2.4349
G01 X2.9665 Y2.4054
G01 X3.0077 Y2.3782
G01 X3.0544 Y2.3492
G01 X3.0979 Y2.3234
G01 X3.1437 Y2.2990
G01 X3.1908 Y2.2746
G01 X3.2349 Y2.2540
G01 X3.2828 Y2.2335
G01 X3.3340 Y2.2131
G01 X3.3812 Y2.1955
G01 X3.4267 Y2.1807
G01 X3.4795 Y2.1653
G01 X3.5285 Y2.1519
G01 X3.5755 Y2.1414
G01 X3.6270 Y2.1314
G01 X3.6816 Y2.1225
G01 X3.7336 Y2.1148
G01 X3.7808 Y2.1099
G01 X3.8323 Y2.1061
G01 X3.8842 Y2.1038
G01 X3.9361 Y2.1031
G01 X3.9889 Y2.1038
G01 X4.0407 Y2.1061
G01 X4.0922 Y2.1099
G01 X4.1394 Y2.1148
G01 X4.1914 Y2.1225
G01 X4.2460 Y2.1314
G01 X4.2975 Y2.1414
G01 X4.3445 Y2.1519
G01 X4.3935 Y2.1653
G01 X4.4463 Y2.1807
G01 X4.4918 Y2.1955
G01 X4.5390 Y2.2131
G01 X4.5902 Y2.2335
G01 X4.6381 Y2.2540
G01 X4.6822 Y2.2746
G01 X4.7293 Y2.2990
G01 X4.7751 Y2.3234
G01 X4.8186 Y2.3492
G01 X4.8653 Y2.3782
G01 X4.9065 Y2.4054
G01 X4.9478 Y2.4349
G01 X4.9884 Y2.4657
G01 X5.0301 Y2.4995
G01 X5.0668 Y2.5306
G01 X5.1043 Y2.5658
G01 X5.1430 Y2.6030
G01 X5.1802 Y2.6417
G01 X5.2154 Y2.6792
G01 X5.2465 Y2.7159
G01 X5.2803 Y2.7576
G01 X5.3111 Y2.7982
G01 X5.3406 Y2.8395
G01 X5.3678 Y2.8807
G01 X5.3968 Y2.9274
G01 X5.4226 Y2.9709
G01 X5.4470 Y3.0167
G01 X5.4714 Y3.0638
G01 X5.4920 Y3.1079
G01 X5.5125 Y3.1558
G01 X5.5329 Y3.2070
G01 X5.5505 Y3.2542
G01 X5.5653 Y3.2997
G01 X5.5807 Y3.3525
G01 X5.5941 Y3.4015
G01 X5.6046 Y3.4485
G01 X5.6146 Y3.5000
G01 X5.6235 Y3.5546
G01 X5.6312 Y3.6066
G01 X5.6361 Y3.6538
G01 X5.6399 Y3.7053
G01 X5.6422 Y3.7571
G01 X5.6429 Y3.8099
G01 X5.6422 Y3.8618
G01 X5.6399 Y3.9137
G01 X5.6361 Y3.9652
G01 X5.6312 Y4.0124
G01 X5.6235 Y4.0644
G01 X5.6146 Y4.1190
G01 X5.6046 Y4.1705
G01 X5.5941 Y4.2175
G01 X5.5807 Y4.2665
G01 X5.5653 Y4.3193
G01 X5.5505 Y4.3648
G01 X5.5329 Y4.4120
G01 X5.5125 Y4.4632
G01 X5.4920 Y4.5111
G01 X5.4714 Y4.5552
G01 X5.4470 Y4.6023
G01 X5.4226 Y4.6481
G01 X5.3968 Y4.6916
G01 X5.3678 Y4.7383
G01 X5.3406 Y4.7795
G01 X5.3111 Y4.8208
G01 X5.2803 Y4.8614
G01 X5.2465 Y4.9031
G01 X5.2154 Y4.9398
G01 X5.1802 Y4.9773
G01 X5.1430 Y5.0160
G01 X5.1043 Y5.0532
G01 X5.0668 Y5.0884
G01 X5.0301 Y5.1195
G01 X4.9884 Y5.1533
G01 X4.9478 Y5.1841
G01 X4.9065 Y5.2136
G01 X4.8653 Y5.2408
G01 X4.8186 Y5.2698
G01 X4.7751 Y5.2956
G01 X4.7293 Y5.3200
G01 X4.6822 Y5.3444
G01 X4.6381 Y5.3650
G01 X4.5902 Y5.3855
G01 X4.5390 Y5.4059
G01 X4.4918 Y5.4235
G01 X4.4463 Y5.4383
G01 X4.3935 Y5.4537
G01 X4.3445 Y5.4671
G01 X4.2975 Y5.4776
G01 X4.2460 Y5.4876
G01 X4.1914 Y5.4965
G01 X4.1394 Y5.5042
G01 X4.0922 Y5.5091
G01 X4.0407 Y5.5129
G01 X3.9889 Y5.5152
G01 X3.9361 Y5.5159
G01 X3.8842 Y5.5152
G00 X3.8842 Y5.5152
G01 F50.00
G01 Z-0.2000
G01 F70.00
G01 X3.8323 Y5.5129
G01 X3.7808 Y5.5091
G01 X3.7336 Y5.5042
G01 X3.6816 Y5.4965
G01 X3.6270 Y5.4876
G01 X3.5755 Y5.4776
G01 X3.5285 Y5.4671
G01 X3.4795 Y5.4537
G01 X3.4267 Y5.4383
G01 X3.3812 Y5.4235
G01 X3.3340 Y5.4059
G01 X3.2828 Y5.3855
G01 X3.2349 Y5.3650
G01 X3.1908 Y5.3444
G01 X3.1437 Y5.3200
G01 X3.0979 Y5.2956
G01 X3.0544 Y5.2698
G01 X3.0077 Y5.2408
G01 X2.9665 Y5.2136
G01 X2.9252 Y5.1841
G01 X2.8846 Y5.1533
G01 X2.8429 Y5.1195
G01 X2.8062 Y5.0884
G01 X2.7687 Y5.0532
G01 X2.7300 Y5.0160
G01 X2.6928 Y4.9773
G01 X2.6576 Y4.9398
G01 X2.6265 Y4.9031
G01 X2.5927 Y4.8614
G01 X2.5619 Y4.8208
G01 X2.5324 Y4.7795
G01 X2.5052 Y4.7383
G01 X2.4762 Y4.6916
G01 X2.4504 Y4.6481
G01 X2.4260 Y4.6023
G01 X2.4016 Y4.5552
G01 X2.3810 Y4.5111
G01 X2.3605 Y4.4632
G01 X2.3401 Y4.4120
G01 X2.3225 Y4.3648
G01 X2.3077 Y4.3193
G01 X2.2923 Y4.2665
G01 X2.2789 Y4.2175
G01 X2.2684 Y4.1705
G01 X2.2584 Y4.1190
G01 X2.2495 Y4.0644
G01 X2.2418 Y4.0124
G01 X2.2369 Y3.9652
G01 X2.2331 Y3.9137
G01 X2.2308 Y3.8618
G01 X2.2301 Y3.8099
G01 X2.2308 Y3.7571
G01 X2.2331 Y3.7053
G01 X2.2369 Y3.6538
G01 X2.2418 Y3.6066
G01 X2.2495 Y3.5546
G01 X2.2584 Y3.5000
G01 X2.2684 Y3.4485
G01 X2.2789 Y3.4015
G01 X2.2923 Y3.3525
G01 X2.3077 Y3.2997
G01 X2.3225 Y3.2542
G01 X2.3401 Y3.2070
G01 X2.3605 Y3.1558
G01 X2.3810 Y3.1079
G01 X2.4016 Y3.0638
G01 X2.4260 Y3.0167
G01 X2.4504 Y2.9709
G01 X2.4762 Y2.9274
G01 X2.5052 Y2.8807
G01 X2.5324 Y2.8395
G01 X2.5619 Y2.7982
G01 X2.5927 Y2.7576
G01 X2.6265 Y2.7159
G01 X2.6576 Y2.6792
G01 X2.6928 Y2.6417
G01 X2.7300 Y2.6030
G01 X2.7687 Y2.5658
G01 X2.8062 Y2.5306
G01 X2.8429 Y2.4995
G01 X2.8846 Y2.4657
G01 X2.9252 Y2.4349
G01 X2.9665 Y2.4054
G01 X3.0077 Y2.3782
G01 X3.0544 Y2.3492
G01 X3.0979 Y2.3234
G01 X3.1437 Y2.2990
G01 X3.1908 Y2.2746
G01 X3.2349 Y2.2540
G01 X3.2828 Y2.2335
G01 X3.3340 Y2.2131
G01 X3.3812 Y2.1955
G01 X3.4267 Y2.1807
G01 X3.4795 Y2.1653
G01 X3.5285 Y2.1519
G01 X3.5755 Y2.1414
G01 X3.6270 Y2.1314
G01 X3.6816 Y2.1225
G01 X3.7336 Y2.1148
G01 X3.7808 Y2.1099
G01 X3.8323 Y2.1061
G01 X3.8842 Y2.1038
G01 X3.9361 Y2.1031
G01 X3.9889 Y2.1038
G01 X4.0407 Y2.1061
G01 X4.0922 Y2.1099
G01 X4.1394 Y2.1148
G01 X4.1914 Y2.1225
G01 X4.2460 Y2.1314
G01 X4.2975 Y2.1414
G01 X4.3445 Y2.1519
G01 X4.3935 Y2.1653
G01 X4.4463 Y2.1807
G01 X4.4918 Y2.1955
G01 X4.5390 Y2.2131
G01 X4.5902 Y2.2335
G01 X4.6381 Y2.2540
G01 X4.6822 Y2.2746
G01 X4.7293 Y2.2990
G01 X4.7751 Y2.3234
G01 X4.8186 Y2.3492
G01 X4.8653 Y2.3782
G01 X4.9065 Y2.4054
G01 X4.9478 Y2.4349
G01 X4.9884 Y2.4657
G01 X5.0301 Y2.4995
G01 X5.0668 Y2.5306
G01 X5.1043 Y2.5658
G01 X5.1430 Y2.6030
G01 X5.1802 Y2.6417
G01 X5.2154 Y2.6792
G01 X5.2465 Y2.7159
G01 X5.2803 Y2.7576
G01 X5.3111 Y2.7982
G01 X5.3406 Y2.8395
G01 X5.3678 Y2.8807
G01 X5.3968 Y2.9274
G01 X5.4226 Y2.9709
G01 X5.4470 Y3.0167
G01 X5.4714 Y3.0638
G01 X5.4920 Y3.1079
G01 X5.5125 Y3.1558
G01 X5.5329 Y3.2070
G01 X5.5505 Y3.2542
G01 X5.5653 Y3.2997
G01 X5.5807 Y3.3525
G01 X5.5941 Y3.4015
G01 X5.6046 Y3.4485
G01 X5.6146 Y3.5000
G01 X5.6235 Y3.5546
G01 X5.6312 Y3.6066
G01 X5.6361 Y3.6538
G01 X5.6399 Y3.7053
G01 X5.6422 Y3.7571
G01 X5.6429 Y3.8099
G01 X5.6422 Y3.8618
G01 X5.6399 Y3.9137
G01 X5.6361 Y3.9652
G01 X5.6312 Y4.0124
G01 X5.6235 Y4.0644
G01 X5.6146 Y4.1190
G01 X5.6046 Y4.1705
G01 X5.5941 Y4.2175
G01 X5.5807 Y4.2665
G01 X5.5653 Y4.3193
G01 X5.5505 Y4.3648
G01 X5.5329 Y4.4120
G01 X5.5125 Y4.4632
G01 X5.4920 Y4.5111
G01 X5.4714 Y4.5552
G01 X5.4470 Y4.6023
G01 X5.4226 Y4.6481
G01 X5.3968 Y4.6916
G01 X5.3678 Y4.7383
G01 X5.3406 Y4.7795
G01 X5.3111 Y4.8208
G01 X5.2803 Y4.8614
G01 X5.2465 Y4.9031
G01 X5.2154 Y4.9398
G01 X5.1802 Y4.9773
G01 X5.1430 Y5.0160
G01 X5.1043 Y5.0532
G01 X5.0668 Y5.0884
G01 X5.0301 Y5.1195
G01 X4.9884 Y5.1533
G01 X4.9478 Y5.1841
G01 X4.9065 Y5.2136
G01 X4.8653 Y5.2408
G01 X4.8186 Y5.2698
G01 X4.7751 Y5.2956
G01 X4.7293 Y5.3200
G01 X4.6822 Y5.3444
G01 X4.6381 Y5.3650
G01 X4.5902 Y5.3855
G01 X4.5390 Y5.4059
G01 X4.4918 Y5.4235
G01 X4.4463 Y5.4383
G01 X4.3935 Y5.4537
G01 X4.3445 Y5.4671
G01 X4.2975 Y5.4776
G01 X4.2460 Y5.4876
G01 X4.1914 Y5.4965
G01 X4.1394 Y5.5042
G01 X4.0922 Y5.5091
G01 X4.0407 Y5.5129
G01 X3.9889 Y5.5152
G01 X3.9361 Y5.5159
G01 X3.8842 Y5.5152
G00 X3.8842 Y5.5152
G01 F50.00
G01 Z-0.3000
G01 F70.00
G01 X3.8323 Y5.5129
G01 X3.7808 Y5.5091
G01 X3.7336 Y5.5042
G01 X3.6816 Y5.4965
G01 X3.6270 Y5.4876
G01 X3.5755 Y5.4776
G01 X3.5285 Y5.4671
G01 X3.4795 Y5.4537
G01 X3.4267 Y5.4383
G01 X3.3812 Y5.4235
G01 X3.3340 Y5.4059
G01 X3.2828 Y5.3855
G01 X3.2349 Y5.3650
G01 X3.1908 Y5.3444
G01 X3.1437 Y5.3200
G01 X3.0979 Y5.2956
G01 X3.0544 Y5.2698
G01 X3.0077 Y5.2408
G01 X2.9665 Y5.2136
G01 X2.9252 Y5.1841
G01 X2.8846 Y5.1533
G01 X2.8429 Y5.1195
G01 X2.8062 Y5.0884
G01 X2.7687 Y5.0532
G01 X2.7300 Y5.0160
G01 X2.6928 Y4.9773
G01 X2.6576 Y4.9398
G01 X2.6265 Y4.9031
G01 X2.5927 Y4.8614
G01 X2.5619 Y4.8208
G01 X2.5324 Y4.7795
G01 X2.5052 Y4.7383
G01 X2.4762 Y4.6916
G01 X2.4504 Y4.6481
G01 X2.4260 Y4.6023
G01 X2.4016 Y4.5552
G01 X2.3810 Y4.5111
G01 X2.3605 Y4.4632
G01 X2.3401 Y4.4120
G01 X2.3225 Y4.3648
G01 X2.3077 Y4.3193
G01 X2.2923 Y4.2665
G01 X2.2789 Y4.2175
G01 X2.2684 Y4.1705
G01 X2.2584 Y4.1190
G01 X2.2495 Y4.0644
G01 X2.2418 Y4.0124
G01 X2.2369 Y3.9652
G01 X2.2331 Y3.9137
G01 X2.2308 Y3.8618
G01 X2.2301 Y3.8099
G01 X2.2308 Y3.7571
G01 X2.2331 Y3.7053
G01 X2.2369 Y3.6538
G01 X2.2418 Y3.6066
G01 X2.2495 Y3.5546
G01 X2.2584 Y3.5000
G01 X2.2684 Y3.4485
G01 X2.2789 Y3.4015
G01 X2.2923 Y3.3525
G01 X2.3077 Y3.2997
G01 X2.3225 Y3.2542
G01 X2.3401 Y3.2070
G01 X2.3605 Y3.1558
G01 X2.3810 Y3.1079
G01 X2.4016 Y3.0638
G01 X2.4260 Y3.0167
G01 X2.4504 Y2.9709
G01 X2.4762 Y2.9274
G01 X2.5052 Y2.8807
G01 X2.5324 Y2.8395
G01 X2.5619 Y2.7982
G01 X2.5927 Y2.7576
G01 X2.6265 Y2.7159
G01 X2.6576 Y2.6792
G01 X2.6928 Y2.6417
G01 X2.7300 Y2.6030
G01 X2.7687 Y2.5658
G01 X2.8062 Y2.5306
G01 X2.8429 Y2.4995
G01 X2.8846 Y2.4657
G01 X2.9252 Y2.4349
G01 X2.9665 Y2.4054
G01 X3.0077 Y2.3782
G01 X3.0544 Y2.3492
G01 X3.0979 Y2.3234
G01 X3.1437 Y2.2990
G01 X3.1908 Y2.2746
G01 X3.2349 Y2.2540
G01 X3.2828 Y2.2335
G01 X3.3340 Y2.2131
G01 X3.3812 Y2.1955
G01 X3.4267 Y2.1807
G01 X3.4795 Y2.1653
G01 X3.5285 Y2.1519
G01 X3.5755 Y2.1414
G01 X3.6270 Y2.1314
G01 X3.6816 Y2.1225
G01 X3.7336 Y2.1148
G01 X3.7808 Y2.1099
G01 X3.8323 Y2.1061
G01 X3.8842 Y2.1038
G01 X3.9361 Y2.1031
G01 X3.9889 Y2.1038
G01 X4.0407 Y2.1061
G01 X4.0922 Y2.1099
G01 X4.1394 Y2.1148
G01 X4.1914 Y2.1225
G01 X4.2460 Y2.1314
G01 X4.2975 Y2.1414
G01 X4.3445 Y2.1519
G01 X4.3935 Y2.1653
G01 X4.4463 Y2.1807
G01 X4.4918 Y2.1955
G01 X4.5390 Y2.2131
G01 X4.5902 Y2.2335
G01 X4.6381 Y2.2540
G01 X4.6822 Y2.2746
G01 X4.7293 Y2.2990
G01 X4.7751 Y2.3234
G01 X4.8186 Y2.3492
G01 X4.8653 Y2.3782
G01 X4.9065 Y2.4054
G01 X4.9478 Y2.4349
G01 X4.9884 Y2.4657
G01 X5.0301 Y2.4995
G01 X5.0668 Y2.5306
G01 X5.1043 Y2.5658
G01 X5.1430 Y2.6030
G01 X5.1802 Y2.6417
G01 X5.2154 Y2.6792
G01 X5.2465 Y2.7159
G01 X5.2803 Y2.7576
G01 X5.3111 Y2.7982
G01 X5.3406 Y2.8395
G01 X5.3678 Y2.8807
G01 X5.3968 Y2.9274
G01 X5.4226 Y2.9709
G01 X5.4470 Y3.0167
G01 X5.4714 Y3.0638
G01 X5.4920 Y3.1079
G01 X5.5125 Y3.1558
G01 X5.5329 Y3.2070
G01 X5.5505 Y3.2542
G01 X5.5653 Y3.2997
G01 X5.5807 Y3.3525
G01 X5.5941 Y3.4015
G01 X5.6046 Y3.4485
G01 X5.6146 Y3.5000
G01 X5.6235 Y3.5546
G01 X5.6312 Y3.6066
G01 X5.6361 Y3.6538
G01 X5.6399 Y3.7053
G01 X5.6422 Y3.7571
G01 X5.6429 Y3.8099
G01 X5.6422 Y3.8618
G01 X5.6399 Y3.9137
G01 X5.6361 Y3.9652
G01 X5.6312 Y4.0124
G01 X5.6235 Y4.0644
G01 X5.6146 Y4.1190
G01 X5.6046 Y4.1705
G01 X5.5941 Y4.2175
G01 X5.5807 Y4.2665
G01 X5.5653 Y4.3193
G01 X5.5505 Y4.3648
G01 X5.5329 Y4.4120
G01 X5.5125 Y4.4632
G01 X5.4920 Y4.5111
G01 X5.4714 Y4.5552
G01 X5.4470 Y4.6023
G01 X5.4226 Y4.6481
G01 X5.3968 Y4.6916
G01 X5.3678 Y4.7383
G01 X5.3406 Y4.7795
G01 X5.3111 Y4.8208
G01 X5.2803 Y4.8614
G01 X5.2465 Y4.9031
G01 X5.2154 Y4.9398
G01 X5.1802 Y4.9773
G01 X5.1430 Y5.0160
G01 X5.1043 Y5.0532
G01 X5.0668 Y5.0884
G01 X5.0301 Y5.1195
G01 X4.9884 Y5.1533
G01 X4.9478 Y5.1841
G01 X4.9065 Y5.2136
G01 X4.8653 Y5.2408
G01 X4.8186 Y5.2698
G01 X4.7751 Y5.2956
G01 X4.7293 Y5.3200
G01 X4.6822 Y5.3444
G01 X4.6381 Y5.3650
G01 X4.5902 Y5.3855
G01 X4.5390 Y5.4059
G01 X4.4918 Y5.4235
G01 X4.4463 Y5.4383
G01 X4.3935 Y5.4537
G01 X4.3445 Y5.4671
G01 X4.2975 Y5.4776
G01 X4.2460 Y5.4876
G01 X4.1914 Y5.4965
G01 X4.1394 Y5.5042
G01 X4.0922 Y5.5091
G01 X4.0407 Y5.5129
G01 X3.9889 Y5.5152
G01 X3.9361 Y5.5159
G01 X3.8842 Y5.5152
G00 X3.8842 Y5.5152
G01 F50.00
G01 Z-0.4000
G01 F70.00
G01 X3.8323 Y5.5129
G01 X3.7808 Y5.5091
G01 X3.7336 Y5.5042
G01 X3.6816 Y5.4965
G01 X3.6270 Y5.4876
G01 X3.5755 Y5.4776
G01 X3.5285 Y5.4671
G01 X3.4795 Y5.4537
G01 X3.4267 Y5.4383
G01 X3.3812 Y5.4235
G01 X3.3340 Y5.4059
G01 X3.2828 Y5.3855
G01 X3.2349 Y5.3650
G01 X3.1908 Y5.3444
G01 X3.1437 Y5.3200
G01 X3.0979 Y5.2956
G01 X3.0544 Y5.2698
G01 X3.0077 Y5.2408
G01 X2.9665 Y5.2136
G01 X2.9252 Y5.1841
G01 X2.8846 Y5.1533
G01 X2.8429 Y5.1195
G01 X2.8062 Y5.0884
G01 X2.7687 Y5.0532
G01 X2.7300 Y5.0160
G01 X2.6928 Y4.9773
G01 X2.6576 Y4.9398
G01 X2.6265 Y4.9031
G01 X2.5927 Y4.8614
G01 X2.5619 Y4.8208
G01 X2.5324 Y4.7795
G01 X2.5052 Y4.7383
G01 X2.4762 Y4.6916
G01 X2.4504 Y4.6481
G01 X2.4260 Y4.6023
G01 X2.4016 Y4.5552
G01 X2.3810 Y4.5111
G01 X2.3605 Y4.4632
G01 X2.3401 Y4.4120
G01 X2.3225 Y4.3648
G01 X2.3077 Y4.3193
G01 X2.2923 Y4.2665
G01 X2.2789 Y4.2175
G01 X2.2684 Y4.1705
G01 X2.2584 Y4.1190
G01 X2.2495 Y4.0644
G01 X2.2418 Y4.0124
G01 X2.2369 Y3.9652
G01 X2.2331 Y3.9137
G01 X2.2308 Y3.8618
G01 X2.2301 Y3.8099
G01 X2.2308 Y3.7571
G01 X2.2331 Y3.7053
G01 X2.2369 Y3.6538
G01 X2.2418 Y3.6066
G01 X2.2495 Y3.5546
G01 X2.2584 Y3.5000
G01 X2.2684 Y3.4485
G01 X2.2789 Y3.4015
G01 X2.2923 Y3.3525
G01 X2.3077 Y3.2997
G01 X2.3225 Y3.2542
G01 X2.3401 Y3.2070
G01 X2.3605 Y3.1558
G01 X2.3810 Y3.1079
G01 X2.4016 Y3.0638
G01 X2.4260 Y3.0167
G01 X2.4504 Y2.9709
G01 X2.4762 Y2.9274
G01 X2.5052 Y2.8807
G01 X2.5324 Y2.8395
G01 X2.5619 Y2.7982
G01 X2.5927 Y2.7576
G01 X2.6265 Y2.7159
G01 X2.6576 Y2.6792
G01 X2.6928 Y2.6417
G01 X2.7300 Y2.6030
G01 X2.7687 Y2.5658
G01 X2.8062 Y2.5306
G01 X2.8429 Y2.4995
G01 X2.8846 Y2.4657
G01 X2.9252 Y2.4349
G01 X2.9665 Y2.4054
G01 X3.0077 Y2.3782
G01 X3.0544 Y2.3492
G01 X3.0979 Y2.3234
G01 X3.1437 Y2.2990
G01 X3.1908 Y2.2746
G01 X3.2349 Y2.2540
G01 X3.2828 Y2.2335
G01 X3.3340 Y2.2131
G01 X3.3812 Y2.1955
G01 X3.4267 Y2.1807
G01 X3.4795 Y2.1653
G01 X3.5285 Y2.1519
G01 X3.5755 Y2.1414
G01 X3.6270 Y2.1314
G01 X3.6816 Y2.1225
G01 X3.7336 Y2.1148
G01 X3.7808 Y2.1099
G01 X3.8323 Y2.1061
G01 X3.8842 Y2.1038
G01 X3.9361 Y2.1031
G01 X3.9889 Y2.1038
G01 X4.0407 Y2.1061
G01 X4.0922 Y2.1099
G01 X4.1394 Y2.1148
G01 X4.1914 Y2.1225
G01 X4.2460 Y2.1314
G01 X4.2975 Y2.1414
G01 X4.3445 Y2.1519
G01 X4.3935 Y2.1653
G01 X4.4463 Y2.1807
G01 X4.4918 Y2.1955
G01 X4.5390 Y2.2131
G01 X4.5902 Y2.2335
G01 X4.6381 Y2.2540
G01 X4.6822 Y2.2746
G01 X4.7293 Y2.2990
G01 X4.7751 Y2.3234
G01 X4.8186 Y2.3492
G01 X4.8653 Y2.3782
G01 X4.9065 Y2.4054
G01 X4.9478 Y2.4349
G01 X4.9884 Y2.4657
G01 X5.0301 Y2.4995
G01 X5.0668 Y2.5306
G01 X5.1043 Y2.5658
G01 X5.1430 Y2.6030
G01 X5.1802 Y2.6417
G01 X5.2154 Y2.6792
G01 X5.2465 Y2.7159
G01 X5.2803 Y2.7576
G01 X5.3111 Y2.7982
G01 X5.3406 Y2.8395
G01 X5.3678 Y2.8807
G01 X5.3968 Y2.9274
G01 X5.4226 Y2.9709
G01 X5.4470 Y3.0167
G01 X5.4714 Y3.0638
G01 X5.4920 Y3.1079
G01 X5.5125 Y3.1558
G01 X5.5329 Y3.2070
G01 X5.5505 Y3.2542
G01 X5.5653 Y3.2997
G01 X5.5807 Y3.3525
G01 X5.5941 Y3.4015
G01 X5.6046 Y3.4485
G01 X5.6146 Y3.5000
G01 X5.6235 Y3.5546
G01 X5.6312 Y3.6066
G01 X5.6361 Y3.6538
G01 X5.6399 Y3.7053
G01 X5.6422 Y3.7571
G01 X5.6429 Y3.8099
G01 X5.6422 Y3.8618
G01 X5.6399 Y3.9137
G01 X5.6361 Y3.9652
G01 X5.6312 Y4.0124
G01 X5.6235 Y4.0644
G01 X5.6146 Y4.1190
G01 X5.6046 Y4.1705
G01 X5.5941 Y4.2175
G01 X5.5807 Y4.2665
G01 X5.5653 Y4.3193
G01 X5.5505 Y4.3648
G01 X5.5329 Y4.4120
G01 X5.5125 Y4.4632
G01 X5.4920 Y4.5111
G01 X5.4714 Y4.5552
G01 X5.4470 Y4.6023
G01 X5.4226 Y4.6481
G01 X5.3968 Y4.6916
G01 X5.3678 Y4.7383
G01 X5.3406 Y4.7795
G01 X5.3111 Y4.8208
G01 X5.2803 Y4.8614
G01 X5.2465 Y4.9031
G01 X5.2154 Y4.9398
G01 X5.1802 Y4.9773
G01 X5.1430 Y5.0160
G01 X5.1043 Y5.0532
G01 X5.0668 Y5.0884
G01 X5.0301 Y5.1195
G01 X4.9884 Y5.1533
G01 X4.9478 Y5.1841
G01 X4.9065 Y5.2136
G01 X4.8653 Y5.2408
G01 X4.8186 Y5.2698
G01 X4.7751 Y5.2956
G01 X4.7293 Y5.3200
G01 X4.6822 Y5.3444
G01 X4.6381 Y5.3650
G01 X4.5902 Y5.3855
G01 X4.5390 Y5.4059
G01 X4.4918 Y5.4235
G01 X4.4463 Y5.4383
G01 X4.3935 Y5.4537
G01 X4.3445 Y5.4671
G01 X4.2975 Y5.4776
G01 X4.2460 Y5.4876
G01 X4.1914 Y5.4965
G01 X4.1394 Y5.5042
G01 X4.0922 Y5.5091
G01 X4.0407 Y5.5129
G01 X3.9889 Y5.5152
G01 X3.9361 Y5.5159
G01 X3.8842 Y5.5152
G00 X3.8842 Y5.5152
G01 F50.00
G01 Z-0.5000
G01 F70.00
G01 X3.8323 Y5.5129
G01 X3.7808 Y5.5091
G01 X3.7336 Y5.5042
G01 X3.6816 Y5.4965
G01 X3.6270 Y5.4876
G01 X3.5755 Y5.4776
G01 X3.5285 Y5.4671
G01 X3.4795 Y5.4537
G01 X3.4267 Y5.4383
G01 X3.3812 Y5.4235
G01 X3.3340 Y5.4059
G01 X3.2828 Y5.3855
G01 X3.2349 Y5.3650
G01 X3.1908 Y5.3444
G01 X3.1437 Y5.3200
G01 X3.0979 Y5.2956
G01 X3.0544 Y5.2698
G01 X3.0077 Y5.2408
G01 X2.9665 Y5.2136
G01 X2.9252 Y5.1841
G01 X2.8846 Y5.1533
G01 X2.8429 Y5.1195
G01 X2.8062 Y5.0884
G01 X2.7687 Y5.0532
G01 X2.7300 Y5.0160
G01 X2.6928 Y4.9773
G01 X2.6576 Y4.9398
G01 X2.6265 Y4.9031
G01 X2.5927 Y4.8614
G01 X2.5619 Y4.8208
G01 X2.5324 Y4.7795
G01 X2.5052 Y4.7383
G01 X2.4762 Y4.6916
G01 X2.4504 Y4.6481
G01 X2.4260 Y4.6023
G01 X2.4016 Y4.5552
G01 X2.3810 Y4.5111
G01 X2.3605 Y4.4632
G01 X2.3401 Y4.4120
G01 X2.3225 Y4.3648
G01 X2.3077 Y4.3193
G01 X2.2923 Y4.2665
G01 X2.2789 Y4.2175
G01 X2.2684 Y4.1705
G01 X2.2584 Y4.1190
G01 X2.2495 Y4.0644
G01 X2.2418 Y4.0124
G01 X2.2369 Y3.9652
G01 X2.2331 Y3.9137
G01 X2.2308 Y3.8618
G01 X2.2301 Y3.8099
G01 X2.2308 Y3.7571
G01 X2.2331 Y3.7053
G01 X2.2369 Y3.6538
G01 X2.2418 Y3.6066
G01 X2.2495 Y3.5546
G01 X2.2584 Y3.5000
G01 X2.2684 Y3.4485
G01 X2.2789 Y3.4015
G01 X2.2923 Y3.3525
G01 X2.3077 Y3.2997
G01 X2.3225 Y3.2542
G01 X2.3401 Y3.2070
G01 X2.3605 Y3.1558
G01 X2.3810 Y3.1079
G01 X2.4016 Y3.0638
G01 X2.4260 Y3.0167
G01 X2.4504 Y2.9709
G01 X2.4762 Y2.9274
G01 X2.5052 Y2.8807
G01 X2.5324 Y2.8395
G01 X2.5619 Y2.7982
G01 X2.5927 Y2.7576
G01 X2.6265 Y2.7159
G01 X2.6576 Y2.6792
G01 X2.6928 Y2.6417
G01 X2.7300 Y2.6030
G01 X2.7687 Y2.5658
G01 X2.8062 Y2.5306
G01 X2.8429 Y2.4995
G01 X2.8846 Y2.4657
G01 X2.9252 Y2.4349
G01 X2.9665 Y2.4054
G01 X3.0077 Y2.3782
G01 X3.0544 Y2.3492
G01 X3.0979 Y2.3234
G01 X3.1437 Y2.2990
G01 X3.1908 Y2.2746
G01 X3.2349 Y2.2540
G01 X3.2828 Y2.2335
G01 X3.3340 Y2.2131
G01 X3.3812 Y2.1955
G01 X3.4267 Y2.1807
G01 X3.4795 Y2.1653
G01 X3.5285 Y2.1519
G01 X3.5755 Y2.1414
G01 X3.6270 Y2.1314
G01 X3.6816 Y2.1225
G01 X3.7336 Y2.1148
G01 X3.7808 Y2.1099
G01 X3.8323 Y2.1061
G01 X3.8842 Y2.1038
G01 X3.9361 Y2.1031
G01 X3.9889 Y2.1038
G01 X4.0407 Y2.1061
G01 X4.0922 Y2.1099
G01 X4.1394 Y2.1148
G01 X4.1914 Y2.1225
G01 X4.2460 Y2.1314
G01 X4.2975 Y2.1414
G01 X4.3445 Y2.1519
G01 X4.3935 Y2.1653
G01 X4.4463 Y2.1807
G01 X4.4918 Y2.1955
G01 X4.5390 Y2.2131
G01 X4.5902 Y2.2335
G01 X4.6381 Y2.2540
G01 X4.6822 Y2.2746
G01 X4.7293 Y2.2990
G01 X4.7751 Y2.3234
G01 X4.8186 Y2.3492
G01 X4.8653 Y2.3782
G01 X4.9065 Y2.4054
G01 X4.9478 Y2.4349
G01 X4.9884 Y2.4657
G01 X5.0301 Y2.4995
G01 X5.0668 Y2.5306
G01 X5.1043 Y2.5658
G01 X5.1430 Y2.6030
G01 X5.1802 Y2.6417
G01 X5.2154 Y2.6792
G01 X5.2465 Y2.7159
G01 X5.2803 Y2.7576
G01 X5.3111 Y2.7982
G01 X5.3406 Y2.8395
G01 X5.3678 Y2.8807
G01 X5.3968 Y2.9274
G01 X5.4226 Y2.9709
G01 X5.4470 Y3.0167
G01 X5.4714 Y3.0638
G01 X5.4920 Y3.1079
G01 X5.5125 Y3.1558
G01 X5.5329 Y3.2070
G01 X5.5505 Y3.2542
G01 X5.5653 Y3.2997
G01 X5.5807 Y3.3525
G01 X5.5941 Y3.4015
G01 X5.6046 Y3.4485
G01 X5.6146 Y3.5000
G01 X5.6235 Y3.5546
G01 X5.6312 Y3.6066
G01 X5.6361 Y3.6538
G01 X5.6399 Y3.7053
G01 X5.6422 Y3.7571
G01 X5.6429 Y3.8099
G01 X5.6422 Y3.8618
G01 X5.6399 Y3.9137
G01 X5.6361 Y3.9652
G01 X5.6312 Y4.0124
G01 X5.6235 Y4.0644
G01 X5.6146 Y4.1190
G01 X5.6046 Y4.1705
G01 X5.5941 Y4.2175
G01 X5.5807 Y4.2665
G01 X5.5653 Y4.3193
G01 X5.5505 Y4.3648
G01 X5.5329 Y4.4120
G01 X5.5125 Y4.4632
G01 X5.4920 Y4.5111
G01 X5.4714 Y4.5552
G01 X5.4470 Y4.6023
G01 X5.4226 Y4.6481
G01 X5.3968 Y4.6916
G01 X5.3678 Y4.7383
G01 X5.3406 Y4.7795
G01 X5.3111 Y4.8208
G01 X5.2803 Y4.8614
G01 X5.2465 Y4.9031
G01 X5.2154 Y4.9398
G01 X5.1802 Y4.9773
G01 X5.1430 Y5.0160
G01 X5.1043 Y5.0532
G01 X5.0668 Y5.0884
G01 X5.0301 Y5.1195
G01 X4.9884 Y5.1533
G01 X4.9478 Y5.1841
G01 X4.9065 Y5.2136
G01 X4.8653 Y5.2408
G01 X4.8186 Y5.2698
G01 X4.7751 Y5.2956
G01 X4.7293 Y5.3200
G01 X4.6822 Y5.3444
G01 X4.6381 Y5.3650
G01 X4.5902 Y5.3855
G01 X4.5390 Y5.4059
G01 X4.4918 Y5.4235
G01 X4.4463 Y5.4383
G01 X4.3935 Y5.4537
G01 X4.3445 Y5.4671
G01 X4.2975 Y5.4776
G01 X4.2460 Y5.4876
G01 X4.1914 Y5.4965
G01 X4.1394 Y5.5042
G01 X4.0922 Y5.5091
G01 X4.0407 Y5.5129
G01 X3.9889 Y5.5152
G01 X3.9361 Y5.5159
G01 X3.8842 Y5.5152
G00 X3.8842 Y5.5152
G01 F50.00
G01 Z-0.5999
G01 F70.00
G01 X3.8323 Y5.5129
G01 X3.7808 Y5.5091
G01 X3.7336 Y5.5042
G01 X3.6816 Y5.4965
G01 X3.6270 Y5.4876
G01 X3.5755 Y5.4776
G01 X3.5285 Y5.4671
G01 X3.4795 Y5.4537
G01 X3.4267 Y5.4383
G01 X3.3812 Y5.4235
G01 X3.3340 Y5.4059
G01 X3.2828 Y5.3855
G01 X3.2349 Y5.3650
G01 X3.1908 Y5.3444
G01 X3.1437 Y5.3200
G01 X3.0979 Y5.2956
G01 X3.0544 Y5.2698
G01 X3.0077 Y5.2408
G01 X2.9665 Y5.2136
G01 X2.9252 Y5.1841
G01 X2.8846 Y5.1533
G01 X2.8429 Y5.1195
G01 X2.8062 Y5.0884
G01 X2.7687 Y5.0532
G01 X2.7300 Y5.0160
G01 X2.6928 Y4.9773
G01 X2.6576 Y4.9398
G01 X2.6265 Y4.9031
G01 X2.5927 Y4.8614
G01 X2.5619 Y4.8208
G01 X2.5324 Y4.7795
G01 X2.5052 Y4.7383
G01 X2.4762 Y4.6916
G01 X2.4504 Y4.6481
G01 X2.4260 Y4.6023
G01 X2.4016 Y4.5552
G01 X2.3810 Y4.5111
G01 X2.3605 Y4.4632
G01 X2.3401 Y4.4120
G01 X2.3225 Y4.3648
G01 X2.3077 Y4.3193
G01 X2.2923 Y4.2665
G01 X2.2789 Y4.2175
G01 X2.2684 Y4.1705
G01 X2.2584 Y4.1190
G01 X2.2495 Y4.0644
G01 X2.2418 Y4.0124
G01 X2.2369 Y3.9652
G01 X2.2331 Y3.9137
G01 X2.2308 Y3.8618
G01 X2.2301 Y3.8099
G01 X2.2308 Y3.7571
G01 X2.2331 Y3.7053
G01 X2.2369 Y3.6538
G01 X2.2418 Y3.6066
G01 X2.2495 Y3.5546
G01 X2.2584 Y3.5000
G01 X2.2684 Y3.4485
G01 X2.2789 Y3.4015
G01 X2.2923 Y3.3525
G01 X2.3077 Y3.2997
G01 X2.3225 Y3.2542
G01 X2.3401 Y3.2070
G01 X2.3605 Y3.1558
G01 X2.3810 Y3.1079
G01 X2.4016 Y3.0638
G01 X2.4260 Y3.0167
G01 X2.4504 Y2.9709
G01 X2.4762 Y2.9274
G01 X2.5052 Y2.8807
G01 X2.5324 Y2.8395
G01 X2.5619 Y2.7982
G01 X2.5927 Y2.7576
G01 X2.6265 Y2.7159
G01 X2.6576 Y2.6792
G01 X2.6928 Y2.6417
G01 X2.7300 Y2.6030
G01 X2.7687 Y2.5658
G01 X2.8062 Y2.5306
G01 X2.8429 Y2.4995
G01 X2.8846 Y2.4657
G01 X2.9252 Y2.4349
G01 X2.9665 Y2.4054
G01 X3.0077 Y2.3782
G01 X3.0544 Y2.3492
G01 X3.0979 Y2.3234
G01 X3.1437 Y2.2990
G01 X3.1908 Y2.2746
G01 X3.2349 Y2.2540
G01 X3.2828 Y2.2335
G01 X3.3340 Y2.2131
G01 X3.3812 Y2.1955
G01 X3.4267 Y2.1807
G01 X3.4795 Y2.1653
G01 X3.5285 Y2.1519
G01 X3.5755 Y2.1414
G01 X3.6270 Y2.1314
G01 X3.6816 Y2.1225
G01 X3.7336 Y2.1148
G01 X3.7808 Y2.1099
G01 X3.8323 Y2.1061
G01 X3.8842 Y2.1038
G01 X3.9361 Y2.1031
G01 X3.9889 Y2.1038
G01 X4.0407 Y2.1061
G01 X4.0922 Y2.1099
G01 X4.1394 Y2.1148
G01 X4.1914 Y2.1225
G01 X4.2460 Y2.1314
G01 X4.2975 Y2.1414
G01 X4.3445 Y2.1519
G01 X4.3935 Y2.1653
G01 X4.4463 Y2.1807
G01 X4.4918 Y2.1955
G01 X4.5390 Y2.2131
G01 X4.5902 Y2.2335
G01 X4.6381 Y2.2540
G01 X4.6822 Y2.2746
G01 X4.7293 Y2.2990
G01 X4.7751 Y2.3234
G01 X4.8186 Y2.3492
G01 X4.8653 Y2.3782
G01 X4.9065 Y2.4054
G01 X4.9478 Y2.4349
G01 X4.9884 Y2.4657
G01 X5.0301 Y2.4995
G01 X5.0668 Y2.5306
G01 X5.1043 Y2.5658
G01 X5.1430 Y2.6030
G01 X5.1802 Y2.6417
G01 X5.2154 Y2.6792
G01 X5.2465 Y2.7159
G01 X5.2803 Y2.7576
G01 X5.3111 Y2.7982
G01 X5.3406 Y2.8395
G01 X5.3678 Y2.8807
G01 X5.3968 Y2.9274
G01 X5.4226 Y2.9709
G01 X5.4470 Y3.0167
G01 X5.4714 Y3.0638
G01 X5.4920 Y3.1079
G01 X5.5125 Y3.1558
G01 X5.5329 Y3.2070
G01 X5.5505 Y3.2542
G01 X5.5653 Y3.2997
G01 X5.5807 Y3.3525
G01 X5.5941 Y3.4015
G01 X5.6046 Y3.4485
G01 X5.6146 Y3.5000
G01 X5.6235 Y3.5546
G01 X5.6312 Y3.6066
G01 X5.6361 Y3.6538
G01 X5.6399 Y3.7053
G01 X5.6422 Y3.7571
G01 X5.6429 Y3.8099
G01 X5.6422 Y3.8618
G01 X5.6399 Y3.9137
G01 X5.6361 Y3.9652
G01 X5.6312 Y4.0124
G01 X5.6235 Y4.0644
G01 X5.6146 Y4.1190
G01 X5.6046 Y4.1705
G01 X5.5941 Y4.2175
G01 X5.5807 Y4.2665
G01 X5.5653 Y4.3193
G01 X5.5505 Y4.3648
G01 X5.5329 Y4.4120
G01 X5.5125 Y4.4632
G01 X5.4920 Y4.5111
G01 X5.4714 Y4.5552
G01 X5.4470 Y4.6023
G01 X5.4226 Y4.6481
G01 X5.3968 Y4.6916
G01 X5.3678 Y4.7383
G01 X5.3406 Y4.7795
G01 X5.3111 Y4.8208
G01 X5.2803 Y4.8614
G01 X5.2465 Y4.9031
G01 X5.2154 Y4.9398
G01 X5.1802 Y4.9773
G01 X5.1430 Y5.0160
G01 X5.1043 Y5.0532
G01 X5.0668 Y5.0884
G01 X5.0301 Y5.1195
G01 X4.9884 Y5.1533
G01 X4.9478 Y5.1841
G01 X4.9065 Y5.2136
G01 X4.8653 Y5.2408
G01 X4.8186 Y5.2698
G01 X4.7751 Y5.2956
G01 X4.7293 Y5.3200
G01 X4.6822 Y5.3444
G01 X4.6381 Y5.3650
G01 X4.5902 Y5.3855
G01 X4.5390 Y5.4059
G01 X4.4918 Y5.4235
G01 X4.4463 Y5.4383
G01 X4.3935 Y5.4537
G01 X4.3445 Y5.4671
G01 X4.2975 Y5.4776
G01 X4.2460 Y5.4876
G01 X4.1914 Y5.4965
G01 X4.1394 Y5.5042
G01 X4.0922 Y5.5091
G01 X4.0407 Y5.5129
G01 X3.9889 Y5.5152
G01 X3.9361 Y5.5159
G01 X3.8842 Y5.5152
G00 Z2.0000
G00 X3.8812 Y5.6151
G01 F50.00
G01 Z-0.1000
G01 F70.00
G01 X3.8264 Y5.6127
G01 X3.7719 Y5.6087
G01 X3.7211 Y5.6034
G01 X3.6662 Y5.5953
G01 X3.6093 Y5.5860
G01 X3.5550 Y5.5755
G01 X3.5044 Y5.5641
G01 X3.4523 Y5.5499
G01 X3.3973 Y5.5338
G01 X3.3483 Y5.5180
G01 X3.2980 Y5.4992
G01 X3.2447 Y5.4780
G01 X3.1940 Y5.4563
G01 X3.1467 Y5.4341
G01 X3.0972 Y5.4086
G01 X3.0488 Y5.3828
G01 X3.0025 Y5.3553
G01 X2.9537 Y5.3250
G01 X2.9099 Y5.2961
G01 X2.8659 Y5.2646
G01 X2.8229 Y5.2320
G01 X2.7791 Y5.1965
G01 X2.7396 Y5.1631
G01 X2.6999 Y5.1257
G01 X2.6593 Y5.0867
G01 X2.6203 Y5.0461
G01 X2.5829 Y5.0064
G01 X2.5495 Y4.9669
G01 X2.5140 Y4.9231
G01 X2.4814 Y4.8801
G01 X2.4499 Y4.8361
G01 X2.4210 Y4.7923
G01 X2.3907 Y4.7435
G01 X2.3632 Y4.6972
G01 X2.3374 Y4.6488
G01 X2.3119 Y4.5993
G01 X2.2897 Y4.5520
G01 X2.2680 Y4.5013
G01 X2.2468 Y4.4480
G01 X2.2280 Y4.3977
G01 X2.2122 Y4.3487
G01 X2.1961 Y4.2937
G01 X2.1819 Y4.2416
G01 X2.1705 Y4.1910
G01 X2.1600 Y4.1367
G01 X2.1507 Y4.0798
G01 X2.1426 Y4.0249
G01 X2.1373 Y3.9741
G01 X2.1333 Y3.9196
G01 X2.1309 Y3.8648
G01 X2.1300 Y3.8100
G01 X2.1309 Y3.7542
G01 X2.1333 Y3.6994
G01 X2.1373 Y3.6449
G01 X2.1426 Y3.5941
G01 X2.1507 Y3.5392
G01 X2.1600 Y3.4823
G01 X2.1705 Y3.4280
G01 X2.1819 Y3.3774
G01 X2.1961 Y3.3253
G01 X2.2122 Y3.2703
G01 X2.2280 Y3.2213
G01 X2.2468 Y3.1710
G01 X2.2680 Y3.1177
G01 X2.2897 Y3.0670
G01 X2.3119 Y3.0197
G01 X2.3374 Y2.9702
G01 X2.3632 Y2.9218
G01 X2.3907 Y2.8755
G01 X2.4210 Y2.8267
G01 X2.4499 Y2.7829
G01 X2.4814 Y2.7389
G01 X2.5140 Y2.6959
G01 X2.5495 Y2.6521
G01 X2.5829 Y2.6126
G01 X2.6203 Y2.5729
G01 X2.6593 Y2.5323
G01 X2.6999 Y2.4933
G01 X2.7396 Y2.4559
G01 X2.7791 Y2.4225
G01 X2.8229 Y2.3870
G01 X2.8659 Y2.3544
G01 X2.9099 Y2.3229
G01 X2.9537 Y2.2940
G01 X3.0025 Y2.2637
G01 X3.0488 Y2.2362
G01 X3.0972 Y2.2104
G01 X3.1467 Y2.1849
G01 X3.1940 Y2.1627
G01 X3.2447 Y2.1410
G01 X3.2980 Y2.1198
G01 X3.3483 Y2.1010
G01 X3.3973 Y2.0852
G01 X3.4523 Y2.0691
G01 X3.5044 Y2.0549
G01 X3.5550 Y2.0435
G01 X3.6093 Y2.0330
G01 X3.6662 Y2.0237
G01 X3.7211 Y2.0156
G01 X3.7719 Y2.0103
G01 X3.8264 Y2.0063
G01 X3.8812 Y2.0039
G01 X3.9360 Y2.0030
G01 X3.9918 Y2.0039
G01 X4.0466 Y2.0063
G01 X4.1011 Y2.0103
G01 X4.1519 Y2.0156
G01 X4.2068 Y2.0237
G01 X4.2637 Y2.0330
G01 X4.3180 Y2.0435
G01 X4.3686 Y2.0549
G01 X4.4207 Y2.0691
G01 X4.4757 Y2.0852
G01 X4.5247 Y2.1010
G01 X4.5750 Y2.1198
G01 X4.6283 Y2.1410
G01 X4.6790 Y2.1627
G01 X4.7263 Y2.1849
G01 X4.7758 Y2.2104
G01 X4.8242 Y2.2362
G01 X4.8705 Y2.2637
G01 X4.9193 Y2.2940
G01 X4.9631 Y2.3229
G01 X5.0071 Y2.3544
G01 X5.0501 Y2.3870
G01 X5.0939 Y2.4225
G01 X5.1334 Y2.4559
G01 X5.1731 Y2.4933
G01 X5.2137 Y2.5323
G01 X5.2527 Y2.5729
G01 X5.2901 Y2.6126
G01 X5.3235 Y2.6521
G01 X5.3590 Y2.6959
G01 X5.3916 Y2.7389
G01 X5.4231 Y2.7829
G01 X5.4520 Y2.8267
G01 X5.4823 Y2.8755
G01 X5.5098 Y2.9218
G01 X5.5356 Y2.9702
G01 X5.5611 Y3.0197
G01 X5.5833 Y3.0670
G01 X5.6050 Y3.1177
G01 X5.6262 Y3.1710
G01 X5.6450 Y3.2213
G01 X5.6608 Y3.2703
G01 X5.6769 Y3.3253
G01 X5.6911 Y3.3774
G01 X5.7025 Y3.4280
G01 X5.7130 Y3.4823
G01 X5.7223 Y3.5392
G01 X5.7304 Y3.5941
G01 X5.7357 Y3.6449
G01 X5.7397 Y3.6994
G01 X5.7421 Y3.7542
G01 X5.7430 Y3.8100
G01 X5.7421 Y3.8648
G01 X5.7397 Y3.9196
G01 X5.7357 Y3.9741
G01 X5.7304 Y4.0249
G01 X5.7223 Y4.0798
G01 X5.7130 Y4.1367
G01 X5.7025 Y4.1910
G01 X5.6911 Y4.2416
G01 X5.6769 Y4.2937
G01 X5.6608 Y4.3487
G01 X5.6450 Y4.3977
G01 X5.6262 Y4.4480
G01 X5.6050 Y4.5013
G01 X5.5833 Y4.5520
G01 X5.5611 Y4.5993
G01 X5.5356 Y4.6488
G01 X5.5098 Y4.6972
G01 X5.4823 Y4.7435
G01 X5.4520 Y4.7923
G01 X5.4231 Y4.8361
G01 X5.3916 Y4.8801
G01 X5.3590 Y4.9231
G01 X5.3235 Y4.9669
G01 X5.2901 Y5.0064
G01 X5.2527 Y5.0461
G01 X5.2137 Y5.0867
G01 X5.1731 Y5.1257
G01 X5.1334 Y5.1631
G01 X5.0939 Y5.1965
G01 X5.0501 Y5.2320
G01 X5.0071 Y5.2646
G01 X4.9631 Y5.2961
G01 X4.9193 Y5.3250
G01 X4.8705 Y5.3553
G01 X4.8242 Y5.3828
G01 X4.7758 Y5.4086
G01 X4.7263 Y5.4341
G01 X4.6790 Y5.4563
G01 X4.6283 Y5.4780
G01 X4.5750 Y5.4992
G01 X4.5247 Y5.5180
G01 X4.4757 Y5.5338
G01 X4.4207 Y5.5499
G01 X4.3686 Y5.5641
G01 X4.3180 Y5.5755
G01 X4.2637 Y5.5860
G01 X4.2068 Y5.5953
G01 X4.1519 Y5.6034
G01 X4.1011 Y5.6087
G01 X4.0466 Y5.6127
G01 X3.9918 Y5.6151
G01 X3.9360 Y5.6160
G01 X3.8812 Y5.6151
G00 X3.8812 Y5.6151
G01 F50.00
G01 Z-0.2000
G01 F70.00
G01 X3.8264 Y5.6127
G01 X3.7719 Y5.6087
G01 X3.7211 Y5.6034
G01 X3.6662 Y5.5953
G01 X3.6093 Y5.5860
G01 X3.5550 Y5.5755
G01 X3.5044 Y5.5641
G01 X3.4523 Y5.5499
G01 X3.3973 Y5.5338
G01 X3.3483 Y5.5180
G01 X3.2980 Y5.4992
G01 X3.2447 Y5.4780
G01 X3.1940 Y5.4563
G01 X3.1467 Y5.4341
G01 X3.0972 Y5.4086
G01 X3.0488 Y5.3828
G01 X3.0025 Y5.3553
G01 X2.9537 Y5.3250
G01 X2.9099 Y5.2961
G01 X2.8659 Y5.2646
G01 X2.8229 Y5.2320
G01 X2.7791 Y5.1965
G01 X2.7396 Y5.1631
G01 X2.6999 Y5.1257
G01 X2.6593 Y5.0867
G01 X2.6203 Y5.0461
G01 X2.5829 Y5.0064
G01 X2.5495 Y4.9669
G01 X2.5140 Y4.9231
G01 X2.4814 Y4.8801
G01 X2.4499 Y4.8361
G01 X2.4210 Y4.7923
G01 X2.3907 Y4.7435
G01 X2.3632 Y4.6972
G01 X2.3374 Y4.6488
G01 X2.3119 Y4.5993
G01 X2.2897 Y4.5520
G01 X2.2680 Y4.5013
G01 X2.2468 Y4.4480
G01 X2.2280 Y4.3977
G01 X2.2122 Y4.3487
G01 X2.1961 Y4.2937
G01 X2.1819 Y4.2416
G01 X2.1705 Y4.1910
G01 X2.1600 Y4.1367
G01 X2.1507 Y4.0798
G01 X2.1426 Y4.0249
G01 X2.1373 Y3.9741
G01 X2.1333 Y3.9196
G01 X2.1309 Y3.8648
G01 X2.1300 Y3.8100
G01 X2.1309 Y3.7542
G01 X2.1333 Y3.6994
G01 X2.1373 Y3.6449
G01 X2.1426 Y3.5941
G01 X2.1507 Y3.5392
G01 X2.1600 Y3.4823
G01 X2.1705 Y3.4280
G01 X2.1819 Y3.3774
G01 X2.1961 Y3.3253
G01 X2.2122 Y3.2703
G01 X2.2280 Y3.2213
G01 X2.2468 Y3.1710
G01 X2.2680 Y3.1177
G01 X2.2897 Y3.0670
G01 X2.3119 Y3.0197
G01 X2.3374 Y2.9702
G01 X2.3632 Y2.9218
G01 X2.3907 Y2.8755
G01 X2.4210 Y2.8267
G01 X2.4499 Y2.7829
G01 X2.4814 Y2.7389
G01 X2.5140 Y2.6959
G01 X2.5495 Y2.6521
G01 X2.5829 Y2.6126
G01 X2.6203 Y2.5729
G01 X2.6593 Y2.5323
G01 X2.6999 Y2.4933
G01 X2.7396 Y2.4559
G01 X2.7791 Y2.4225
G01 X2.8229 Y2.3870
G01 X2.8659 Y2.3544
G01 X2.9099 Y2.3229
G01 X2.9537 Y2.2940
G01 X3.0025 Y2.2637
G01 X3.0488 Y2.2362
G01 X3.0972 Y2.2104
G01 X3.1467 Y2.1849
G01 X3.1940 Y2.1627
G01 X3.2447 Y2.1410
G01 X3.2980 Y2.1198
G01 X3.3483 Y2.1010
G01 X3.3973 Y2.0852
G01 X3.4523 Y2.0691
G01 X3.5044 Y2.0549
G01 X3.5550 Y2.0435
G01 X3.6093 Y2.0330
G01 X3.6662 Y2.0237
G01 X3.7211 Y2.0156
G01 X3.7719 Y2.0103
G01 X3.8264 Y2.0063
G01 X3.8812 Y2.0039
G01 X3.9360 Y2.0030
G01 X3.9918 Y2.0039
G01 X4.0466 Y2.0063
G01 X4.1011 Y2.0103
G01 X4.1519 Y2.0156
G01 X4.2068 Y2.0237
G01 X4.2637 Y2.0330
G01 X4.3180 Y2.0435
G01 X4.3686 Y2.0549
G01 X4.4207 Y2.0691
G01 X4.4757 Y2.0852
G01 X4.5247 Y2.1010
G01 X4.5750 Y2.1198
G01 X4.6283 Y2.1410
G01 X4.6790 Y2.1627
G01 X4.7263 Y2.1849
G01 X4.7758 Y2.2104
G01 X4.8242 Y2.2362
G01 X4.8705 Y2.2637
G01 X4.9193 Y2.2940
G01 X4.9631 Y2.3229
G01 X5.0071 Y2.3544
G01 X5.0501 Y2.3870
G01 X5.0939 Y2.4225
G01 X5.1334 Y2.4559
G01 X5.1731 Y2.4933
G01 X5.2137 Y2.5323
G01 X5.2527 Y2.5729
G01 X5.2901 Y2.6126
G01 X5.3235 Y2.6521
G01 X5.3590 Y2.6959
G01 X5.3916 Y2.7389
G01 X5.4231 Y2.7829
G01 X5.4520 Y2.8267
G01 X5.4823 Y2.8755
G01 X5.5098 Y2.9218
G01 X5.5356 Y2.9702
G01 X5.5611 Y3.0197
G01 X5.5833 Y3.0670
G01 X5.6050 Y3.1177
G01 X5.6262 Y3.1710
G01 X5.6450 Y3.2213
G01 X5.6608 Y3.2703
G01 X5.6769 Y3.3253
G01 X5.6911 Y3.3774
G01 X5.7025 Y3.4280
G01 X5.7130 Y3.4823
G01 X5.7223 Y3.5392
G01 X5.7304 Y3.5941
G01 X5.7357 Y3.6449
G01 X5.7397 Y3.6994
G01 X5.7421 Y3.7542
G01 X5.7430 Y3.8100
G01 X5.7421 Y3.8648
G01 X5.7397 Y3.9196
G01 X5.7357 Y3.9741
G01 X5.7304 Y4.0249
G01 X5.7223 Y4.0798
G01 X5.7130 Y4.1367
G01 X5.7025 Y4.1910
G01 X5.6911 Y4.2416
G01 X5.6769 Y4.2937
G01 X5.6608 Y4.3487
G01 X5.6450 Y4.3977
G01 X5.6262 Y4.4480
G01 X5.6050 Y4.5013
G01 X5.5833 Y4.5520
G01 X5.5611 Y4.5993
G01 X5.5356 Y4.6488
G01 X5.5098 Y4.6972
G01 X5.4823 Y4.7435
G01 X5.4520 Y4.7923
G01 X5.4231 Y4.8361
G01 X5.3916 Y4.8801
G01 X5.3590 Y4.9231
G01 X5.3235 Y4.9669
G01 X5.2901 Y5.0064
G01 X5.2527 Y5.0461
G01 X5.2137 Y5.0867
G01 X5.1731 Y5.1257
G01 X5.1334 Y5.1631
G01 X5.0939 Y5.1965
G01 X5.0501 Y5.2320
G01 X5.0071 Y5.2646
G01 X4.9631 Y5.2961
G01 X4.9193 Y5.3250
G01 X4.8705 Y5.3553
G01 X4.8242 Y5.3828
G01 X4.7758 Y5.4086
G01 X4.7263 Y5.4341
G01 X4.6790 Y5.4563
G01 X4.6283 Y5.4780
G01 X4.5750 Y5.4992
G01 X4.5247 Y5.5180
G01 X4.4757 Y5.5338
G01 X4.4207 Y5.5499
G01 X4.3686 Y5.5641
G01 X4.3180 Y5.5755
G01 X4.2637 Y5.5860
G01 X4.2068 Y5.5953
G01 X4.1519 Y5.6034
G01 X4.1011 Y5.6087
G01 X4.0466 Y5.6127
G01 X3.9918 Y5.6151
G01 X3.9360 Y5.6160
G01 X3.8812 Y5.6151
G00 X3.8812 Y5.6151
G01 F50.00
G01 Z-0.3000
G01 F70.00
G01 X3.8264 Y5.6127
G01 X3.7719 Y5.6087
G01 X3.7211 Y5.6034
G01 X3.6662 Y5.5953
G01 X3.6093 Y5.5860
G01 X3.5550 Y5.5755
G01 X3.5044 Y5.5641
G01 X3.4523 Y5.5499
G01 X3.3973 Y5.5338
G01 X3.3483 Y5.5180
G01 X3.2980 Y5.4992
G01 X3.2447 Y5.4780
G01 X3.1940 Y5.4563
G01 X3.1467 Y5.4341
G01 X3.0972 Y5.4086
G01 X3.0488 Y5.3828
G01 X3.0025 Y5.3553
G01 X2.9537 Y5.3250
G01 X2.9099 Y5.2961
G01 X2.8659 Y5.2646
G01 X2.8229 Y5.2320
G01 X2.7791 Y5.1965
G01 X2.7396 Y5.1631
G01 X2.6999 Y5.1257
G01 X2.6593 Y5.0867
G01 X2.6203 Y5.0461
G01 X2.5829 Y5.0064
G01 X2.5495 Y4.9669
G01 X2.5140 Y4.9231
G01 X2.4814 Y4.8801
G01 X2.4499 Y4.8361
G01 X2.4210 Y4.7923
G01 X2.3907 Y4.7435
G01 X2.3632 Y4.6972
G01 X2.3374 Y4.6488
G01 X2.3119 Y4.5993
G01 X2.2897 Y4.5520
G01 X2.2680 Y4.5013
G01 X2.2468 Y4.4480
G01 X2.2280 Y4.3977
G01 X2.2122 Y4.3487
G01 X2.1961 Y4.2937
G01 X2.1819 Y4.2416
G01 X2.1705 Y4.1910
G01 X2.1600 Y4.1367
G01 X2.1507 Y4.0798
G01 X2.1426 Y4.0249
G01 X2.1373 Y3.9741
G01 X2.1333 Y3.9196
G01 X2.1309 Y3.8648
G01 X2.1300 Y3.8100
G01 X2.1309 Y3.7542
G01 X2.1333 Y3.6994
G01 X2.1373 Y3.6449
G01 X2.1426 Y3.5941
G01 X2.1507 Y3.5392
G01 X2.1600 Y3.4823
G01 X2.1705 Y3.4280
G01 X2.1819 Y3.3774
G01 X2.1961 Y3.3253
G01 X2.2122 Y3.2703
G01 X2.2280 Y3.2213
G01 X2.2468 Y3.1710
G01 X2.2680 Y3.1177
G01 X2.2897 Y3.0670
G01 X2.3119 Y3.0197
G01 X2.3374 Y2.9702
G01 X2.3632 Y2.9218
G01 X2.3907 Y2.8755
G01 X2.4210 Y2.8267
G01 X2.4499 Y2.7829
G01 X2.4814 Y2.7389
G01 X2.5140 Y2.6959
G01 X2.5495 Y2.6521
G01 X2.5829 Y2.6126
G01 X2.6203 Y2.5729
G01 X2.6593 Y2.5323
G01 X2.6999 Y2.4933
G01 X2.7396 Y2.4559
G01 X2.7791 Y2.4225
G01 X2.8229 Y2.3870
G01 X2.8659 Y2.3544
G01 X2.9099 Y2.3229
G01 X2.9537 Y2.2940
G01 X3.0025 Y2.2637
G01 X3.0488 Y2.2362
G01 X3.0972 Y2.2104
G01 X3.1467 Y2.1849
G01 X3.1940 Y2.1627
G01 X3.2447 Y2.1410
G01 X3.2980 Y2.1198
G01 X3.3483 Y2.1010
G01 X3.3973 Y2.0852
G01 X3.4523 Y2.0691
G01 X3.5044 Y2.0549
G01 X3.5550 Y2.0435
G01 X3.6093 Y2.0330
G01 X3.6662 Y2.0237
G01 X3.7211 Y2.0156
G01 X3.7719 Y2.0103
G01 X3.8264 Y2.0063
G01 X3.8812 Y2.0039
G01 X3.9360 Y2.0030
G01 X3.9918 Y2.0039
G01 X4.0466 Y2.0063
G01 X4.1011 Y2.0103
G01 X4.1519 Y2.0156
G01 X4.2068 Y2.0237
G01 X4.2637 Y2.0330
G01 X4.3180 Y2.0435
G01 X4.3686 Y2.0549
G01 X4.4207 Y2.0691
G01 X4.4757 Y2.0852
G01 X4.5247 Y2.1010
G01 X4.5750 Y2.1198
G01 X4.6283 Y2.1410
G01 X4.6790 Y2.1627
G01 X4.7263 Y2.1849
G01 X4.7758 Y2.2104
G01 X4.8242 Y2.2362
G01 X4.8705 Y2.2637
G01 X4.9193 Y2.2940
G01 X4.9631 Y2.3229
G01 X5.0071 Y2.3544
G01 X5.0501 Y2.3870
G01 X5.0939 Y2.4225
G01 X5.1334 Y2.4559
G01 X5.1731 Y2.4933
G01 X5.2137 Y2.5323
G01 X5.2527 Y2.5729
G01 X5.2901 Y2.6126
G01 X5.3235 Y2.6521
G01 X5.3590 Y2.6959
G01 X5.3916 Y2.7389
G01 X5.4231 Y2.7829
G01 X5.4520 Y2.8267
G01 X5.4823 Y2.8755
G01 X5.5098 Y2.9218
G01 X5.5356 Y2.9702
G01 X5.5611 Y3.0197
G01 X5.5833 Y3.0670
G01 X5.6050 Y3.1177
G01 X5.6262 Y3.1710
G01 X5.6450 Y3.2213
G01 X5.6608 Y3.2703
G01 X5.6769 Y3.3253
G01 X5.6911 Y3.3774
G01 X5.7025 Y3.4280
G01 X5.7130 Y3.4823
G01 X5.7223 Y3.5392
G01 X5.7304 Y3.5941
G01 X5.7357 Y3.6449
G01 X5.7397 Y3.6994
G01 X5.7421 Y3.7542
G01 X5.7430 Y3.8100
G01 X5.7421 Y3.8648
G01 X5.7397 Y3.9196
G01 X5.7357 Y3.9741
G01 X5.7304 Y4.0249
G01 X5.7223 Y4.0798
G01 X5.7130 Y4.1367
G01 X5.7025 Y4.1910
G01 X5.6911 Y4.2416
G01 X5.6769 Y4.2937
G01 X5.6608 Y4.3487
G01 X5.6450 Y4.3977
G01 X5.6262 Y4.4480
G01 X5.6050 Y4.5013
G01 X5.5833 Y4.5520
G01 X5.5611 Y4.5993
G01 X5.5356 Y4.6488
G01 X5.5098 Y4.6972
G01 X5.4823 Y4.7435
G01 X5.4520 Y4.7923
G01 X5.4231 Y4.8361
G01 X5.3916 Y4.8801
G01 X5.3590 Y4.9231
G01 X5.3235 Y4.9669
G01 X5.2901 Y5.0064
G01 X5.2527 Y5.0461
G01 X5.2137 Y5.0867
G01 X5.1731 Y5.1257
G01 X5.1334 Y5.1631
G01 X5.0939 Y5.1965
G01 X5.0501 Y5.2320
G01 X5.0071 Y5.2646
G01 X4.9631 Y5.2961
G01 X4.9193 Y5.3250
G01 X4.8705 Y5.3553
G01 X4.8242 Y5.3828
G01 X4.7758 Y5.4086
G01 X4.7263 Y5.4341
G01 X4.6790 Y5.4563
G01 X4.6283 Y5.4780
G01 X4.5750 Y5.4992
G01 X4.5247 Y5.5180
G01 X4.4757 Y5.5338
G01 X4.4207 Y5.5499
G01 X4.3686 Y5.5641
G01 X4.3180 Y5.5755
G01 X4.2637 Y5.5860
G01 X4.2068 Y5.5953
G01 X4.1519 Y5.6034
G01 X4.1011 Y5.6087
G01 X4.0466 Y5.6127
G01 X3.9918 Y5.6151
G01 X3.9360 Y5.6160
G01 X3.8812 Y5.6151
G00 X3.8812 Y5.6151
G01 F50.00
G01 Z-0.4000
G01 F70.00
G01 X3.8264 Y5.6127
G01 X3.7719 Y5.6087
G01 X3.7211 Y5.6034
G01 X3.6662 Y5.5953
G01 X3.6093 Y5.5860
G01 X3.5550 Y5.5755
G01 X3.5044 Y5.5641
G01 X3.4523 Y5.5499
G01 X3.3973 Y5.5338
G01 X3.3483 Y5.5180
G01 X3.2980 Y5.4992
G01 X3.2447 Y5.4780
G01 X3.1940 Y5.4563
G01 X3.1467 Y5.4341
G01 X3.0972 Y5.4086
G01 X3.0488 Y5.3828
G01 X3.0025 Y5.3553
G01 X2.9537 Y5.3250
G01 X2.9099 Y5.2961
G01 X2.8659 Y5.2646
G01 X2.8229 Y5.2320
G01 X2.7791 Y5.1965
G01 X2.7396 Y5.1631
G01 X2.6999 Y5.1257
G01 X2.6593 Y5.0867
G01 X2.6203 Y5.0461
G01 X2.5829 Y5.0064
G01 X2.5495 Y4.9669
G01 X2.5140 Y4.9231
G01 X2.4814 Y4.8801
G01 X2.4499 Y4.8361
G01 X2.4210 Y4.7923
G01 X2.3907 Y4.7435
G01 X2.3632 Y4.6972
G01 X2.3374 Y4.6488
G01 X2.3119 Y4.5993
G01 X2.2897 Y4.5520
G01 X2.2680 Y4.5013
G01 X2.2468 Y4.4480
G01 X2.2280 Y4.3977
G01 X2.2122 Y4.3487
G01 X2.1961 Y4.2937
G01 X2.1819 Y4.2416
G01 X2.1705 Y4.1910
G01 X2.1600 Y4.1367
G01 X2.1507 Y4.0798
G01 X2.1426 Y4.0249
G01 X2.1373 Y3.9741
G01 X2.1333 Y3.9196
G01 X2.1309 Y3.8648
G01 X2.1300 Y3.8100
G01 X2.1309 Y3.7542
G01 X2.1333 Y3.6994
G01 X2.1373 Y3.6449
G01 X2.1426 Y3.5941
G01 X2.1507 Y3.5392
G01 X2.1600 Y3.4823
G01 X2.1705 Y3.4280
G01 X2.1819 Y3.3774
G01 X2.1961 Y3.3253
G01 X2.2122 Y3.2703
G01 X2.2280 Y3.2213
G01 X2.2468 Y3.1710
G01 X2.2680 Y3.1177
G01 X2.2897 Y3.0670
G01 X2.3119 Y3.0197
G01 X2.3374 Y2.9702
G01 X2.3632 Y2.9218
G01 X2.3907 Y2.8755
G01 X2.4210 Y2.8267
G01 X2.4499 Y2.7829
G01 X2.4814 Y2.7389
G01 X2.5140 Y2.6959
G01 X2.5495 Y2.6521
G01 X2.5829 Y2.6126
G01 X2.6203 Y2.5729
G01 X2.6593 Y2.5323
G01 X2.6999 Y2.4933
G01 X2.7396 Y2.4559
G01 X2.7791 Y2.4225
G01 X2.8229 Y2.3870
G01 X2.8659 Y2.3544
G01 X2.9099 Y2.3229
G01 X2.9537 Y2.2940
G01 X3.0025 Y2.2637
G01 X3.0488 Y2.2362
G01 X3.0972 Y2.2104
G01 X3.1467 Y2.1849
G01 X3.1940 Y2.1627
G01 X3.2447 Y2.1410
G01 X3.2980 Y2.1198
G01 X3.3483 Y2.1010
G01 X3.3973 Y2.0852
G01 X3.4523 Y2.0691
G01 X3.5044 Y2.0549
G01 X3.5550 Y2.0435
G01 X3.6093 Y2.0330
G01 X3.6662 Y2.0237
G01 X3.7211 Y2.0156
G01 X3.7719 Y2.0103
G01 X3.8264 Y2.0063
G01 X3.8812 Y2.0039
G01 X3.9360 Y2.0030
G01 X3.9918 Y2.0039
G01 X4.0466 Y2.0063
G01 X4.1011 Y2.0103
G01 X4.1519 Y2.0156
G01 X4.2068 Y2.0237
G01 X4.2637 Y2.0330
G01 X4.3180 Y2.0435
G01 X4.3686 Y2.0549
G01 X4.4207 Y2.0691
G01 X4.4757 Y2.0852
G01 X4.5247 Y2.1010
G01 X4.5750 Y2.1198
G01 X4.6283 Y2.1410
G01 X4.6790 Y2.1627
G01 X4.7263 Y2.1849
G01 X4.7758 Y2.2104
G01 X4.8242 Y2.2362
G01 X4.8705 Y2.2637
G01 X4.9193 Y2.2940
G01 X4.9631 Y2.3229
G01 X5.0071 Y2.3544
G01 X5.0501 Y2.3870
G01 X5.0939 Y2.4225
G01 X5.1334 Y2.4559
G01 X5.1731 Y2.4933
G01 X5.2137 Y2.5323
G01 X5.2527 Y2.5729
G01 X5.2901 Y2.6126
G01 X5.3235 Y2.6521
G01 X5.3590 Y2.6959
G01 X5.3916 Y2.7389
G01 X5.4231 Y2.7829
G01 X5.4520 Y2.8267
G01 X5.4823 Y2.8755
G01 X5.5098 Y2.9218
G01 X5.5356 Y2.9702
G01 X5.5611 Y3.0197
G01 X5.5833 Y3.0670
G01 X5.6050 Y3.1177
G01 X5.6262 Y3.1710
G01 X5.6450 Y3.2213
G01 X5.6608 Y3.2703
G01 X5.6769 Y3.3253
G01 X5.6911 Y3.3774
G01 X5.7025 Y3.4280
G01 X5.7130 Y3.4823
G01 X5.7223 Y3.5392
G01 X5.7304 Y3.5941
G01 X5.7357 Y3.6449
G01 X5.7397 Y3.6994
G01 X5.7421 Y3.7542
G01 X5.7430 Y3.8100
G01 X5.7421 Y3.8648
G01 X5.7397 Y3.9196
G01 X5.7357 Y3.9741
G01 X5.7304 Y4.0249
G01 X5.7223 Y4.0798
G01 X5.7130 Y4.1367
G01 X5.7025 Y4.1910
G01 X5.6911 Y4.2416
G01 X5.6769 Y4.2937
G01 X5.6608 Y4.3487
G01 X5.6450 Y4.3977
G01 X5.6262 Y4.4480
G01 X5.6050 Y4.5013
G01 X5.5833 Y4.5520
G01 X5.5611 Y4.5993
G01 X5.5356 Y4.6488
G01 X5.5098 Y4.6972
G01 X5.4823 Y4.7435
G01 X5.4520 Y4.7923
G01 X5.4231 Y4.8361
G01 X5.3916 Y4.8801
G01 X5.3590 Y4.9231
G01 X5.3235 Y4.9669
G01 X5.2901 Y5.0064
G01 X5.2527 Y5.0461
G01 X5.2137 Y5.0867
G01 X5.1731 Y5.1257
G01 X5.1334 Y5.1631
G01 X5.0939 Y5.1965
G01 X5.0501 Y5.2320
G01 X5.0071 Y5.2646
G01 X4.9631 Y5.2961
G01 X4.9193 Y5.3250
G01 X4.8705 Y5.3553
G01 X4.8242 Y5.3828
G01 X4.7758 Y5.4086
G01 X4.7263 Y5.4341
G01 X4.6790 Y5.4563
G01 X4.6283 Y5.4780
G01 X4.5750 Y5.4992
G01 X4.5247 Y5.5180
G01 X4.4757 Y5.5338
G01 X4.4207 Y5.5499
G01 X4.3686 Y5.5641
G01 X4.3180 Y5.5755
G01 X4.2637 Y5.5860
G01 X4.2068 Y5.5953
G01 X4.1519 Y5.6034
G01 X4.1011 Y5.6087
G01 X4.0466 Y5.6127
G01 X3.9918 Y5.6151
G01 X3.9360 Y5.6160
G01 X3.8812 Y5.6151
G00 X3.8812 Y5.6151
G01 F50.00
G01 Z-0.5000
G01 F70.00
G01 X3.8264 Y5.6127
G01 X3.7719 Y5.6087
G01 X3.7211 Y5.6034
G01 X3.6662 Y5.5953
G01 X3.6093 Y5.5860
G01 X3.5550 Y5.5755
G01 X3.5044 Y5.5641
G01 X3.4523 Y5.5499
G01 X3.3973 Y5.5338
G01 X3.3483 Y5.5180
G01 X3.2980 Y5.4992
G01 X3.2447 Y5.4780
G01 X3.1940 Y5.4563
G01 X3.1467 Y5.4341
G01 X3.0972 Y5.4086
G01 X3.0488 Y5.3828
G01 X3.0025 Y5.3553
G01 X2.9537 Y5.3250
G01 X2.9099 Y5.2961
G01 X2.8659 Y5.2646
G01 X2.8229 Y5.2320
G01 X2.7791 Y5.1965
G01 X2.7396 Y5.1631
G01 X2.6999 Y5.1257
G01 X2.6593 Y5.0867
G01 X2.6203 Y5.0461
G01 X2.5829 Y5.0064
G01 X2.5495 Y4.9669
G01 X2.5140 Y4.9231
G01 X2.4814 Y4.8801
G01 X2.4499 Y4.8361
G01 X2.4210 Y4.7923
G01 X2.3907 Y4.7435
G01 X2.3632 Y4.6972
G01 X2.3374 Y4.6488
G01 X2.3119 Y4.5993
G01 X2.2897 Y4.5520
G01 X2.2680 Y4.5013
G01 X2.2468 Y4.4480
G01 X2.2280 Y4.3977
G01 X2.2122 Y4.3487
G01 X2.1961 Y4.2937
G01 X2.1819 Y4.2416
G01 X2.1705 Y4.1910
G01 X2.1600 Y4.1367
G01 X2.1507 Y4.0798
G01 X2.1426 Y4.0249
G01 X2.1373 Y3.9741
G01 X2.1333 Y3.9196
G01 X2.1309 Y3.8648
G01 X2.1300 Y3.8100
G01 X2.1309 Y3.7542
G01 X2.1333 Y3.6994
G01 X2.1373 Y3.6449
G01 X2.1426 Y3.5941
G01 X2.1507 Y3.5392
G01 X2.1600 Y3.4823
G01 X2.1705 Y3.4280
G01 X2.1819 Y3.3774
G01 X2.1961 Y3.3253
G01 X2.2122 Y3.2703
G01 X2.2280 Y3.2213
G01 X2.2468 Y3.1710
G01 X2.2680 Y3.1177
G01 X2.2897 Y3.0670
G01 X2.3119 Y3.0197
G01 X2.3374 Y2.9702
G01 X2.3632 Y2.9218
G01 X2.3907 Y2.8755
G01 X2.4210 Y2.8267
G01 X2.4499 Y2.7829
G01 X2.4814 Y2.7389
G01 X2.5140 Y2.6959
G01 X2.5495 Y2.6521
G01 X2.5829 Y2.6126
G01 X2.6203 Y2.5729
G01 X2.6593 Y2.5323
G01 X2.6999 Y2.4933
G01 X2.7396 Y2.4559
G01 X2.7791 Y2.4225
G01 X2.8229 Y2.3870
G01 X2.8659 Y2.3544
G01 X2.9099 Y2.3229
G01 X2.9537 Y2.2940
G01 X3.0025 Y2.2637
G01 X3.0488 Y2.2362
G01 X3.0972 Y2.2104
G01 X3.1467 Y2.1849
G01 X3.1940 Y2.1627
G01 X3.2447 Y2.1410
G01 X3.2980 Y2.1198
G01 X3.3483 Y2.1010
G01 X3.3973 Y2.0852
G01 X3.4523 Y2.0691
G01 X3.5044 Y2.0549
G01 X3.5550 Y2.0435
G01 X3.6093 Y2.0330
G01 X3.6662 Y2.0237
G01 X3.7211 Y2.0156
G01 X3.7719 Y2.0103
G01 X3.8264 Y2.0063
G01 X3.8812 Y2.0039
G01 X3.9360 Y2.0030
G01 X3.9918 Y2.0039
G01 X4.0466 Y2.0063
G01 X4.1011 Y2.0103
G01 X4.1519 Y2.0156
G01 X4.2068 Y2.0237
G01 X4.2637 Y2.0330
G01 X4.3180 Y2.0435
G01 X4.3686 Y2.0549
G01 X4.4207 Y2.0691
G01 X4.4757 Y2.0852
G01 X4.5247 Y2.1010
G01 X4.5750 Y2.1198
G01 X4.6283 Y2.1410
G01 X4.6790 Y2.1627
G01 X4.7263 Y2.1849
G01 X4.7758 Y2.2104
G01 X4.8242 Y2.2362
G01 X4.8705 Y2.2637
G01 X4.9193 Y2.2940
G01 X4.9631 Y2.3229
G01 X5.0071 Y2.3544
G01 X5.0501 Y2.3870
G01 X5.0939 Y2.4225
G01 X5.1334 Y2.4559
G01 X5.1731 Y2.4933
G01 X5.2137 Y2.5323
G01 X5.2527 Y2.5729
G01 X5.2901 Y2.6126
G01 X5.3235 Y2.6521
G01 X5.3590 Y2.6959
G01 X5.3916 Y2.7389
G01 X5.4231 Y2.7829
G01 X5.4520 Y2.8267
G01 X5.4823 Y2.8755
G01 X5.5098 Y2.9218
G01 X5.5356 Y2.9702
G01 X5.5611 Y3.0197
G01 X5.5833 Y3.0670
G01 X5.6050 Y3.1177
G01 X5.6262 Y3.1710
G01 X5.6450 Y3.2213
G01 X5.6608 Y3.2703
G01 X5.6769 Y3.3253
G01 X5.6911 Y3.3774
G01 X5.7025 Y3.4280
G01 X5.7130 Y3.4823
G01 X5.7223 Y3.5392
G01 X5.7304 Y3.5941
G01 X5.7357 Y3.6449
G01 X5.7397 Y3.6994
G01 X5.7421 Y3.7542
G01 X5.7430 Y3.8100
G01 X5.7421 Y3.8648
G01 X5.7397 Y3.9196
G01 X5.7357 Y3.9741
G01 X5.7304 Y4.0249
G01 X5.7223 Y4.0798
G01 X5.7130 Y4.1367
G01 X5.7025 Y4.1910
G01 X5.6911 Y4.2416
G01 X5.6769 Y4.2937
G01 X5.6608 Y4.3487
G01 X5.6450 Y4.3977
G01 X5.6262 Y4.4480
G01 X5.6050 Y4.5013
G01 X5.5833 Y4.5520
G01 X5.5611 Y4.5993
G01 X5.5356 Y4.6488
G01 X5.5098 Y4.6972
G01 X5.4823 Y4.7435
G01 X5.4520 Y4.7923
G01 X5.4231 Y4.8361
G01 X5.3916 Y4.8801
G01 X5.3590 Y4.9231
G01 X5.3235 Y4.9669
G01 X5.2901 Y5.0064
G01 X5.2527 Y5.0461
G01 X5.2137 Y5.0867
G01 X5.1731 Y5.1257
G01 X5.1334 Y5.1631
G01 X5.0939 Y5.1965
G01 X5.0501 Y5.2320
G01 X5.0071 Y5.2646
G01 X4.9631 Y5.2961
G01 X4.9193 Y5.3250
G01 X4.8705 Y5.3553
G01 X4.8242 Y5.3828
G01 X4.7758 Y5.4086
G01 X4.7263 Y5.4341
G01 X4.6790 Y5.4563
G01 X4.6283 Y5.4780
G01 X4.5750 Y5.4992
G01 X4.5247 Y5.5180
G01 X4.4757 Y5.5338
G01 X4.4207 Y5.5499
G01 X4.3686 Y5.5641
G01 X4.3180 Y5.5755
G01 X4.2637 Y5.5860
G01 X4.2068 Y5.5953
G01 X4.1519 Y5.6034
G01 X4.1011 Y5.6087
G01 X4.0466 Y5.6127
G01 X3.9918 Y5.6151
G01 X3.9360 Y5.6160
G01 X3.8812 Y5.6151
G00 X3.8812 Y5.6151
G01 F50.00
G01 Z-0.5999
G01 F70.00
G01 X3.8264 Y5.6127
G01 X3.7719 Y5.6087
G01 X3.7211 Y5.6034
G01 X3.6662 Y5.5953
G01 X3.6093 Y5.5860
G01 X3.5550 Y5.5755
G01 X3.5044 Y5.5641
G01 X3.4523 Y5.5499
G01 X3.3973 Y5.5338
G01 X3.3483 Y5.5180
G01 X3.2980 Y5.4992
G01 X3.2447 Y5.4780
G01 X3.1940 Y5.4563
G01 X3.1467 Y5.4341
G01 X3.0972 Y5.4086
G01 X3.0488 Y5.3828
G01 X3.0025 Y5.3553
G01 X2.9537 Y5.3250
G01 X2.9099 Y5.2961
G01 X2.8659 Y5.2646
G01 X2.8229 Y5.2320
G01 X2.7791 Y5.1965
G01 X2.7396 Y5.1631
G01 X2.6999 Y5.1257
G01 X2.6593 Y5.0867
G01 X2.6203 Y5.0461
G01 X2.5829 Y5.0064
G01 X2.5495 Y4.9669
G01 X2.5140 Y4.9231
G01 X2.4814 Y4.8801
G01 X2.4499 Y4.8361
G01 X2.4210 Y4.7923
G01 X2.3907 Y4.7435
G01 X2.3632 Y4.6972
G01 X2.3374 Y4.6488
G01 X2.3119 Y4.5993
G01 X2.2897 Y4.5520
G01 X2.2680 Y4.5013
G01 X2.2468 Y4.4480
G01 X2.2280 Y4.3977
G01 X2.2122 Y4.3487
G01 X2.1961 Y4.2937
G01 X2.1819 Y4.2416
G01 X2.1705 Y4.1910
G01 X2.1600 Y4.1367
G01 X2.1507 Y4.0798
G01 X2.1426 Y4.0249
G01 X2.1373 Y3.9741
G01 X2.1333 Y3.9196
G01 X2.1309 Y3.8648
G01 X2.1300 Y3.8100
G01 X2.1309 Y3.7542
G01 X2.1333 Y3.6994
G01 X2.1373 Y3.6449
G01 X2.1426 Y3.5941
G01 X2.1507 Y3.5392
G01 X2.1600 Y3.4823
G01 X2.1705 Y3.4280
G01 X2.1819 Y3.3774
G01 X2.1961 Y3.3253
G01 X2.2122 Y3.2703
G01 X2.2280 Y3.2213
G01 X2.2468 Y3.1710
G01 X2.2680 Y3.1177
G01 X2.2897 Y3.0670
G01 X2.3119 Y3.0197
G01 X2.3374 Y2.9702
G01 X2.3632 Y2.9218
G01 X2.3907 Y2.8755
G01 X2.4210 Y2.8267
G01 X2.4499 Y2.7829
G01 X2.4814 Y2.7389
G01 X2.5140 Y2.6959
G01 X2.5495 Y2.6521
G01 X2.5829 Y2.6126
G01 X2.6203 Y2.5729
G01 X2.6593 Y2.5323
G01 X2.6999 Y2.4933
G01 X2.7396 Y2.4559
G01 X2.7791 Y2.4225
G01 X2.8229 Y2.3870
G01 X2.8659 Y2.3544
G01 X2.9099 Y2.3229
G01 X2.9537 Y2.2940
G01 X3.0025 Y2.2637
G01 X3.0488 Y2.2362
G01 X3.0972 Y2.2104
G01 X3.1467 Y2.1849
G01 X3.1940 Y2.1627
G01 X3.2447 Y2.1410
G01 X3.2980 Y2.1198
G01 X3.3483 Y2.1010
G01 X3.3973 Y2.0852
G01 X3.4523 Y2.0691
G01 X3.5044 Y2.0549
G01 X3.5550 Y2.0435
G01 X3.6093 Y2.0330
G01 X3.6662 Y2.0237
G01 X3.7211 Y2.0156
G01 X3.7719 Y2.0103
G01 X3.8264 Y2.0063
G01 X3.8812 Y2.0039
G01 X3.9360 Y2.0030
G01 X3.9918 Y2.0039
G01 X4.0466 Y2.0063
G01 X4.1011 Y2.0103
G01 X4.1519 Y2.0156
G01 X4.2068 Y2.0237
G01 X4.2637 Y2.0330
G01 X4.3180 Y2.0435
G01 X4.3686 Y2.0549
G01 X4.4207 Y2.0691
G01 X4.4757 Y2.0852
G01 X4.5247 Y2.1010
G01 X4.5750 Y2.1198
G01 X4.6283 Y2.1410
G01 X4.6790 Y2.1627
G01 X4.7263 Y2.1849
G01 X4.7758 Y2.2104
G01 X4.8242 Y2.2362
G01 X4.8705 Y2.2637
G01 X4.9193 Y2.2940
G01 X4.9631 Y2.3229
G01 X5.0071 Y2.3544
G01 X5.0501 Y2.3870
G01 X5.0939 Y2.4225
G01 X5.1334 Y2.4559
G01 X5.1731 Y2.4933
G01 X5.2137 Y2.5323
G01 X5.2527 Y2.5729
G01 X5.2901 Y2.6126
G01 X5.3235 Y2.6521
G01 X5.3590 Y2.6959
G01 X5.3916 Y2.7389
G01 X5.4231 Y2.7829
G01 X5.4520 Y2.8267
G01 X5.4823 Y2.8755
G01 X5.5098 Y2.9218
G01 X5.5356 Y2.9702
G01 X5.5611 Y3.0197
G01 X5.5833 Y3.0670
G01 X5.6050 Y3.1177
G01 X5.6262 Y3.1710
G01 X5.6450 Y3.2213
G01 X5.6608 Y3.2703
G01 X5.6769 Y3.3253
G01 X5.6911 Y3.3774
G01 X5.7025 Y3.4280
G01 X5.7130 Y3.4823
G01 X5.7223 Y3.5392
G01 X5.7304 Y3.5941
G01 X5.7357 Y3.6449
G01 X5.7397 Y3.6994
G01 X5.7421 Y3.7542
G01 X5.7430 Y3.8100
G01 X5.7421 Y3.8648
G01 X5.7397 Y3.9196
G01 X5.7357 Y3.9741
G01 X5.7304 Y4.0249
G01 X5.7223 Y4.0798
G01 X5.7130 Y4.1367
G01 X5.7025 Y4.1910
G01 X5.6911 Y4.2416
G01 X5.6769 Y4.2937
G01 X5.6608 Y4.3487
G01 X5.6450 Y4.3977
G01 X5.6262 Y4.4480
G01 X5.6050 Y4.5013
G01 X5.5833 Y4.5520
G01 X5.5611 Y4.5993
G01 X5.5356 Y4.6488
G01 X5.5098 Y4.6972
G01 X5.4823 Y4.7435
G01 X5.4520 Y4.7923
G01 X5.4231 Y4.8361
G01 X5.3916 Y4.8801
G01 X5.3590 Y4.9231
G01 X5.3235 Y4.9669
G01 X5.2901 Y5.0064
G01 X5.2527 Y5.0461
G01 X5.2137 Y5.0867
G01 X5.1731 Y5.1257
G01 X5.1334 Y5.1631
G01 X5.0939 Y5.1965
G01 X5.0501 Y5.2320
G01 X5.0071 Y5.2646
G01 X4.9631 Y5.2961
G01 X4.9193 Y5.3250
G01 X4.8705 Y5.3553
G01 X4.8242 Y5.3828
G01 X4.7758 Y5.4086
G01 X4.7263 Y5.4341
G01 X4.6790 Y5.4563
G01 X4.6283 Y5.4780
G01 X4.5750 Y5.4992
G01 X4.5247 Y5.5180
G01 X4.4757 Y5.5338
G01 X4.4207 Y5.5499
G01 X4.3686 Y5.5641
G01 X4.3180 Y5.5755
G01 X4.2637 Y5.5860
G01 X4.2068 Y5.5953
G01 X4.1519 Y5.6034
G01 X4.1011 Y5.6087
G01 X4.0466 Y5.6127
G01 X3.9918 Y5.6151
G01 X3.9360 Y5.6160
G01 X3.8812 Y5.6151
G00 Z2.0000
G00 X3.8783 Y5.7151
G01 F50.00
G01 Z-0.1000
G01 F70.00
G01 X3.8206 Y5.7126
G01 X3.7630 Y5.7083
G01 X3.7087 Y5.7027
G01 X3.6508 Y5.6942
G01 X3.5917 Y5.6844
G01 X3.5346 Y5.6734
G01 X3.4803 Y5.6612
G01 X3.4252 Y5.6462
G01 X3.3679 Y5.6294
G01 X3.3153 Y5.6124
G01 X3.2620 Y5.5925
G01 X3.2065 Y5.5704
G01 X3.1531 Y5.5475
G01 X3.1025 Y5.5239
G01 X3.0507 Y5.4971
G01 X2.9997 Y5.4699
G01 X2.9506 Y5.4408
G01 X2.8998 Y5.4092
G01 X2.8533 Y5.3785
G01 X2.8066 Y5.3452
G01 X2.7611 Y5.3107
G01 X2.7153 Y5.2735
G01 X2.6731 Y5.2377
G01 X2.6310 Y5.1982
G01 X2.5885 Y5.1575
G01 X2.5478 Y5.1150
G01 X2.5083 Y5.0729
G01 X2.4725 Y5.0307
G01 X2.4353 Y4.9849
G01 X2.4008 Y4.9394
G01 X2.3675 Y4.8927
G01 X2.3368 Y4.8462
G01 X2.3052 Y4.7954
G01 X2.2761 Y4.7463
G01 X2.2489 Y4.6953
G01 X2.2221 Y4.6435
G01 X2.1985 Y4.5929
G01 X2.1756 Y4.5395
G01 X2.1535 Y4.4840
G01 X2.1336 Y4.4307
G01 X2.1166 Y4.3781
G01 X2.0998 Y4.3208
G01 X2.0848 Y4.2657
G01 X2.0726 Y4.2114
G01 X2.0616 Y4.1543
G01 X2.0518 Y4.0952
G01 X2.0433 Y4.0373
G01 X2.0377 Y3.9830
G01 X2.0334 Y3.9254
G01 X2.0309 Y3.8677
G01 X2.0300 Y3.8100
G01 X2.0309 Y3.7513
G01 X2.0334 Y3.6936
G01 X2.0377 Y3.6360
G01 X2.0433 Y3.5817
G01 X2.0518 Y3.5238
G01 X2.0616 Y3.4647
G01 X2.0726 Y3.4076
G01 X2.0848 Y3.3533
G01 X2.0998 Y3.2982
G01 X2.1166 Y3.2409
G01 X2.1336 Y3.1883
G01 X2.1535 Y3.1350
G01 X2.1756 Y3.0795
G01 X2.1985 Y3.0261
G01 X2.2221 Y2.9755
G01 X2.2489 Y2.9237
G01 X2.2761 Y2.8727
G01 X2.3052 Y2.8236
G01 X2.3368 Y2.7728
G01 X2.3675 Y2.7263
G01 X2.4008 Y2.6796
G01 X2.4353 Y2.6341
G01 X2.4725 Y2.5883
G01 X2.5083 Y2.5461
G01 X2.5478 Y2.5040
G01 X2.5885 Y2.4615
G01 X2.6310 Y2.4208
G01 X2.6731 Y2.3813
G01 X2.7153 Y2.3455
G01 X2.7611 Y2.3083
G01 X2.8066 Y2.2738
G01 X2.8533 Y2.2405
G01 X2.8998 Y2.2098
G01 X2.9506 Y2.1782
G01 X2.9997 Y2.1491
G01 X3.0507 Y2.1219
G01 X3.1025 Y2.0951
G01 X3.1531 Y2.0715
G01 X3.2065 Y2.0486
G01 X3.2620 Y2.0265
G01 X3.3153 Y2.0066
G01 X3.3679 Y1.9896
G01 X3.4252 Y1.9728
G01 X3.4803 Y1.9578
G01 X3.5346 Y1.9456
G01 X3.5917 Y1.9346
G01 X3.6508 Y1.9248
G01 X3.7087 Y1.9163
G01 X3.7630 Y1.9107
G01 X3.8206 Y1.9064
G01 X3.8783 Y1.9039
G01 X3.9360 Y1.9030
G01 X3.9947 Y1.9039
G01 X4.0524 Y1.9064
G01 X4.1100 Y1.9107
G01 X4.1643 Y1.9163
G01 X4.2222 Y1.9248
G01 X4.2813 Y1.9346
G01 X4.3384 Y1.9456
G01 X4.3927 Y1.9578
G01 X4.4478 Y1.9728
G01 X4.5051 Y1.9896
G01 X4.5577 Y2.0066
G01 X4.6110 Y2.0265
G01 X4.6665 Y2.0486
G01 X4.7199 Y2.0715
G01 X4.7705 Y2.0951
G01 X4.8223 Y2.1219
G01 X4.8733 Y2.1491
G01 X4.9224 Y2.1782
G01 X4.9732 Y2.2098
G01 X5.0197 Y2.2405
G01 X5.0664 Y2.2738
G01 X5.1119 Y2.3083
G01 X5.1577 Y2.3455
G01 X5.1999 Y2.3813
G01 X5.2420 Y2.4208
G01 X5.2845 Y2.4615
G01 X5.3252 Y2.5040
G01 X5.3647 Y2.5461
G01 X5.4005 Y2.5883
G01 X5.4377 Y2.6341
G01 X5.4722 Y2.6796
G01 X5.5055 Y2.7263
G01 X5.5362 Y2.7728
G01 X5.5678 Y2.8236
G01 X5.5969 Y2.8727
G01 X5.6241 Y2.9237
G01 X5.6509 Y2.9755
G01 X5.6745 Y3.0261
G01 X5.6974 Y3.0795
G01 X5.7195 Y3.1350
G01 X5.7394 Y3.1883
G01 X5.7564 Y3.2409
G01 X5.7732 Y3.2982
G01 X5.7882 Y3.3533
G01 X5.8004 Y3.4076
G01 X5.8114 Y3.4647
G01 X5.8212 Y3.5238
G01 X5.8297 Y3.5817
G01 X5.8353 Y3.6360
G01 X5.8396 Y3.6936
G01 X5.8421 Y3.7513
G01 X5.8430 Y3.8100
G01 X5.8421 Y3.8677
G01 X5.8396 Y3.9254
G01 X5.8353 Y3.9830
G01 X5.8297 Y4.0373
G01 X5.8212 Y4.0952
G01 X5.8114 Y4.1543
G01 X5.8004 Y4.2114
G01 X5.7882 Y4.2657
G01 X5.7732 Y4.3208
G01 X5.7564 Y4.3781
G01 X5.7394 Y4.4307
G01 X5.7195 Y4.4840
G01 X5.6974 Y4.5395
G01 X5.6745 Y4.5929
G01 X5.6509 Y4.6435
G01 X5.6241 Y4.6953
G01 X5.5969 Y4.7463
G01 X5.5678 Y4.7954
G01 X5.5362 Y4.8462
G01 X5.5055 Y4.8927
G01 X5.4722 Y4.9394
G01 X5.4377 Y4.9849
G01 X5.4005 Y5.0307
G01 X5.3647 Y5.0729
G01 X5.3252 Y5.1150
G01 X5.2845 Y5.1575
G01 X5.2420 Y5.1982
G01 X5.1999 Y5.2377
G01 X5.1577 Y5.2735
G01 X5.1119 Y5.3107
G01 X5.0664 Y5.3452
G01 X5.0197 Y5.3785
G01 X4.9732 Y5.4092
G01 X4.9224 Y5.4408
G01 X4.8733 Y5.4699
G01 X4.8223 Y5.4971
G01 X4.7705 Y5.5239
G01 X4.7199 Y5.5475
G01 X4.6665 Y5.5704
G01 X4.6110 Y5.5925
G01 X4.5577 Y5.6124
G01 X4.5051 Y5.6294
G01 X4.4478 Y5.6462
G01 X4.3927 Y5.6612
G01 X4.3384 Y5.6734
G01 X4.2813 Y5.6844
G01 X4.2222 Y5.6942
G01 X4.1643 Y5.7027
G01 X4.1100 Y5.7083
G01 X4.0524 Y5.7126
G01 X3.9947 Y5.7151
G01 X3.9360 Y5.7160
G01 X3.8783 Y5.7151
G00 X3.8783 Y5.7151
G01 F50.00
G01 Z-0.2000
G01 F70.00
G01 X3.8206 Y5.7126
G01 X3.7630 Y5.7083
G01 X3.7087 Y5.7027
G01 X3.6508 Y5.6942
G01 X3.5917 Y5.6844
G01 X3.5346 Y5.6734
G01 X3.4803 Y5.6612
G01 X3.4252 Y5.6462
G01 X3.3679 Y5.6294
G01 X3.3153 Y5.6124
G01 X3.2620 Y5.5925
G01 X3.2065 Y5.5704
G01 X3.1531 Y5.5475
G01 X3.1025 Y5.5239
G01 X3.0507 Y5.4971
G01 X2.9997 Y5.4699
G01 X2.9506 Y5.4408
G01 X2.8998 Y5.4092
G01 X2.8533 Y5.3785
G01 X2.8066 Y5.3452
G01 X2.7611 Y5.3107
G01 X2.7153 Y5.2735
G01 X2.6731 Y5.2377
G01 X2.6310 Y5.1982
G01 X2.5885 Y5.1575
G01 X2.5478 Y5.1150
G01 X2.5083 Y5.0729
G01 X2.4725 Y5.0307
G01 X2.4353 Y4.9849
G01 X2.4008 Y4.9394
G01 X2.3675 Y4.8927
G01 X2.3368 Y4.8462
G01 X2.3052 Y4.7954
G01 X2.2761 Y4.7463
G01 X2.2489 Y4.6953
G01 X2.2221 Y4.6435
G01 X2.1985 Y4.5929
G01 X2.1756 Y4.5395
G01 X2.1535 Y4.4840
G01 X2.1336 Y4.4307
G01 X2.1166 Y4.3781
G01 X2.0998 Y4.3208
G01 X2.0848 Y4.2657
G01 X2.0726 Y4.2114
G01 X2.0616 Y4.1543
G01 X2.0518 Y4.0952
G01 X2.0433 Y4.0373
G01 X2.0377 Y3.9830
G01 X2.0334 Y3.9254
G01 X2.0309 Y3.8677
G01 X2.0300 Y3.8100
G01 X2.0309 Y3.7513
G01 X2.0334 Y3.6936
G01 X2.0377 Y3.6360
G01 X2.0433 Y3.5817
G01 X2.0518 Y3.5238
G01 X2.0616 Y3.4647
G01 X2.0726 Y3.4076
G01 X2.0848 Y3.3533
G01 X2.0998 Y3.2982
G01 X2.1166 Y3.2409
G01 X2.1336 Y3.1883
G01 X2.1535 Y3.1350
G01 X2.1756 Y3.0795
G01 X2.1985 Y3.0261
G01 X2.2221 Y2.9755
G01 X2.2489 Y2.9237
G01 X2.2761 Y2.8727
G01 X2.3052 Y2.8236
G01 X2.3368 Y2.7728
G01 X2.3675 Y2.7263
G01 X2.4008 Y2.6796
G01 X2.4353 Y2.6341
G01 X2.4725 Y2.5883
G01 X2.5083 Y2.5461
G01 X2.5478 Y2.5040
G01 X2.5885 Y2.4615
G01 X2.6310 Y2.4208
G01 X2.6731 Y2.3813
G01 X2.7153 Y2.3455
G01 X2.7611 Y2.3083
G01 X2.8066 Y2.2738
G01 X2.8533 Y2.2405
G01 X2.8998 Y2.2098
G01 X2.9506 Y2.1782
G01 X2.9997 Y2.1491
G01 X3.0507 Y2.1219
G01 X3.1025 Y2.0951
G01 X3.1531 Y2.0715
G01 X3.2065 Y2.0486
G01 X3.2620 Y2.0265
G01 X3.3153 Y2.0066
G01 X3.3679 Y1.9896
G01 X3.4252 Y1.9728
G01 X3.4803 Y1.9578
G01 X3.5346 Y1.9456
G01 X3.5917 Y1.9346
G01 X3.6508 Y1.9248
G01 X3.7087 Y1.9163
G01 X3.7630 Y1.9107
G01 X3.8206 Y1.9064
G01 X3.8783 Y1.9039
G01 X3.9360 Y1.9030
G01 X3.9947 Y1.9039
G01 X4.0524 Y1.9064
G01 X4.1100 Y1.9107
G01 X4.1643 Y1.9163
G01 X4.2222 Y1.9248
G01 X4.2813 Y1.9346
G01 X4.3384 Y1.9456
G01 X4.3927 Y1.9578
G01 X4.4478 Y1.9728
G01 X4.5051 Y1.9896
G01 X4.5577 Y2.0066
G01 X4.6110 Y2.0265
G01 X4.6665 Y2.0486
G01 X4.7199 Y2.0715
G01 X4.7705 Y2.0951
G01 X4.8223 Y2.1219
G01 X4.8733 Y2.1491
G01 X4.9224 Y2.1782
G01 X4.9732 Y2.2098
G01 X5.0197 Y2.2405
G01 X5.0664 Y2.2738
G01 X5.1119 Y2.3083
G01 X5.1577 Y2.3455
G01 X5.1999 Y2.3813
G01 X5.2420 Y2.4208
G01 X5.2845 Y2.4615
G01 X5.3252 Y2.5040
G01 X5.3647 Y2.5461
G01 X5.4005 Y2.5883
G01 X5.4377 Y2.6341
G01 X5.4722 Y2.6796
G01 X5.5055 Y2.7263
G01 X5.5362 Y2.7728
G01 X5.5678 Y2.8236
G01 X5.5969 Y2.8727
G01 X5.6241 Y2.9237
G01 X5.6509 Y2.9755
G01 X5.6745 Y3.0261
G01 X5.6974 Y3.0795
G01 X5.7195 Y3.1350
G01 X5.7394 Y3.1883
G01 X5.7564 Y3.2409
G01 X5.7732 Y3.2982
G01 X5.7882 Y3.3533
G01 X5.8004 Y3.4076
G01 X5.8114 Y3.4647
G01 X5.8212 Y3.5238
G01 X5.8297 Y3.5817
G01 X5.8353 Y3.6360
G01 X5.8396 Y3.6936
G01 X5.8421 Y3.7513
G01 X5.8430 Y3.8100
G01 X5.8421 Y3.8677
G01 X5.8396 Y3.9254
G01 X5.8353 Y3.9830
G01 X5.8297 Y4.0373
G01 X5.8212 Y4.0952
G01 X5.8114 Y4.1543
G01 X5.8004 Y4.2114
G01 X5.7882 Y4.2657
G01 X5.7732 Y4.3208
G01 X5.7564 Y4.3781
G01 X5.7394 Y4.4307
G01 X5.7195 Y4.4840
G01 X5.6974 Y4.5395
G01 X5.6745 Y4.5929
G01 X5.6509 Y4.6435
G01 X5.6241 Y4.6953
G01 X5.5969 Y4.7463
G01 X5.5678 Y4.7954
G01 X5.5362 Y4.8462
G01 X5.5055 Y4.8927
G01 X5.4722 Y4.9394
G01 X5.4377 Y4.9849
G01 X5.4005 Y5.0307
G01 X5.3647 Y5.0729
G01 X5.3252 Y5.1150
G01 X5.2845 Y5.1575
G01 X5.2420 Y5.1982
G01 X5.1999 Y5.2377
G01 X5.1577 Y5.2735
G01 X5.1119 Y5.3107
G01 X5.0664 Y5.3452
G01 X5.0197 Y5.3785
G01 X4.9732 Y5.4092
G01 X4.9224 Y5.4408
G01 X4.8733 Y5.4699
G01 X4.8223 Y5.4971
G01 X4.7705 Y5.5239
G01 X4.7199 Y5.5475
G01 X4.6665 Y5.5704
G01 X4.6110 Y5.5925
G01 X4.5577 Y5.6124
G01 X4.5051 Y5.6294
G01 X4.4478 Y5.6462
G01 X4.3927 Y5.6612
G01 X4.3384 Y5.6734
G01 X4.2813 Y5.6844
G01 X4.2222 Y5.6942
G01 X4.1643 Y5.7027
G01 X4.1100 Y5.7083
G01 X4.0524 Y5.7126
G01 X3.9947 Y5.7151
G01 X3.9360 Y5.7160
G01 X3.8783 Y5.7151
G00 X3.8783 Y5.7151
G01 F50.00
G01 Z-0.3000
G01 F70.00
G01 X3.8206 Y5.7126
G01 X3.7630 Y5.7083
G01 X3.7087 Y5.7027
G01 X3.6508 Y5.6942
G01 X3.5917 Y5.6844
G01 X3.5346 Y5.6734
G01 X3.4803 Y5.6612
G01 X3.4252 Y5.6462
G01 X3.3679 Y5.6294
G01 X3.3153 Y5.6124
G01 X3.2620 Y5.5925
G01 X3.2065 Y5.5704
G01 X3.1531 Y5.5475
G01 X3.1025 Y5.5239
G01 X3.0507 Y5.4971
G01 X2.9997 Y5.4699
G01 X2.9506 Y5.4408
G01 X2.8998 Y5.4092
G01 X2.8533 Y5.3785
G01 X2.8066 Y5.3452
G01 X2.7611 Y5.3107
G01 X2.7153 Y5.2735
G01 X2.6731 Y5.2377
G01 X2.6310 Y5.1982
G01 X2.5885 Y5.1575
G01 X2.5478 Y5.1150
G01 X2.5083 Y5.0729
G01 X2.4725 Y5.0307
G01 X2.4353 Y4.9849
G01 X2.4008 Y4.9394
G01 X2.3675 Y4.8927
G01 X2.3368 Y4.8462
G01 X2.3052 Y4.7954
G01 X2.2761 Y4.7463
G01 X2.2489 Y4.6953
G01 X2.2221 Y4.6435
G01 X2.1985 Y4.5929
G01 X2.1756 Y4.5395
G01 X2.1535 Y4.4840
G01 X2.1336 Y4.4307
G01 X2.1166 Y4.3781
G01 X2.0998 Y4.3208
G01 X2.0848 Y4.2657
G01 X2.0726 Y4.2114
G01 X2.0616 Y4.1543
G01 X2.0518 Y4.0952
G01 X2.0433 Y4.0373
G01 X2.0377 Y3.9830
G01 X2.0334 Y3.9254
G01 X2.0309 Y3.8677
G01 X2.0300 Y3.8100
G01 X2.0309 Y3.7513
G01 X2.0334 Y3.6936
G01 X2.0377 Y3.6360
G01 X2.0433 Y3.5817
G01 X2.0518 Y3.5238
G01 X2.0616 Y3.4647
G01 X2.0726 Y3.4076
G01 X2.0848 Y3.3533
G01 X2.0998 Y3.2982
G01 X2.1166 Y3.2409
G01 X2.1336 Y3.1883
G01 X2.1535 Y3.1350
G01 X2.1756 Y3.0795
G01 X2.1985 Y3.0261
G01 X2.2221 Y2.9755
G01 X2.2489 Y2.9237
G01 X2.2761 Y2.8727
G01 X2.3052 Y2.8236
G01 X2.3368 Y2.7728
G01 X2.3675 Y2.7263
G01 X2.4008 Y2.6796
G01 X2.4353 Y2.6341
G01 X2.4725 Y2.5883
G01 X2.5083 Y2.5461
G01 X2.5478 Y2.5040
G01 X2.5885 Y2.4615
G01 X2.6310 Y2.4208
G01 X2.6731 Y2.3813
G01 X2.7153 Y2.3455
G01 X2.7611 Y2.3083
G01 X2.8066 Y2.2738
G01 X2.8533 Y2.2405
G01 X2.8998 Y2.2098
G01 X2.9506 Y2.1782
G01 X2.9997 Y2.1491
G01 X3.0507 Y2.1219
G01 X3.1025 Y2.0951
G01 X3.1531 Y2.0715
G01 X3.2065 Y2.0486
G01 X3.2620 Y2.0265
G01 X3.3153 Y2.0066
G01 X3.3679 Y1.9896
G01 X3.4252 Y1.9728
G01 X3.4803 Y1.9578
G01 X3.5346 Y1.9456
G01 X3.5917 Y1.9346
G01 X3.6508 Y1.9248
G01 X3.7087 Y1.9163
G01 X3.7630 Y1.9107
G01 X3.8206 Y1.9064
G01 X3.8783 Y1.9039
G01 X3.9360 Y1.9030
G01 X3.9947 Y1.9039
G01 X4.0524 Y1.9064
G01 X4.1100 Y1.9107
G01 X4.1643 Y1.9163
G01 X4.2222 Y1.9248
G01 X4.2813 Y1.9346
G01 X4.3384 Y1.9456
G01 X4.3927 Y1.9578
G01 X4.4478 Y1.9728
G01 X4.5051 Y1.9896
G01 X4.5577 Y2.0066
G01 X4.6110 Y2.0265
G01 X4.6665 Y2.0486
G01 X4.7199 Y2.0715
G01 X4.7705 Y2.0951
G01 X4.8223 Y2.1219
G01 X4.8733 Y2.1491
G01 X4.9224 Y2.1782
G01 X4.9732 Y2.2098
G01 X5.0197 Y2.2405
G01 X5.0664 Y2.2738
G01 X5.1119 Y2.3083
G01 X5.1577 Y2.3455
G01 X5.1999 Y2.3813
G01 X5.2420 Y2.4208
G01 X5.2845 Y2.4615
G01 X5.3252 Y2.5040
G01 X5.3647 Y2.5461
G01 X5.4005 Y2.5883
G01 X5.4377 Y2.6341
G01 X5.4722 Y2.6796
G01 X5.5055 Y2.7263
G01 X5.5362 Y2.7728
G01 X5.5678 Y2.8236
G01 X5.5969 Y2.8727
G01 X5.6241 Y2.9237
G01 X5.6509 Y2.9755
G01 X5.6745 Y3.0261
G01 X5.6974 Y3.0795
G01 X5.7195 Y3.1350
G01 X5.7394 Y3.1883
G01 X5.7564 Y3.2409
G01 X5.7732 Y3.2982
G01 X5.7882 Y3.3533
G01 X5.8004 Y3.4076
G01 X5.8114 Y3.4647
G01 X5.8212 Y3.5238
G01 X5.8297 Y3.5817
G01 X5.8353 Y3.6360
G01 X5.8396 Y3.6936
G01 X5.8421 Y3.7513
G01 X5.8430 Y3.8100
G01 X5.8421 Y3.8677
G01 X5.8396 Y3.9254
G01 X5.8353 Y3.9830
G01 X5.8297 Y4.0373
G01 X5.8212 Y4.0952
G01 X5.8114 Y4.1543
G01 X5.8004 Y4.2114
G01 X5.7882 Y4.2657
G01 X5.7732 Y4.3208
G01 X5.7564 Y4.3781
G01 X5.7394 Y4.4307
G01 X5.7195 Y4.4840
G01 X5.6974 Y4.5395
G01 X5.6745 Y4.5929
G01 X5.6509 Y4.6435
G01 X5.6241 Y4.6953
G01 X5.5969 Y4.7463
G01 X5.5678 Y4.7954
G01 X5.5362 Y4.8462
G01 X5.5055 Y4.8927
G01 X5.4722 Y4.9394
G01 X5.4377 Y4.9849
G01 X5.4005 Y5.0307
G01 X5.3647 Y5.0729
G01 X5.3252 Y5.1150
G01 X5.2845 Y5.1575
G01 X5.2420 Y5.1982
G01 X5.1999 Y5.2377
G01 X5.1577 Y5.2735
G01 X5.1119 Y5.3107
G01 X5.0664 Y5.3452
G01 X5.0197 Y5.3785
G01 X4.9732 Y5.4092
G01 X4.9224 Y5.4408
G01 X4.8733 Y5.4699
G01 X4.8223 Y5.4971
G01 X4.7705 Y5.5239
G01 X4.7199 Y5.5475
G01 X4.6665 Y5.5704
G01 X4.6110 Y5.5925
G01 X4.5577 Y5.6124
G01 X4.5051 Y5.6294
G01 X4.4478 Y5.6462
G01 X4.3927 Y5.6612
G01 X4.3384 Y5.6734
G01 X4.2813 Y5.6844
G01 X4.2222 Y5.6942
G01 X4.1643 Y5.7027
G01 X4.1100 Y5.7083
G01 X4.0524 Y5.7126
G01 X3.9947 Y5.7151
G01 X3.9360 Y5.7160
G01 X3.8783 Y5.7151
G00 X3.8783 Y5.7151
G01 F50.00
G01 Z-0.4000
G01 F70.00
G01 X3.8206 Y5.7126
G01 X3.7630 Y5.7083
G01 X3.7087 Y5.7027
G01 X3.6508 Y5.6942
G01 X3.5917 Y5.6844
G01 X3.5346 Y5.6734
G01 X3.4803 Y5.6612
G01 X3.4252 Y5.6462
G01 X3.3679 Y5.6294
G01 X3.3153 Y5.6124
G01 X3.2620 Y5.5925
G01 X3.2065 Y5.5704
G01 X3.1531 Y5.5475
G01 X3.1025 Y5.5239
G01 X3.0507 Y5.4971
G01 X2.9997 Y5.4699
G01 X2.9506 Y5.4408
G01 X2.8998 Y5.4092
G01 X2.8533 Y5.3785
G01 X2.8066 Y5.3452
G01 X2.7611 Y5.3107
G01 X2.7153 Y5.2735
G01 X2.6731 Y5.2377
G01 X2.6310 Y5.1982
G01 X2.5885 Y5.1575
G01 X2.5478 Y5.1150
G01 X2.5083 Y5.0729
G01 X2.4725 Y5.0307
G01 X2.4353 Y4.9849
G01 X2.4008 Y4.9394
G01 X2.3675 Y4.8927
G01 X2.3368 Y4.8462
G01 X2.3052 Y4.7954
G01 X2.2761 Y4.7463
G01 X2.2489 Y4.6953
G01 X2.2221 Y4.6435
G01 X2.1985 Y4.5929
G01 X2.1756 Y4.5395
G01 X2.1535 Y4.4840
G01 X2.1336 Y4.4307
G01 X2.1166 Y4.3781
G01 X2.0998 Y4.3208
G01 X2.0848 Y4.2657
G01 X2.0726 Y4.2114
G01 X2.0616 Y4.1543
G01 X2.0518 Y4.0952
G01 X2.0433 Y4.0373
G01 X2.0377 Y3.9830
G01 X2.0334 Y3.9254
G01 X2.0309 Y3.8677
G01 X2.0300 Y3.8100
G01 X2.0309 Y3.7513
G01 X2.0334 Y3.6936
G01 X2.0377 Y3.6360
G01 X2.0433 Y3.5817
G01 X2.0518 Y3.5238
G01 X2.0616 Y3.4647
G01 X2.0726 Y3.4076
G01 X2.0848 Y3.3533
G01 X2.0998 Y3.2982
G01 X2.1166 Y3.2409
G01 X2.1336 Y3.1883
G01 X2.1535 Y3.1350
G01 X2.1756 Y3.0795
G01 X2.1985 Y3.0261
G01 X2.2221 Y2.9755
G01 X2.2489 Y2.9237
G01 X2.2761 Y2.8727
G01 X2.3052 Y2.8236
G01 X2.3368 Y2.7728
G01 X2.3675 Y2.7263
G01 X2.4008 Y2.6796
G01 X2.4353 Y2.6341
G01 X2.4725 Y2.5883
G01 X2.5083 Y2.5461
G01 X2.5478 Y2.5040
G01 X2.5885 Y2.4615
G01 X2.6310 Y2.4208
G01 X2.6731 Y2.3813
G01 X2.7153 Y2.3455
G01 X2.7611 Y2.3083
G01 X2.8066 Y2.2738
G01 X2.8533 Y2.2405
G01 X2.8998 Y2.2098
G01 X2.9506 Y2.1782
G01 X2.9997 Y2.1491
G01 X3.0507 Y2.1219
G01 X3.1025 Y2.0951
G01 X3.1531 Y2.0715
G01 X3.2065 Y2.0486
G01 X3.2620 Y2.0265
G01 X3.3153 Y2.0066
G01 X3.3679 Y1.9896
G01 X3.4252 Y1.9728
G01 X3.4803 Y1.9578
G01 X3.5346 Y1.9456
G01 X3.5917 Y1.9346
G01 X3.6508 Y1.9248
G01 X3.7087 Y1.9163
G01 X3.7630 Y1.9107
G01 X3.8206 Y1.9064
G01 X3.8783 Y1.9039
G01 X3.9360 Y1.9030
G01 X3.9947 Y1.9039
G01 X4.0524 Y1.9064
G01 X4.1100 Y1.9107
G01 X4.1643 Y1.9163
G01 X4.2222 Y1.9248
G01 X4.2813 Y1.9346
G01 X4.3384 Y1.9456
G01 X4.3927 Y1.9578
G01 X4.4478 Y1.9728
G01 X4.5051 Y1.9896
G01 X4.5577 Y2.0066
G01 X4.6110 Y2.0265
G01 X4.6665 Y2.0486
G01 X4.7199 Y2.0715
G01 X4.7705 Y2.0951
G01 X4.8223 Y2.1219
G01 X4.8733 Y2.1491
G01 X4.9224 Y2.1782
G01 X4.9732 Y2.2098
G01 X5.0197 Y2.2405
G01 X5.0664 Y2.2738
G01 X5.1119 Y2.3083
G01 X5.1577 Y2.3455
G01 X5.1999 Y2.3813
G01 X5.2420 Y2.4208
G01 X5.2845 Y2.4615
G01 X5.3252 Y2.5040
G01 X5.3647 Y2.5461
G01 X5.4005 Y2.5883
G01 X5.4377 Y2.6341
G01 X5.4722 Y2.6796
G01 X5.5055 Y2.7263
G01 X5.5362 Y2.7728
G01 X5.5678 Y2.8236
G01 X5.5969 Y2.8727
G01 X5.6241 Y2.9237
G01 X5.6509 Y2.9755
G01 X5.6745 Y3.0261
G01 X5.6974 Y3.0795
G01 X5.7195 Y3.1350
G01 X5.7394 Y3.1883
G01 X5.7564 Y3.2409
G01 X5.7732 Y3.2982
G01 X5.7882 Y3.3533
G01 X5.8004 Y3.4076
G01 X5.8114 Y3.4647
G01 X5.8212 Y3.5238
G01 X5.8297 Y3.5817
G01 X5.8353 Y3.6360
G01 X5.8396 Y3.6936
G01 X5.8421 Y3.7513
G01 X5.8430 Y3.8100
G01 X5.8421 Y3.8677
G01 X5.8396 Y3.9254
G01 X5.8353 Y3.9830
G01 X5.8297 Y4.0373
G01 X5.8212 Y4.0952
G01 X5.8114 Y4.1543
G01 X5.8004 Y4.2114
G01 X5.7882 Y4.2657
G01 X5.7732 Y4.3208
G01 X5.7564 Y4.3781
G01 X5.7394 Y4.4307
G01 X5.7195 Y4.4840
G01 X5.6974 Y4.5395
G01 X5.6745 Y4.5929
G01 X5.6509 Y4.6435
G01 X5.6241 Y4.6953
G01 X5.5969 Y4.7463
G01 X5.5678 Y4.7954
G01 X5.5362 Y4.8462
G01 X5.5055 Y4.8927
G01 X5.4722 Y4.9394
G01 X5.4377 Y4.9849
G01 X5.4005 Y5.0307
G01 X5.3647 Y5.0729
G01 X5.3252 Y5.1150
G01 X5.2845 Y5.1575
G01 X5.2420 Y5.1982
G01 X5.1999 Y5.2377
G01 X5.1577 Y5.2735
G01 X5.1119 Y5.3107
G01 X5.0664 Y5.3452
G01 X5.0197 Y5.3785
G01 X4.9732 Y5.4092
G01 X4.9224 Y5.4408
G01 X4.8733 Y5.4699
G01 X4.8223 Y5.4971
G01 X4.7705 Y5.5239
G01 X4.7199 Y5.5475
G01 X4.6665 Y5.5704
G01 X4.6110 Y5.5925
G01 X4.5577 Y5.6124
G01 X4.5051 Y5.6294
G01 X4.4478 Y5.6462
G01 X4.3927 Y5.6612
G01 X4.3384 Y5.6734
G01 X4.2813 Y5.6844
G01 X4.2222 Y5.6942
G01 X4.1643 Y5.7027
G01 X4.1100 Y5.7083
G01 X4.0524 Y5.7126
G01 X3.9947 Y5.7151
G01 X3.9360 Y5.7160
G01 X3.8783 Y5.7151
G00 X3.8783 Y5.7151
G01 F50.00
G01 Z-0.5000
G01 F70.00
G01 X3.8206 Y5.7126
G01 X3.7630 Y5.7083
G01 X3.7087 Y5.7027
G01 X3.6508 Y5.6942
G01 X3.5917 Y5.6844
G01 X3.5346 Y5.6734
G01 X3.4803 Y5.6612
G01 X3.4252 Y5.6462
G01 X3.3679 Y5.6294
G01 X3.3153 Y5.6124
G01 X3.2620 Y5.5925
G01 X3.2065 Y5.5704
G01 X3.1531 Y5.5475
G01 X3.1025 Y5.5239
G01 X3.0507 Y5.4971
G01 X2.9997 Y5.4699
G01 X2.9506 Y5.4408
G01 X2.8998 Y5.4092
G01 X2.8533 Y5.3785
G01 X2.8066 Y5.3452
G01 X2.7611 Y5.3107
G01 X2.7153 Y5.2735
G01 X2.6731 Y5.2377
G01 X2.6310 Y5.1982
G01 X2.5885 Y5.1575
G01 X2.5478 Y5.1150
G01 X2.5083 Y5.0729
G01 X2.4725 Y5.0307
G01 X2.4353 Y4.9849
G01 X2.4008 Y4.9394
G01 X2.3675 Y4.8927
G01 X2.3368 Y4.8462
G01 X2.3052 Y4.7954
G01 X2.2761 Y4.7463
G01 X2.2489 Y4.6953
G01 X2.2221 Y4.6435
G01 X2.1985 Y4.5929
G01 X2.1756 Y4.5395
G01 X2.1535 Y4.4840
G01 X2.1336 Y4.4307
G01 X2.1166 Y4.3781
G01 X2.0998 Y4.3208
G01 X2.0848 Y4.2657
G01 X2.0726 Y4.2114
G01 X2.0616 Y4.1543
G01 X2.0518 Y4.0952
G01 X2.0433 Y4.0373
G01 X2.0377 Y3.9830
G01 X2.0334 Y3.9254
G01 X2.0309 Y3.8677
G01 X2.0300 Y3.8100
G01 X2.0309 Y3.7513
G01 X2.0334 Y3.6936
G01 X2.0377 Y3.6360
G01 X2.0433 Y3.5817
G01 X2.0518 Y3.5238
G01 X2.0616 Y3.4647
G01 X2.0726 Y3.4076
G01 X2.0848 Y3.3533
G01 X2.0998 Y3.2982
G01 X2.1166 Y3.2409
G01 X2.1336 Y3.1883
G01 X2.1535 Y3.1350
G01 X2.1756 Y3.0795
G01 X2.1985 Y3.0261
G01 X2.2221 Y2.9755
G01 X2.2489 Y2.9237
G01 X2.2761 Y2.8727
G01 X2.3052 Y2.8236
G01 X2.3368 Y2.7728
G01 X2.3675 Y2.7263
G01 X2.4008 Y2.6796
G01 X2.4353 Y2.6341
G01 X2.4725 Y2.5883
G01 X2.5083 Y2.5461
G01 X2.5478 Y2.5040
G01 X2.5885 Y2.4615
G01 X2.6310 Y2.4208
G01 X2.6731 Y2.3813
G01 X2.7153 Y2.3455
G01 X2.7611 Y2.3083
G01 X2.8066 Y2.2738
G01 X2.8533 Y2.2405
G01 X2.8998 Y2.2098
G01 X2.9506 Y2.1782
G01 X2.9997 Y2.1491
G01 X3.0507 Y2.1219
G01 X3.1025 Y2.0951
G01 X3.1531 Y2.0715
G01 X3.2065 Y2.0486
G01 X3.2620 Y2.0265
G01 X3.3153 Y2.0066
G01 X3.3679 Y1.9896
G01 X3.4252 Y1.9728
G01 X3.4803 Y1.9578
G01 X3.5346 Y1.9456
G01 X3.5917 Y1.9346
G01 X3.6508 Y1.9248
G01 X3.7087 Y1.9163
G01 X3.7630 Y1.9107
G01 X3.8206 Y1.9064
G01 X3.8783 Y1.9039
G01 X3.9360 Y1.9030
G01 X3.9947 Y1.9039
G01 X4.0524 Y1.9064
G01 X4.1100 Y1.9107
G01 X4.1643 Y1.9163
G01 X4.2222 Y1.9248
G01 X4.2813 Y1.9346
G01 X4.3384 Y1.9456
G01 X4.3927 Y1.9578
G01 X4.4478 Y1.9728
G01 X4.5051 Y1.9896
G01 X4.5577 Y2.0066
G01 X4.6110 Y2.0265
G01 X4.6665 Y2.0486
G01 X4.7199 Y2.0715
G01 X4.7705 Y2.0951
G01 X4.8223 Y2.1219
G01 X4.8733 Y2.1491
G01 X4.9224 Y2.1782
G01 X4.9732 Y2.2098
G01 X5.0197 Y2.2405
G01 X5.0664 Y2.2738
G01 X5.1119 Y2.3083
G01 X5.1577 Y2.3455
G01 X5.1999 Y2.3813
G01 X5.2420 Y2.4208
G01 X5.2845 Y2.4615
G01 X5.3252 Y2.5040
G01 X5.3647 Y2.5461
G01 X5.4005 Y2.5883
G01 X5.4377 Y2.6341
G01 X5.4722 Y2.6796
G01 X5.5055 Y2.7263
G01 X5.5362 Y2.7728
G01 X5.5678 Y2.8236
G01 X5.5969 Y2.8727
G01 X5.6241 Y2.9237
G01 X5.6509 Y2.9755
G01 X5.6745 Y3.0261
G01 X5.6974 Y3.0795
G01 X5.7195 Y3.1350
G01 X5.7394 Y3.1883
G01 X5.7564 Y3.2409
G01 X5.7732 Y3.2982
G01 X5.7882 Y3.3533
G01 X5.8004 Y3.4076
G01 X5.8114 Y3.4647
G01 X5.8212 Y3.5238
G01 X5.8297 Y3.5817
G01 X5.8353 Y3.6360
G01 X5.8396 Y3.6936
G01 X5.8421 Y3.7513
G01 X5.8430 Y3.8100
G01 X5.8421 Y3.8677
G01 X5.8396 Y3.9254
G01 X5.8353 Y3.9830
G01 X5.8297 Y4.0373
G01 X5.8212 Y4.0952
G01 X5.8114 Y4.1543
G01 X5.8004 Y4.2114
G01 X5.7882 Y4.2657
G01 X5.7732 Y4.3208
G01 X5.7564 Y4.3781
G01 X5.7394 Y4.4307
G01 X5.7195 Y4.4840
G01 X5.6974 Y4.5395
G01 X5.6745 Y4.5929
G01 X5.6509 Y4.6435
G01 X5.6241 Y4.6953
G01 X5.5969 Y4.7463
G01 X5.5678 Y4.7954
G01 X5.5362 Y4.8462
G01 X5.5055 Y4.8927
G01 X5.4722 Y4.9394
G01 X5.4377 Y4.9849
G01 X5.4005 Y5.0307
G01 X5.3647 Y5.0729
G01 X5.3252 Y5.1150
G01 X5.2845 Y5.1575
G01 X5.2420 Y5.1982
G01 X5.1999 Y5.2377
G01 X5.1577 Y5.2735
G01 X5.1119 Y5.3107
G01 X5.0664 Y5.3452
G01 X5.0197 Y5.3785
G01 X4.9732 Y5.4092
G01 X4.9224 Y5.4408
G01 X4.8733 Y5.4699
G01 X4.8223 Y5.4971
G01 X4.7705 Y5.5239
G01 X4.7199 Y5.5475
G01 X4.6665 Y5.5704
G01 X4.6110 Y5.5925
G01 X4.5577 Y5.6124
G01 X4.5051 Y5.6294
G01 X4.4478 Y5.6462
G01 X4.3927 Y5.6612
G01 X4.3384 Y5.6734
G01 X4.2813 Y5.6844
G01 X4.2222 Y5.6942
G01 X4.1643 Y5.7027
G01 X4.1100 Y5.7083
G01 X4.0524 Y5.7126
G01 X3.9947 Y5.7151
G01 X3.9360 Y5.7160
G01 X3.8783 Y5.7151
G00 X3.8783 Y5.7151
G01 F50.00
G01 Z-0.5999
G01 F70.00
G01 X3.8206 Y5.7126
G01 X3.7630 Y5.7083
G01 X3.7087 Y5.7027
G01 X3.6508 Y5.6942
G01 X3.5917 Y5.6844
G01 X3.5346 Y5.6734
G01 X3.4803 Y5.6612
G01 X3.4252 Y5.6462
G01 X3.3679 Y5.6294
G01 X3.3153 Y5.6124
G01 X3.2620 Y5.5925
G01 X3.2065 Y5.5704
G01 X3.1531 Y5.5475
G01 X3.1025 Y5.5239
G01 X3.0507 Y5.4971
G01 X2.9997 Y5.4699
G01 X2.9506 Y5.4408
G01 X2.8998 Y5.4092
G01 X2.8533 Y5.3785
G01 X2.8066 Y5.3452
G01 X2.7611 Y5.3107
G01 X2.7153 Y5.2735
G01 X2.6731 Y5.2377
G01 X2.6310 Y5.1982
G01 X2.5885 Y5.1575
G01 X2.5478 Y5.1150
G01 X2.5083 Y5.0729
G01 X2.4725 Y5.0307
G01 X2.4353 Y4.9849
G01 X2.4008 Y4.9394
G01 X2.3675 Y4.8927
G01 X2.3368 Y4.8462
G01 X2.3052 Y4.7954
G01 X2.2761 Y4.7463
G01 X2.2489 Y4.6953
G01 X2.2221 Y4.6435
G01 X2.1985 Y4.5929
G01 X2.1756 Y4.5395
G01 X2.1535 Y4.4840
G01 X2.1336 Y4.4307
G01 X2.1166 Y4.3781
G01 X2.0998 Y4.3208
G01 X2.0848 Y4.2657
G01 X2.0726 Y4.2114
G01 X2.0616 Y4.1543
G01 X2.0518 Y4.0952
G01 X2.0433 Y4.0373
G01 X2.0377 Y3.9830
G01 X2.0334 Y3.9254
G01 X2.0309 Y3.8677
G01 X2.0300 Y3.8100
G01 X2.0309 Y3.7513
G01 X2.0334 Y3.6936
G01 X2.0377 Y3.6360
G01 X2.0433 Y3.5817
G01 X2.0518 Y3.5238
G01 X2.0616 Y3.4647
G01 X2.0726 Y3.4076
G01 X2.0848 Y3.3533
G01 X2.0998 Y3.2982
G01 X2.1166 Y3.2409
G01 X2.1336 Y3.1883
G01 X2.1535 Y3.1350
G01 X2.1756 Y3.0795
G01 X2.1985 Y3.0261
G01 X2.2221 Y2.9755
G01 X2.2489 Y2.9237
G01 X2.2761 Y2.8727
G01 X2.3052 Y2.8236
G01 X2.3368 Y2.7728
G01 X2.3675 Y2.7263
G01 X2.4008 Y2.6796
G01 X2.4353 Y2.6341
G01 X2.4725 Y2.5883
G01 X2.5083 Y2.5461
G01 X2.5478 Y2.5040
G01 X2.5885 Y2.4615
G01 X2.6310 Y2.4208
G01 X2.6731 Y2.3813
G01 X2.7153 Y2.3455
G01 X2.7611 Y2.3083
G01 X2.8066 Y2.2738
G01 X2.8533 Y2.2405
G01 X2.8998 Y2.2098
G01 X2.9506 Y2.1782
G01 X2.9997 Y2.1491
G01 X3.0507 Y2.1219
G01 X3.1025 Y2.0951
G01 X3.1531 Y2.0715
G01 X3.2065 Y2.0486
G01 X3.2620 Y2.0265
G01 X3.3153 Y2.0066
G01 X3.3679 Y1.9896
G01 X3.4252 Y1.9728
G01 X3.4803 Y1.9578
G01 X3.5346 Y1.9456
G01 X3.5917 Y1.9346
G01 X3.6508 Y1.9248
G01 X3.7087 Y1.9163
G01 X3.7630 Y1.9107
G01 X3.8206 Y1.9064
G01 X3.8783 Y1.9039
G01 X3.9360 Y1.9030
G01 X3.9947 Y1.9039
G01 X4.0524 Y1.9064
G01 X4.1100 Y1.9107
G01 X4.1643 Y1.9163
G01 X4.2222 Y1.9248
G01 X4.2813 Y1.9346
G01 X4.3384 Y1.9456
G01 X4.3927 Y1.9578
G01 X4.4478 Y1.9728
G01 X4.5051 Y1.9896
G01 X4.5577 Y2.0066
G01 X4.6110 Y2.0265
G01 X4.6665 Y2.0486
G01 X4.7199 Y2.0715
G01 X4.7705 Y2.0951
G01 X4.8223 Y2.1219
G01 X4.8733 Y2.1491
G01 X4.9224 Y2.1782
G01 X4.9732 Y2.2098
G01 X5.0197 Y2.2405
G01 X5.0664 Y2.2738
G01 X5.1119 Y2.3083
G01 X5.1577 Y2.3455
G01 X5.1999 Y2.3813
G01 X5.2420 Y2.4208
G01 X5.2845 Y2.4615
G01 X5.3252 Y2.5040
G01 X5.3647 Y2.5461
G01 X5.4005 Y2.5883
G01 X5.4377 Y2.6341
G01 X5.4722 Y2.6796
G01 X5.5055 Y2.7263
G01 X5.5362 Y2.7728
G01 X5.5678 Y2.8236
G01 X5.5969 Y2.8727
G01 X5.6241 Y2.9237
G01 X5.6509 Y2.9755
G01 X5.6745 Y3.0261
G01 X5.6974 Y3.0795
G01 X5.7195 Y3.1350
G01 X5.7394 Y3.1883
G01 X5.7564 Y3.2409
G01 X5.7732 Y3.2982
G01 X5.7882 Y3.3533
G01 X5.8004 Y3.4076
G01 X5.8114 Y3.4647
G01 X5.8212 Y3.5238
G01 X5.8297 Y3.5817
G01 X5.8353 Y3.6360
G01 X5.8396 Y3.6936
G01 X5.8421 Y3.7513
G01 X5.8430 Y3.8100
G01 X5.8421 Y3.8677
G01 X5.8396 Y3.9254
G01 X5.8353 Y3.9830
G01 X5.8297 Y4.0373
G01 X5.8212 Y4.0952
G01 X5.8114 Y4.1543
G01 X5.8004 Y4.2114
G01 X5.7882 Y4.2657
G01 X5.7732 Y4.3208
G01 X5.7564 Y4.3781
G01 X5.7394 Y4.4307
G01 X5.7195 Y4.4840
G01 X5.6974 Y4.5395
G01 X5.6745 Y4.5929
G01 X5.6509 Y4.6435
G01 X5.6241 Y4.6953
G01 X5.5969 Y4.7463
G01 X5.5678 Y4.7954
G01 X5.5362 Y4.8462
G01 X5.5055 Y4.8927
G01 X5.4722 Y4.9394
G01 X5.4377 Y4.9849
G01 X5.4005 Y5.0307
G01 X5.3647 Y5.0729
G01 X5.3252 Y5.1150
G01 X5.2845 Y5.1575
G01 X5.2420 Y5.1982
G01 X5.1999 Y5.2377
G01 X5.1577 Y5.2735
G01 X5.1119 Y5.3107
G01 X5.0664 Y5.3452
G01 X5.0197 Y5.3785
G01 X4.9732 Y5.4092
G01 X4.9224 Y5.4408
G01 X4.8733 Y5.4699
G01 X4.8223 Y5.4971
G01 X4.7705 Y5.5239
G01 X4.7199 Y5.5475
G01 X4.6665 Y5.5704
G01 X4.6110 Y5.5925
G01 X4.5577 Y5.6124
G01 X4.5051 Y5.6294
G01 X4.4478 Y5.6462
G01 X4.3927 Y5.6612
G01 X4.3384 Y5.6734
G01 X4.2813 Y5.6844
G01 X4.2222 Y5.6942
G01 X4.1643 Y5.7027
G01 X4.1100 Y5.7083
G01 X4.0524 Y5.7126
G01 X3.9947 Y5.7151
G01 X3.9360 Y5.7160
G01 X3.8783 Y5.7151
G00 Z2.0000
G00 X3.8753 Y5.8151
G01 F50.00
G01 Z-0.1000
G01 F70.00
G01 X3.8147 Y5.8124
G01 X3.7542 Y5.8080
G01 X3.6962 Y5.8019
G01 X3.6354 Y5.7930
G01 X3.5741 Y5.7829
G01 X3.5141 Y5.7713
G01 X3.4562 Y5.7583
G01 X3.3980 Y5.7424
G01 X3.3385 Y5.7250
G01 X3.2824 Y5.7069
G01 X3.2260 Y5.6858
G01 X3.1684 Y5.6629
G01 X3.1122 Y5.6388
G01 X3.0584 Y5.6136
G01 X3.0042 Y5.5856
G01 X2.9507 Y5.5571
G01 X2.8987 Y5.5263
G01 X2.8459 Y5.4935
G01 X2.7966 Y5.4609
G01 X2.7473 Y5.4257
G01 X2.6994 Y5.3893
G01 X2.6515 Y5.3505
G01 X2.6065 Y5.3124
G01 X2.5621 Y5.2707
G01 X2.5178 Y5.2282
G01 X2.4753 Y5.1839
G01 X2.4336 Y5.1395
G01 X2.3955 Y5.0945
G01 X2.3567 Y5.0466
G01 X2.3203 Y4.9987
G01 X2.2851 Y4.9494
G01 X2.2525 Y4.9001
G01 X2.2197 Y4.8473
G01 X2.1889 Y4.7953
G01 X2.1604 Y4.7418
G01 X2.1324 Y4.6876
G01 X2.1072 Y4.6338
G01 X2.0831 Y4.5776
G01 X2.0602 Y4.5200
G01 X2.0391 Y4.4636
G01 X2.0210 Y4.4075
G01 X2.0036 Y4.3480
G01 X1.9877 Y4.2898
G01 X1.9747 Y4.2319
G01 X1.9631 Y4.1719
G01 X1.9530 Y4.1106
G01 X1.9441 Y4.0498
G01 X1.9380 Y3.9918
G01 X1.9336 Y3.9313
G01 X1.9309 Y3.8707
G01 X1.9300 Y3.8100
G01 X1.9309 Y3.7483
G01 X1.9336 Y3.6877
G01 X1.9380 Y3.6272
G01 X1.9441 Y3.5692
G01 X1.9530 Y3.5084
G01 X1.9631 Y3.4471
G01 X1.9747 Y3.3871
G01 X1.9877 Y3.3292
G01 X2.0036 Y3.2710
G01 X2.0210 Y3.2115
G01 X2.0391 Y3.1554
G01 X2.0602 Y3.0990
G01 X2.0831 Y3.0414
G01 X2.1072 Y2.9852
G01 X2.1324 Y2.9314
G01 X2.1604 Y2.8772
G01 X2.1889 Y2.8237
G01 X2.2197 Y2.7717
G01 X2.2525 Y2.7189
G01 X2.2851 Y2.6696
G01 X2.3203 Y2.6203
G01 X2.3567 Y2.5724
G01 X2.3955 Y2.5245
G01 X2.4336 Y2.4795
G01 X2.4753 Y2.4351
G01 X2.5178 Y2.3908
G01 X2.5621 Y2.3483
G01 X2.6065 Y2.3066
G01 X2.6515 Y2.2685
G01 X2.6994 Y2.2297
G01 X2.7473 Y2.1933
G01 X2.7966 Y2.1581
G01 X2.8459 Y2.1255
G01 X2.8987 Y2.0927
G01 X2.9507 Y2.0619
G01 X3.0042 Y2.0334
G01 X3.0584 Y2.0054
G01 X3.1122 Y1.9802
G01 X3.1684 Y1.9561
G01 X3.2260 Y1.9332
G01 X3.2824 Y1.9121
G01 X3.3385 Y1.8940
G01 X3.3980 Y1.8766
G01 X3.4562 Y1.8607
G01 X3.5141 Y1.8477
G01 X3.5741 Y1.8361
G01 X3.6354 Y1.8260
G01 X3.6962 Y1.8171
G01 X3.7542 Y1.8110
G01 X3.8147 Y1.8066
G01 X3.8753 Y1.8039
G01 X3.9360 Y1.8030
G01 X3.9977 Y1.8039
G01 X4.0583 Y1.8066
G01 X4.1188 Y1.8110
G01 X4.1768 Y1.8171
G01 X4.2376 Y1.8260
G01 X4.2989 Y1.8361
G01 X4.3589 Y1.8477
G01 X4.4168 Y1.8607
G01 X4.4750 Y1.8766
G01 X4.5345 Y1.8940
G01 X4.5906 Y1.9121
G01 X4.6470 Y1.9332
G01 X4.7046 Y1.9561
G01 X4.7608 Y1.9802
G01 X4.8146 Y2.0054
G01 X4.8688 Y2.0334
G01 X4.9223 Y2.0619
G01 X4.9743 Y2.0927
G01 X5.0271 Y2.1255
G01 X5.0764 Y2.1581
G01 X5.1257 Y2.1933
G01 X5.1736 Y2.2297
G01 X5.2215 Y2.2685
G01 X5.2665 Y2.3066
G01 X5.3109 Y2.3483
G01 X5.3552 Y2.3908
G01 X5.3977 Y2.4351
G01 X5.4394 Y2.4795
G01 X5.4775 Y2.5245
G01 X5.5163 Y2.5724
G01 X5.5527 Y2.6203
G01 X5.5879 Y2.6696
G01 X5.6205 Y2.7189
G01 X5.6533 Y2.7717
G01 X5.6841 Y2.8237
G01 X5.7126 Y2.8772
G01 X5.7406 Y2.9314
G01 X5.7658 Y2.9852
G01 X5.7899 Y3.0414
G01 X5.8128 Y3.0990
G01 X5.8339 Y3.1554
G01 X5.8520 Y3.2115
G01 X5.8694 Y3.2710
G01 X5.8853 Y3.3292
G01 X5.8983 Y3.3871
G01 X5.9099 Y3.4471
G01 X5.9200 Y3.5084
G01 X5.9289 Y3.5692
G01 X5.9350 Y3.6272
G01 X5.9394 Y3.6877
G01 X5.9421 Y3.7483
G01 X5.9430 Y3.8100
G01 X5.9421 Y3.8707
G01 X5.9394 Y3.9313
G01 X5.9350 Y3.9918
G01 X5.9289 Y4.0498
G01 X5.9200 Y4.1106
G01 X5.9099 Y4.1719
G01 X5.8983 Y4.2319
G01 X5.8853 Y4.2898
G01 X5.8694 Y4.3480
G01 X5.8520 Y4.4075
G01 X5.8339 Y4.4636
G01 X5.8128 Y4.5200
G01 X5.7899 Y4.5776
G01 X5.7658 Y4.6338
G01 X5.7406 Y4.6876
G01 X5.7126 Y4.7418
G01 X5.6841 Y4.7953
G01 X5.6533 Y4.8473
G01 X5.6205 Y4.9001
G01 X5.5879 Y4.9494
G01 X5.5527 Y4.9987
G01 X5.5163 Y5.0466
G01 X5.4775 Y5.0945
G01 X5.4394 Y5.1395
G01 X5.3977 Y5.1839
G01 X5.3552 Y5.2282
G01 X5.3109 Y5.2707
G01 X5.2665 Y5.3124
G01 X5.2215 Y5.3505
G01 X5.1736 Y5.3893
G01 X5.1257 Y5.4257
G01 X5.0764 Y5.4609
G01 X5.0271 Y5.4935
G01 X4.9743 Y5.5263
G01 X4.9223 Y5.5571
G01 X4.8688 Y5.5856
G01 X4.8146 Y5.6136
G01 X4.7608 Y5.6388
G01 X4.7046 Y5.6629
G01 X4.6470 Y5.6858
G01 X4.5906 Y5.7069
G01 X4.5345 Y5.7250
G01 X4.4750 Y5.7424
G01 X4.4168 Y5.7583
G01 X4.3589 Y5.7713
G01 X4.2989 Y5.7829
G01 X4.2376 Y5.7930
G01 X4.1768 Y5.8019
G01 X4.1188 Y5.8080
G01 X4.0583 Y5.8124
G01 X3.9977 Y5.8151
G01 X3.9360 Y5.8160
G01 X3.8753 Y5.8151
G00 X3.8753 Y5.8151
G01 F50.00
G01 Z-0.2000
G01 F70.00
G01 X3.8147 Y5.8124
G01 X3.7542 Y5.8080
G01 X3.6962 Y5.8019
G01 X3.6354 Y5.7930
G01 X3.5741 Y5.7829
G01 X3.5141 Y5.7713
G01 X3.4562 Y5.7583
G01 X3.3980 Y5.7424
G01 X3.3385 Y5.7250
G01 X3.2824 Y5.7069
G01 X3.2260 Y5.6858
G01 X3.1684 Y5.6629
G01 X3.1122 Y5.6388
G01 X3.0584 Y5.6136
G01 X3.0042 Y5.5856
G01 X2.9507 Y5.5571
G01 X2.8987 Y5.5263
G01 X2.8459 Y5.4935
G01 X2.7966 Y5.4609
G01 X2.7473 Y5.4257
G01 X2.6994 Y5.3893
G01 X2.6515 Y5.3505
G01 X2.6065 Y5.3124
G01 X2.5621 Y5.2707
G01 X2.5178 Y5.2282
G01 X2.4753 Y5.1839
G01 X2.4336 Y5.1395
G01 X2.3955 Y5.0945
G01 X2.3567 Y5.0466
G01 X2.3203 Y4.9987
G01 X2.2851 Y4.9494
G01 X2.2525 Y4.9001
G01 X2.2197 Y4.8473
G01 X2.1889 Y4.7953
G01 X2.1604 Y4.7418
G01 X2.1324 Y4.6876
G01 X2.1072 Y4.6338
G01 X2.0831 Y4.5776
G01 X2.0602 Y4.5200
G01 X2.0391 Y4.4636
G01 X2.0210 Y4.4075
G01 X2.0036 Y4.3480
G01 X1.9877 Y4.2898
G01 X1.9747 Y4.2319
G01 X1.9631 Y4.1719
G01 X1.9530 Y4.1106
G01 X1.9441 Y4.0498
G01 X1.9380 Y3.9918
G01 X1.9336 Y3.9313
G01 X1.9309 Y3.8707
G01 X1.9300 Y3.8100
G01 X1.9309 Y3.7483
G01 X1.9336 Y3.6877
G01 X1.9380 Y3.6272
G01 X1.9441 Y3.5692
G01 X1.9530 Y3.5084
G01 X1.9631 Y3.4471
G01 X1.9747 Y3.3871
G01 X1.9877 Y3.3292
G01 X2.0036 Y3.2710
G01 X2.0210 Y3.2115
G01 X2.0391 Y3.1554
G01 X2.0602 Y3.0990
G01 X2.0831 Y3.0414
G01 X2.1072 Y2.9852
G01 X2.1324 Y2.9314
G01 X2.1604 Y2.8772
G01 X2.1889 Y2.8237
G01 X2.2197 Y2.7717
G01 X2.2525 Y2.7189
G01 X2.2851 Y2.6696
G01 X2.3203 Y2.6203
G01 X2.3567 Y2.5724
G01 X2.3955 Y2.5245
G01 X2.4336 Y2.4795
G01 X2.4753 Y2.4351
G01 X2.5178 Y2.3908
G01 X2.5621 Y2.3483
G01 X2.6065 Y2.3066
G01 X2.6515 Y2.2685
G01 X2.6994 Y2.2297
G01 X2.7473 Y2.1933
G01 X2.7966 Y2.1581
G01 X2.8459 Y2.1255
G01 X2.8987 Y2.0927
G01 X2.9507 Y2.0619
G01 X3.0042 Y2.0334
G01 X3.0584 Y2.0054
G01 X3.1122 Y1.9802
G01 X3.1684 Y1.9561
G01 X3.2260 Y1.9332
G01 X3.2824 Y1.9121
G01 X3.3385 Y1.8940
G01 X3.3980 Y1.8766
G01 X3.4562 Y1.8607
G01 X3.5141 Y1.8477
G01 X3.5741 Y1.8361
G01 X3.6354 Y1.8260
G01 X3.6962 Y1.8171
G01 X3.7542 Y1.8110
G01 X3.8147 Y1.8066
G01 X3.8753 Y1.8039
G01 X3.9360 Y1.8030
G01 X3.9977 Y1.8039
G01 X4.0583 Y1.8066
G01 X4.1188 Y1.8110
G01 X4.1768 Y1.8171
G01 X4.2376 Y1.8260
G01 X4.2989 Y1.8361
G01 X4.3589 Y1.8477
G01 X4.4168 Y1.8607
G01 X4.4750 Y1.8766
G01 X4.5345 Y1.8940
G01 X4.5906 Y1.9121
G01 X4.6470 Y1.9332
G01 X4.7046 Y1.9561
G01 X4.7608 Y1.9802
G01 X4.8146 Y2.0054
G01 X4.8688 Y2.0334
G01 X4.9223 Y2.0619
G01 X4.9743 Y2.0927
G01 X5.0271 Y2.1255
G01 X5.0764 Y2.1581
G01 X5.1257 Y2.1933
G01 X5.1736 Y2.2297
G01 X5.2215 Y2.2685
G01 X5.2665 Y2.3066
G01 X5.3109 Y2.3483
G01 X5.3552 Y2.3908
G01 X5.3977 Y2.4351
G01 X5.4394 Y2.4795
G01 X5.4775 Y2.5245
G01 X5.5163 Y2.5724
G01 X5.5527 Y2.6203
G01 X5.5879 Y2.6696
G01 X5.6205 Y2.7189
G01 X5.6533 Y2.7717
G01 X5.6841 Y2.8237
G01 X5.7126 Y2.8772
G01 X5.7406 Y2.9314
G01 X5.7658 Y2.9852
G01 X5.7899 Y3.0414
G01 X5.8128 Y3.0990
G01 X5.8339 Y3.1554
G01 X5.8520 Y3.2115
G01 X5.8694 Y3.2710
G01 X5.8853 Y3.3292
G01 X5.8983 Y3.3871
G01 X5.9099 Y3.4471
G01 X5.9200 Y3.5084
G01 X5.9289 Y3.5692
G01 X5.9350 Y3.6272
G01 X5.9394 Y3.6877
G01 X5.9421 Y3.7483
G01 X5.9430 Y3.8100
G01 X5.9421 Y3.8707
G01 X5.9394 Y3.9313
G01 X5.9350 Y3.9918
G01 X5.9289 Y4.0498
G01 X5.9200 Y4.1106
G01 X5.9099 Y4.1719
G01 X5.8983 Y4.2319
G01 X5.8853 Y4.2898
G01 X5.8694 Y4.3480
G01 X5.8520 Y4.4075
G01 X5.8339 Y4.4636
G01 X5.8128 Y4.5200
G01 X5.7899 Y4.5776
G01 X5.7658 Y4.6338
G01 X5.7406 Y4.6876
G01 X5.7126 Y4.7418
G01 X5.6841 Y4.7953
G01 X5.6533 Y4.8473
G01 X5.6205 Y4.9001
G01 X5.5879 Y4.9494
G01 X5.5527 Y4.9987
G01 X5.5163 Y5.0466
G01 X5.4775 Y5.0945
G01 X5.4394 Y5.1395
G01 X5.3977 Y5.1839
G01 X5.3552 Y5.2282
G01 X5.3109 Y5.2707
G01 X5.2665 Y5.3124
G01 X5.2215 Y5.3505
G01 X5.1736 Y5.3893
G01 X5.1257 Y5.4257
G01 X5.0764 Y5.4609
G01 X5.0271 Y5.4935
G01 X4.9743 Y5.5263
G01 X4.9223 Y5.5571
G01 X4.8688 Y5.5856
G01 X4.8146 Y5.6136
G01 X4.7608 Y5.6388
G01 X4.7046 Y5.6629
G01 X4.6470 Y5.6858
G01 X4.5906 Y5.7069
G01 X4.5345 Y5.7250
G01 X4.4750 Y5.7424
G01 X4.4168 Y5.7583
G01 X4.3589 Y5.7713
G01 X4.2989 Y5.7829
G01 X4.2376 Y5.7930
G01 X4.1768 Y5.8019
G01 X4.1188 Y5.8080
G01 X4.0583 Y5.8124
G01 X3.9977 Y5.8151
G01 X3.9360 Y5.8160
G01 X3.8753 Y5.8151
G00 X3.8753 Y5.8151
G01 F50.00
G01 Z-0.3000
G01 F70.00
G01 X3.8147 Y5.8124
G01 X3.7542 Y5.8080
G01 X3.6962 Y5.8019
G01 X3.6354 Y5.7930
G01 X3.5741 Y5.7829
G01 X3.5141 Y5.7713
G01 X3.4562 Y5.7583
G01 X3.3980 Y5.7424
G01 X3.3385 Y5.7250
G01 X3.2824 Y5.7069
G01 X3.2260 Y5.6858
G01 X3.1684 Y5.6629
G01 X3.1122 Y5.6388
G01 X3.0584 Y5.6136
G01 X3.0042 Y5.5856
G01 X2.9507 Y5.5571
G01 X2.8987 Y5.5263
G01 X2.8459 Y5.4935
G01 X2.7966 Y5.4609
G01 X2.7473 Y5.4257
G01 X2.6994 Y5.3893
G01 X2.6515 Y5.3505
G01 X2.6065 Y5.3124
G01 X2.5621 Y5.2707
G01 X2.5178 Y5.2282
G01 X2.4753 Y5.1839
G01 X2.4336 Y5.1395
G01 X2.3955 Y5.0945
G01 X2.3567 Y5.0466
G01 X2.3203 Y4.9987
G01 X2.2851 Y4.9494
G01 X2.2525 Y4.9001
G01 X2.2197 Y4.8473
G01 X2.1889 Y4.7953
G01 X2.1604 Y4.7418
G01 X2.1324 Y4.6876
G01 X2.1072 Y4.6338
G01 X2.0831 Y4.5776
G01 X2.0602 Y4.5200
G01 X2.0391 Y4.4636
G01 X2.0210 Y4.4075
G01 X2.0036 Y4.3480
G01 X1.9877 Y4.2898
G01 X1.9747 Y4.2319
G01 X1.9631 Y4.1719
G01 X1.9530 Y4.1106
G01 X1.9441 Y4.0498
G01 X1.9380 Y3.9918
G01 X1.9336 Y3.9313
G01 X1.9309 Y3.8707
G01 X1.9300 Y3.8100
G01 X1.9309 Y3.7483
G01 X1.9336 Y3.6877
G01 X1.9380 Y3.6272
G01 X1.9441 Y3.5692
G01 X1.9530 Y3.5084
G01 X1.9631 Y3.4471
G01 X1.9747 Y3.3871
G01 X1.9877 Y3.3292
G01 X2.0036 Y3.2710
G01 X2.0210 Y3.2115
G01 X2.0391 Y3.1554
G01 X2.0602 Y3.0990
G01 X2.0831 Y3.0414
G01 X2.1072 Y2.9852
G01 X2.1324 Y2.9314
G01 X2.1604 Y2.8772
G01 X2.1889 Y2.8237
G01 X2.2197 Y2.7717
G01 X2.2525 Y2.7189
G01 X2.2851 Y2.6696
G01 X2.3203 Y2.6203
G01 X2.3567 Y2.5724
G01 X2.3955 Y2.5245
G01 X2.4336 Y2.4795
G01 X2.4753 Y2.4351
G01 X2.5178 Y2.3908
G01 X2.5621 Y2.3483
G01 X2.6065 Y2.3066
G01 X2.6515 Y2.2685
G01 X2.6994 Y2.2297
G01 X2.7473 Y2.1933
G01 X2.7966 Y2.1581
G01 X2.8459 Y2.1255
G01 X2.8987 Y2.0927
G01 X2.9507 Y2.0619
G01 X3.0042 Y2.0334
G01 X3.0584 Y2.0054
G01 X3.1122 Y1.9802
G01 X3.1684 Y1.9561
G01 X3.2260 Y1.9332
G01 X3.2824 Y1.9121
G01 X3.3385 Y1.8940
G01 X3.3980 Y1.8766
G01 X3.4562 Y1.8607
G01 X3.5141 Y1.8477
G01 X3.5741 Y1.8361
G01 X3.6354 Y1.8260
G01 X3.6962 Y1.8171
G01 X3.7542 Y1.8110
G01 X3.8147 Y1.8066
G01 X3.8753 Y1.8039
G01 X3.9360 Y1.8030
G01 X3.9977 Y1.8039
G01 X4.0583 Y1.8066
G01 X4.1188 Y1.8110
G01 X4.1768 Y1.8171
G01 X4.2376 Y1.8260
G01 X4.2989 Y1.8361
G01 X4.3589 Y1.8477
G01 X4.4168 Y1.8607
G01 X4.4750 Y1.8766
G01 X4.5345 Y1.8940
G01 X4.5906 Y1.9121
G01 X4.6470 Y1.9332
G01 X4.7046 Y1.9561
G01 X4.7608 Y1.9802
G01 X4.8146 Y2.0054
G01 X4.8688 Y2.0334
G01 X4.9223 Y2.0619
G01 X4.9743 Y2.0927
G01 X5.0271 Y2.1255
G01 X5.0764 Y2.1581
G01 X5.1257 Y2.1933
G01 X5.1736 Y2.2297
G01 X5.2215 Y2.2685
G01 X5.2665 Y2.3066
G01 X5.3109 Y2.3483
G01 X5.3552 Y2.3908
G01 X5.3977 Y2.4351
G01 X5.4394 Y2.4795
G01 X5.4775 Y2.5245
G01 X5.5163 Y2.5724
G01 X5.5527 Y2.6203
G01 X5.5879 Y2.6696
G01 X5.6205 Y2.7189
G01 X5.6533 Y2.7717
G01 X5.6841 Y2.8237
G01 X5.7126 Y2.8772
G01 X5.7406 Y2.9314
G01 X5.7658 Y2.9852
G01 X5.7899 Y3.0414
G01 X5.8128 Y3.0990
G01 X5.8339 Y3.1554
G01 X5.8520 Y3.2115
G01 X5.8694 Y3.2710
G01 X5.8853 Y3.3292
G01 X5.8983 Y3.3871
G01 X5.9099 Y3.4471
G01 X5.9200 Y3.5084
G01 X5.9289 Y3.5692
G01 X5.9350 Y3.6272
G01 X5.9394 Y3.6877
G01 X5.9421 Y3.7483
G01 X5.9430 Y3.8100
G01 X5.9421 Y3.8707
G01 X5.9394 Y3.9313
G01 X5.9350 Y3.9918
G01 X5.9289 Y4.0498
G01 X5.9200 Y4.1106
G01 X5.9099 Y4.1719
G01 X5.8983 Y4.2319
G01 X5.8853 Y4.2898
G01 X5.8694 Y4.3480
G01 X5.8520 Y4.4075
G01 X5.8339 Y4.4636
G01 X5.8128 Y4.5200
G01 X5.7899 Y4.5776
G01 X5.7658 Y4.6338
G01 X5.7406 Y4.6876
G01 X5.7126 Y4.7418
G01 X5.6841 Y4.7953
G01 X5.6533 Y4.8473
G01 X5.6205 Y4.9001
G01 X5.5879 Y4.9494
G01 X5.5527 Y4.9987
G01 X5.5163 Y5.0466
G01 X5.4775 Y5.0945
G01 X5.4394 Y5.1395
G01 X5.3977 Y5.1839
G01 X5.3552 Y5.2282
G01 X5.3109 Y5.2707
G01 X5.2665 Y5.3124
G01 X5.2215 Y5.3505
G01 X5.1736 Y5.3893
G01 X5.1257 Y5.4257
G01 X5.0764 Y5.4609
G01 X5.0271 Y5.4935
G01 X4.9743 Y5.5263
G01 X4.9223 Y5.5571
G01 X4.8688 Y5.5856
G01 X4.8146 Y5.6136
G01 X4.7608 Y5.6388
G01 X4.7046 Y5.6629
G01 X4.6470 Y5.6858
G01 X4.5906 Y5.7069
G01 X4.5345 Y5.7250
G01 X4.4750 Y5.7424
G01 X4.4168 Y5.7583
G01 X4.3589 Y5.7713
G01 X4.2989 Y5.7829
G01 X4.2376 Y5.7930
G01 X4.1768 Y5.8019
G01 X4.1188 Y5.8080
G01 X4.0583 Y5.8124
G01 X3.9977 Y5.8151
G01 X3.9360 Y5.8160
G01 X3.8753 Y5.8151
G00 X3.8753 Y5.8151
G01 F50.00
G01 Z-0.4000
G01 F70.00
G01 X3.8147 Y5.8124
G01 X3.7542 Y5.8080
G01 X3.6962 Y5.8019
G01 X3.6354 Y5.7930
G01 X3.5741 Y5.7829
G01 X3.5141 Y5.7713
G01 X3.4562 Y5.7583
G01 X3.3980 Y5.7424
G01 X3.3385 Y5.7250
G01 X3.2824 Y5.7069
G01 X3.2260 Y5.6858
G01 X3.1684 Y5.6629
G01 X3.1122 Y5.6388
G01 X3.0584 Y5.6136
G01 X3.0042 Y5.5856
G01 X2.9507 Y5.5571
G01 X2.8987 Y5.5263
G01 X2.8459 Y5.4935
G01 X2.7966 Y5.4609
G01 X2.7473 Y5.4257
G01 X2.6994 Y5.3893
G01 X2.6515 Y5.3505
G01 X2.6065 Y5.3124
G01 X2.5621 Y5.2707
G01 X2.5178 Y5.2282
G01 X2.4753 Y5.1839
G01 X2.4336 Y5.1395
G01 X2.3955 Y5.0945
G01 X2.3567 Y5.0466
G01 X2.3203 Y4.9987
G01 X2.2851 Y4.9494
G01 X2.2525 Y4.9001
G01 X2.2197 Y4.8473
G01 X2.1889 Y4.7953
G01 X2.1604 Y4.7418
G01 X2.1324 Y4.6876
G01 X2.1072 Y4.6338
G01 X2.0831 Y4.5776
G01 X2.0602 Y4.5200
G01 X2.0391 Y4.4636
G01 X2.0210 Y4.4075
G01 X2.0036 Y4.3480
G01 X1.9877 Y4.2898
G01 X1.9747 Y4.2319
G01 X1.9631 Y4.1719
G01 X1.9530 Y4.1106
G01 X1.9441 Y4.0498
G01 X1.9380 Y3.9918
G01 X1.9336 Y3.9313
G01 X1.9309 Y3.8707
G01 X1.9300 Y3.8100
G01 X1.9309 Y3.7483
G01 X1.9336 Y3.6877
G01 X1.9380 Y3.6272
G01 X1.9441 Y3.5692
G01 X1.9530 Y3.5084
G01 X1.9631 Y3.4471
G01 X1.9747 Y3.3871
G01 X1.9877 Y3.3292
G01 X2.0036 Y3.2710
G01 X2.0210 Y3.2115
G01 X2.0391 Y3.1554
G01 X2.0602 Y3.0990
G01 X2.0831 Y3.0414
G01 X2.1072 Y2.9852
G01 X2.1324 Y2.9314
G01 X2.1604 Y2.8772
G01 X2.1889 Y2.8237
G01 X2.2197 Y2.7717
G01 X2.2525 Y2.7189
G01 X2.2851 Y2.6696
G01 X2.3203 Y2.6203
G01 X2.3567 Y2.5724
G01 X2.3955 Y2.5245
G01 X2.4336 Y2.4795
G01 X2.4753 Y2.4351
G01 X2.5178 Y2.3908
G01 X2.5621 Y2.3483
G01 X2.6065 Y2.3066
G01 X2.6515 Y2.2685
G01 X2.6994 Y2.2297
G01 X2.7473 Y2.1933
G01 X2.7966 Y2.1581
G01 X2.8459 Y2.1255
G01 X2.8987 Y2.0927
G01 X2.9507 Y2.0619
G01 X3.0042 Y2.0334
G01 X3.0584 Y2.0054
G01 X3.1122 Y1.9802
G01 X3.1684 Y1.9561
G01 X3.2260 Y1.9332
G01 X3.2824 Y1.9121
G01 X3.3385 Y1.8940
G01 X3.3980 Y1.8766
G01 X3.4562 Y1.8607
G01 X3.5141 Y1.8477
G01 X3.5741 Y1.8361
G01 X3.6354 Y1.8260
G01 X3.6962 Y1.8171
G01 X3.7542 Y1.8110
G01 X3.8147 Y1.8066
G01 X3.8753 Y1.8039
G01 X3.9360 Y1.8030
G01 X3.9977 Y1.8039
G01 X4.0583 Y1.8066
G01 X4.1188 Y1.8110
G01 X4.1768 Y1.8171
G01 X4.2376 Y1.8260
G01 X4.2989 Y1.8361
G01 X4.3589 Y1.8477
G01 X4.4168 Y1.8607
G01 X4.4750 Y1.8766
G01 X4.5345 Y1.8940
G01 X4.5906 Y1.9121
G01 X4.6470 Y1.9332
G01 X4.7046 Y1.9561
G01 X4.7608 Y1.9802
G01 X4.8146 Y2.0054
G01 X4.8688 Y2.0334
G01 X4.9223 Y2.0619
G01 X4.9743 Y2.0927
G01 X5.0271 Y2.1255
G01 X5.0764 Y2.1581
G01 X5.1257 Y2.1933
G01 X5.1736 Y2.2297
G01 X5.2215 Y2.2685
G01 X5.2665 Y2.3066
G01 X5.3109 Y2.3483
G01 X5.3552 Y2.3908
G01 X5.3977 Y2.4351
G01 X5.4394 Y2.4795
G01 X5.4775 Y2.5245
G01 X5.5163 Y2.5724
G01 X5.5527 Y2.6203
G01 X5.5879 Y2.6696
G01 X5.6205 Y2.7189
G01 X5.6533 Y2.7717
G01 X5.6841 Y2.8237
G01 X5.7126 Y2.8772
G01 X5.7406 Y2.9314
G01 X5.7658 Y2.9852
G01 X5.7899 Y3.0414
G01 X5.8128 Y3.0990
G01 X5.8339 Y3.1554
G01 X5.8520 Y3.2115
G01 X5.8694 Y3.2710
G01 X5.8853 Y3.3292
G01 X5.8983 Y3.3871
G01 X5.9099 Y3.4471
G01 X5.9200 Y3.5084
G01 X5.9289 Y3.5692
G01 X5.9350 Y3.6272
G01 X5.9394 Y3.6877
G01 X5.9421 Y3.7483
G01 X5.9430 Y3.8100
G01 X5.9421 Y3.8707
G01 X5.9394 Y3.9313
G01 X5.9350 Y3.9918
G01 X5.9289 Y4.0498
G01 X5.9200 Y4.1106
G01 X5.9099 Y4.1719
G01 X5.8983 Y4.2319
G01 X5.8853 Y4.2898
G01 X5.8694 Y4.3480
G01 X5.8520 Y4.4075
G01 X5.8339 Y4.4636
G01 X5.8128 Y4.5200
G01 X5.7899 Y4.5776
G01 X5.7658 Y4.6338
G01 X5.7406 Y4.6876
G01 X5.7126 Y4.7418
G01 X5.6841 Y4.7953
G01 X5.6533 Y4.8473
G01 X5.6205 Y4.9001
G01 X5.5879 Y4.9494
G01 X5.5527 Y4.9987
G01 X5.5163 Y5.0466
G01 X5.4775 Y5.0945
G01 X5.4394 Y5.1395
G01 X5.3977 Y5.1839
G01 X5.3552 Y5.2282
G01 X5.3109 Y5.2707
G01 X5.2665 Y5.3124
G01 X5.2215 Y5.3505
G01 X5.1736 Y5.3893
G01 X5.1257 Y5.4257
G01 X5.0764 Y5.4609
G01 X5.0271 Y5.4935
G01 X4.9743 Y5.5263
G01 X4.9223 Y5.5571
G01 X4.8688 Y5.5856
G01 X4.8146 Y5.6136
G01 X4.7608 Y5.6388
G01 X4.7046 Y5.6629
G01 X4.6470 Y5.6858
G01 X4.5906 Y5.7069
G01 X4.5345 Y5.7250
G01 X4.4750 Y5.7424
G01 X4.4168 Y5.7583
G01 X4.3589 Y5.7713
G01 X4.2989 Y5.7829
G01 X4.2376 Y5.7930
G01 X4.1768 Y5.8019
G01 X4.1188 Y5.8080
G01 X4.0583 Y5.8124
G01 X3.9977 Y5.8151
G01 X3.9360 Y5.8160
G01 X3.8753 Y5.8151
G00 X3.8753 Y5.8151
G01 F50.00
G01 Z-0.5000
G01 F70.00
G01 X3.8147 Y5.8124
G01 X3.7542 Y5.8080
G01 X3.6962 Y5.8019
G01 X3.6354 Y5.7930
G01 X3.5741 Y5.7829
G01 X3.5141 Y5.7713
G01 X3.4562 Y5.7583
G01 X3.3980 Y5.7424
G01 X3.3385 Y5.7250
G01 X3.2824 Y5.7069
G01 X3.2260 Y5.6858
G01 X3.1684 Y5.6629
G01 X3.1122 Y5.6388
G01 X3.0584 Y5.6136
G01 X3.0042 Y5.5856
G01 X2.9507 Y5.5571
G01 X2.8987 Y5.5263
G01 X2.8459 Y5.4935
G01 X2.7966 Y5.4609
G01 X2.7473 Y5.4257
G01 X2.6994 Y5.3893
G01 X2.6515 Y5.3505
G01 X2.6065 Y5.3124
G01 X2.5621 Y5.2707
G01 X2.5178 Y5.2282
G01 X2.4753 Y5.1839
G01 X2.4336 Y5.1395
G01 X2.3955 Y5.0945
G01 X2.3567 Y5.0466
G01 X2.3203 Y4.9987
G01 X2.2851 Y4.9494
G01 X2.2525 Y4.9001
G01 X2.2197 Y4.8473
G01 X2.1889 Y4.7953
G01 X2.1604 Y4.7418
G01 X2.1324 Y4.6876
G01 X2.1072 Y4.6338
G01 X2.0831 Y4.5776
G01 X2.0602 Y4.5200
G01 X2.0391 Y4.4636
G01 X2.0210 Y4.4075
G01 X2.0036 Y4.3480
G01 X1.9877 Y4.2898
G01 X1.9747 Y4.2319
G01 X1.9631 Y4.1719
G01 X1.9530 Y4.1106
G01 X1.9441 Y4.0498
G01 X1.9380 Y3.9918
G01 X1.9336 Y3.9313
G01 X1.9309 Y3.8707
G01 X1.9300 Y3.8100
G01 X1.9309 Y3.7483
G01 X1.9336 Y3.6877
G01 X1.9380 Y3.6272
G01 X1.9441 Y3.5692
G01 X1.9530 Y3.5084
G01 X1.9631 Y3.4471
G01 X1.9747 Y3.3871
G01 X1.9877 Y3.3292
G01 X2.0036 Y3.2710
G01 X2.0210 Y3.2115
G01 X2.0391 Y3.1554
G01 X2.0602 Y3.0990
G01 X2.0831 Y3.0414
G01 X2.1072 Y2.9852
G01 X2.1324 Y2.9314
G01 X2.1604 Y2.8772
G01 X2.1889 Y2.8237
G01 X2.2197 Y2.7717
G01 X2.2525 Y2.7189
G01 X2.2851 Y2.6696
G01 X2.3203 Y2.6203
G01 X2.3567 Y2.5724
G01 X2.3955 Y2.5245
G01 X2.4336 Y2.4795
G01 X2.4753 Y2.4351
G01 X2.5178 Y2.3908
G01 X2.5621 Y2.3483
G01 X2.6065 Y2.3066
G01 X2.6515 Y2.2685
G01 X2.6994 Y2.2297
G01 X2.7473 Y2.1933
G01 X2.7966 Y2.1581
G01 X2.8459 Y2.1255
G01 X2.8987 Y2.0927
G01 X2.9507 Y2.0619
G01 X3.0042 Y2.0334
G01 X3.0584 Y2.0054
G01 X3.1122 Y1.9802
G01 X3.1684 Y1.9561
G01 X3.2260 Y1.9332
G01 X3.2824 Y1.9121
G01 X3.3385 Y1.8940
G01 X3.3980 Y1.8766
G01 X3.4562 Y1.8607
G01 X3.5141 Y1.8477
G01 X3.5741 Y1.8361
G01 X3.6354 Y1.8260
G01 X3.6962 Y1.8171
G01 X3.7542 Y1.8110
G01 X3.8147 Y1.8066
G01 X3.8753 Y1.8039
G01 X3.9360 Y1.8030
G01 X3.9977 Y1.8039
G01 X4.0583 Y1.8066
G01 X4.1188 Y1.8110
G01 X4.1768 Y1.8171
G01 X4.2376 Y1.8260
G01 X4.2989 Y1.8361
G01 X4.3589 Y1.8477
G01 X4.4168 Y1.8607
G01 X4.4750 Y1.8766
G01 X4.5345 Y1.8940
G01 X4.5906 Y1.9121
G01 X4.6470 Y1.9332
G01 X4.7046 Y1.9561
G01 X4.7608 Y1.9802
G01 X4.8146 Y2.0054
G01 X4.8688 Y2.0334
G01 X4.9223 Y2.0619
G01 X4.9743 Y2.0927
G01 X5.0271 Y2.1255
G01 X5.0764 Y2.1581
G01 X5.1257 Y2.1933
G01 X5.1736 Y2.2297
G01 X5.2215 Y2.2685
G01 X5.2665 Y2.3066
G01 X5.3109 Y2.3483
G01 X5.3552 Y2.3908
G01 X5.3977 Y2.4351
G01 X5.4394 Y2.4795
G01 X5.4775 Y2.5245
G01 X5.5163 Y2.5724
G01 X5.5527 Y2.6203
G01 X5.5879 Y2.6696
G01 X5.6205 Y2.7189
G01 X5.6533 Y2.7717
G01 X5.6841 Y2.8237
G01 X5.7126 Y2.8772
G01 X5.7406 Y2.9314
G01 X5.7658 Y2.9852
G01 X5.7899 Y3.0414
G01 X5.8128 Y3.0990
G01 X5.8339 Y3.1554
G01 X5.8520 Y3.2115
G01 X5.8694 Y3.2710
G01 X5.8853 Y3.3292
G01 X5.8983 Y3.3871
G01 X5.9099 Y3.4471
G01 X5.9200 Y3.5084
G01 X5.9289 Y3.5692
G01 X5.9350 Y3.6272
G01 X5.9394 Y3.6877
G01 X5.9421 Y3.7483
G01 X5.9430 Y3.8100
G01 X5.9421 Y3.8707
G01 X5.9394 Y3.9313
G01 X5.9350 Y3.9918
G01 X5.9289 Y4.0498
G01 X5.9200 Y4.1106
G01 X5.9099 Y4.1719
G01 X5.8983 Y4.2319
G01 X5.8853 Y4.2898
G01 X5.8694 Y4.3480
G01 X5.8520 Y4.4075
G01 X5.8339 Y4.4636
G01 X5.8128 Y4.5200
G01 X5.7899 Y4.5776
G01 X5.7658 Y4.6338
G01 X5.7406 Y4.6876
G01 X5.7126 Y4.7418
G01 X5.6841 Y4.7953
G01 X5.6533 Y4.8473
G01 X5.6205 Y4.9001
G01 X5.5879 Y4.9494
G01 X5.5527 Y4.9987
G01 X5.5163 Y5.0466
G01 X5.4775 Y5.0945
G01 X5.4394 Y5.1395
G01 X5.3977 Y5.1839
G01 X5.3552 Y5.2282
G01 X5.3109 Y5.2707
G01 X5.2665 Y5.3124
G01 X5.2215 Y5.3505
G01 X5.1736 Y5.3893
G01 X5.1257 Y5.4257
G01 X5.0764 Y5.4609
G01 X5.0271 Y5.4935
G01 X4.9743 Y5.5263
G01 X4.9223 Y5.5571
G01 X4.8688 Y5.5856
G01 X4.8146 Y5.6136
G01 X4.7608 Y5.6388
G01 X4.7046 Y5.6629
G01 X4.6470 Y5.6858
G01 X4.5906 Y5.7069
G01 X4.5345 Y5.7250
G01 X4.4750 Y5.7424
G01 X4.4168 Y5.7583
G01 X4.3589 Y5.7713
G01 X4.2989 Y5.7829
G01 X4.2376 Y5.7930
G01 X4.1768 Y5.8019
G01 X4.1188 Y5.8080
G01 X4.0583 Y5.8124
G01 X3.9977 Y5.8151
G01 X3.9360 Y5.8160
G01 X3.8753 Y5.8151
G00 X3.8753 Y5.8151
G01 F50.00
G01 Z-0.5999
G01 F70.00
G01 X3.8147 Y5.8124
G01 X3.7542 Y5.8080
G01 X3.6962 Y5.8019
G01 X3.6354 Y5.7930
G01 X3.5741 Y5.7829
G01 X3.5141 Y5.7713
G01 X3.4562 Y5.7583
G01 X3.3980 Y5.7424
G01 X3.3385 Y5.7250
G01 X3.2824 Y5.7069
G01 X3.2260 Y5.6858
G01 X3.1684 Y5.6629
G01 X3.1122 Y5.6388
G01 X3.0584 Y5.6136
G01 X3.0042 Y5.5856
G01 X2.9507 Y5.5571
G01 X2.8987 Y5.5263
G01 X2.8459 Y5.4935
G01 X2.7966 Y5.4609
G01 X2.7473 Y5.4257
G01 X2.6994 Y5.3893
G01 X2.6515 Y5.3505
G01 X2.6065 Y5.3124
G01 X2.5621 Y5.2707
G01 X2.5178 Y5.2282
G01 X2.4753 Y5.1839
G01 X2.4336 Y5.1395
G01 X2.3955 Y5.0945
G01 X2.3567 Y5.0466
G01 X2.3203 Y4.9987
G01 X2.2851 Y4.9494
G01 X2.2525 Y4.9001
G01 X2.2197 Y4.8473
G01 X2.1889 Y4.7953
G01 X2.1604 Y4.7418
G01 X2.1324 Y4.6876
G01 X2.1072 Y4.6338
G01 X2.0831 Y4.5776
G01 X2.0602 Y4.5200
G01 X2.0391 Y4.4636
G01 X2.0210 Y4.4075
G01 X2.0036 Y4.3480
G01 X1.9877 Y4.2898
G01 X1.9747 Y4.2319
G01 X1.9631 Y4.1719
G01 X1.9530 Y4.1106
G01 X1.9441 Y4.0498
G01 X1.9380 Y3.9918
G01 X1.9336 Y3.9313
G01 X1.9309 Y3.8707
G01 X1.9300 Y3.8100
G01 X1.9309 Y3.7483
G01 X1.9336 Y3.6877
G01 X1.9380 Y3.6272
G01 X1.9441 Y3.5692
G01 X1.9530 Y3.5084
G01 X1.9631 Y3.4471
G01 X1.9747 Y3.3871
G01 X1.9877 Y3.3292
G01 X2.0036 Y3.2710
G01 X2.0210 Y3.2115
G01 X2.0391 Y3.1554
G01 X2.0602 Y3.0990
G01 X2.0831 Y3.0414
G01 X2.1072 Y2.9852
G01 X2.1324 Y2.9314
G01 X2.1604 Y2.8772
G01 X2.1889 Y2.8237
G01 X2.2197 Y2.7717
G01 X2.2525 Y2.7189
G01 X2.2851 Y2.6696
G01 X2.3203 Y2.6203
G01 X2.3567 Y2.5724
G01 X2.3955 Y2.5245
G01 X2.4336 Y2.4795
G01 X2.4753 Y2.4351
G01 X2.5178 Y2.3908
G01 X2.5621 Y2.3483
G01 X2.6065 Y2.3066
G01 X2.6515 Y2.2685
G01 X2.6994 Y2.2297
G01 X2.7473 Y2.1933
G01 X2.7966 Y2.1581
G01 X2.8459 Y2.1255
G01 X2.8987 Y2.0927
G01 X2.9507 Y2.0619
G01 X3.0042 Y2.0334
G01 X3.0584 Y2.0054
G01 X3.1122 Y1.9802
G01 X3.1684 Y1.9561
G01 X3.2260 Y1.9332
G01 X3.2824 Y1.9121
G01 X3.3385 Y1.8940
G01 X3.3980 Y1.8766
G01 X3.4562 Y1.8607
G01 X3.5141 Y1.8477
G01 X3.5741 Y1.8361
G01 X3.6354 Y1.8260
G01 X3.6962 Y1.8171
G01 X3.7542 Y1.8110
G01 X3.8147 Y1.8066
G01 X3.8753 Y1.8039
G01 X3.9360 Y1.8030
G01 X3.9977 Y1.8039
G01 X4.0583 Y1.8066
G01 X4.1188 Y1.8110
G01 X4.1768 Y1.8171
G01 X4.2376 Y1.8260
G01 X4.2989 Y1.8361
G01 X4.3589 Y1.8477
G01 X4.4168 Y1.8607
G01 X4.4750 Y1.8766
