(G-CODE GENERATED BY FLATCAM v8.991 - www.flatcam.org - Version Date: 2019/12/27)

(Name: Gerber_Drill_NPTH.DRL_cnc)
(Type: G-code from Excellon)
(Units: MM)

(Created on Monday, 07 December 2020 at 20:45)

(Feedrate: 30.0 mm/min)
(Feedrate rapids 60.0 mm/min)

(Z_Cut: -3.0 mm)
(Z_Move: 2.0 mm)
(Z Toolchange: 20.0 mm)
(X,Y Toolchange: 0.0000, 0.0000 mm)
(Z Start: None mm)
(Z End: 5.0 mm)
(Steps per circle: 64)
(Preprocessor Excellon: default)

(X range:    1.9360 ...   51.6560  mm)
(Y range:    1.8100 ...   54.0700  mm)

(Spindle Speed: 500.0 RPM)
G21
G90
G94




G01 F30.00
G00 Z2.0000

M03 S500.0
G4 P1.0
G00 X49.6560 Y3.8100
G01 Z-3.0000
G01 Z0
G00 Z2.0000
G00 X3.9360 Y3.8100
G01 Z-3.0000
G01 Z0
G00 Z2.0000
G00 X3.9360 Y52.0700
G01 Z-3.0000
G01 Z0
G00 Z2.0000
G00 X49.6560 Y52.0700
G01 Z-3.0000
G01 Z0
G00 Z2.0000
M05
G00 Z5.00
G00 X0.0 Y0.0

