(G-CODE GENERATED BY FLATCAM v8.991 - www.flatcam.org - Version Date: 2019/12/27)

(Name: Gerber_Drill_PTH.DRL_cnc)
(Type: G-code from Excellon)
(Units: MM)

(Created on Tuesday, 08 December 2020 at 17:09)

(Feedrate: 30.0 mm/min)
(Feedrate rapids 60.0 mm/min)

(Z_Cut: -0.5 mm)
(Z_Move: 2.0 mm)
(Z Toolchange: 20.0 mm)
(X,Y Toolchange: 0.0000, 0.0000 mm)
(Z Start: None mm)
(Z End: 5.0 mm)
(Steps per circle: 64)
(Preprocessor Excellon: default)

(X range:    6.2255 ...   44.3185  mm)
(Y range:    7.9605 ...   47.5655  mm)

(Spindle Speed: 500.0 RPM)
G21
G90
G94




G01 F30.00
G00 Z2.0000

M03 S500.0
G4 P1.0
G00 X24.5100 Y8.2110
G01 Z-0.5000
G01 Z0
G00 Z2.0000
G00 X29.7170 Y8.2550
G01 Z-0.5000
G01 Z0
G00 Z2.0000
G00 X32.2570 Y8.2550
G01 Z-0.5000
G01 Z0
G00 Z2.0000
G00 X32.3840 Y12.0650
G01 Z-0.5000
G01 Z0
G00 Z2.0000
G00 X32.3840 Y14.6050
G01 Z-0.5000
G01 Z0
G00 Z2.0000
G00 X32.2240 Y22.3520
G01 Z-0.5000
G01 Z0
G00 Z2.0000
G00 X32.2240 Y24.8920
G01 Z-0.5000
G01 Z0
G00 Z2.0000
G00 X32.2240 Y27.4320
G01 Z-0.5000
G01 Z0
G00 Z2.0000
G00 X32.2240 Y29.9720
G01 Z-0.5000
G01 Z0
G00 Z2.0000
G00 X38.9880 Y29.9720
G01 Z-0.5000
G01 Z0
G00 Z2.0000
G00 X44.0680 Y29.9720
G01 Z-0.5000
G01 Z0
G00 Z2.0000
G00 X44.0680 Y47.2440
G01 Z-0.5000
G01 Z0
G00 Z2.0000
G00 X41.5280 Y47.2440
G01 Z-0.5000
G01 Z0
G00 Z2.0000
G00 X28.7480 Y43.6160
G01 Z-0.5000
G01 Z0
G00 Z2.0000
G00 X23.7480 Y47.3150
G01 Z-0.5000
G01 Z0
G00 Z2.0000
G00 X18.7490 Y43.6160
G01 Z-0.5000
G01 Z0
G00 Z2.0000
G00 X11.5560 Y37.5920
G01 Z-0.5000
G01 Z0
G00 Z2.0000
G00 X11.5560 Y35.0520
G01 Z-0.5000
G01 Z0
G00 Z2.0000
G00 X6.4760 Y37.5920
G01 Z-0.5000
G01 Z0
G00 Z2.0000
G00 X6.4760 Y35.0520
G01 Z-0.5000
G01 Z0
G00 Z2.0000
G00 X6.4760 Y32.5120
G01 Z-0.5000
G01 Z0
G00 Z2.0000
G00 X6.4760 Y29.9720
G01 Z-0.5000
G01 Z0
G00 Z2.0000
G00 X6.4760 Y27.4320
G01 Z-0.5000
G01 Z0
G00 Z2.0000
G00 X6.4760 Y24.8920
G01 Z-0.5000
G01 Z0
G00 Z2.0000
G00 X6.4760 Y22.3520
G01 Z-0.5000
G01 Z0
G00 Z2.0000
G00 X6.4760 Y19.8120
G01 Z-0.5000
G01 Z0
G00 Z2.0000
G00 X11.5560 Y19.8120
G01 Z-0.5000
G01 Z0
G00 Z2.0000
G00 X11.5560 Y22.3520
G01 Z-0.5000
G01 Z0
G00 Z2.0000
G00 X11.5560 Y24.8920
G01 Z-0.5000
G01 Z0
G00 Z2.0000
G00 X11.5560 Y27.4320
G01 Z-0.5000
G01 Z0
G00 Z2.0000
G00 X11.5560 Y29.9720
G01 Z-0.5000
G01 Z0
G00 Z2.0000
G00 X11.5560 Y32.5120
G01 Z-0.5000
G01 Z0
G00 Z2.0000
G00 X22.0640 Y29.9720
G01 Z-0.5000
G01 Z0
G00 Z2.0000
G00 X22.0640 Y27.4320
G01 Z-0.5000
G01 Z0
G00 Z2.0000
G00 X22.0640 Y24.8920
G01 Z-0.5000
G01 Z0
G00 Z2.0000
G00 X22.0640 Y22.3520
G01 Z-0.5000
G01 Z0
G00 Z2.0000
G00 X24.5100 Y18.7120
G01 Z-0.5000
G01 Z0
G00 Z2.0000
M05
G00 Z5.00
G00 X0.0 Y0.0

