(G-CODE GENERATED BY FLATCAM v8.991 - www.flatcam.org - Version Date: 2019/12/27)

(Name: Gerber_BottomLayer.GBL_cutout_cnc)
(Type: G-code from Geometry)
(Units: MM)

(Created on Monday, 07 December 2020 at 21:08)

(TOOL DIAMETER: 2.4 mm)
(Feedrate: 70.0 mm/min)
(Feedrate_Z: 50.0 mm/min)
(Feedrate rapids 60.0 mm/min)

(Z_Cut: -1.4999999999999987 mm)
(DepthPerCut: 0.5 mm <=>3 passes)
(Z_Move: 2.0 mm)
(Z Toolchange: 20.0 mm)
(X,Y Toolchange: 0.0000, 0.0000 mm)
(Z Start: None mm)
(Z End: 5.0 mm)
(Steps per circle: 64)
(Preprocessor Geometry: default)

(X range:   -1.9440 ...   55.1560  mm)
(Y range:   -1.9440 ...   57.6960  mm)

(Spindle Speed: 1000 RPM)
G21
G90
G94




G01 F70.00
G00 Z2.0000

M03 S1000
G4 P1.0
G00 X21.8100 Y10.6514
G01 F50.00
G01 Z-0.5000
G01 F70.00
G01 X21.6808 Y10.4773
G01 X21.5698 Y10.2921
G01 X21.4775 Y10.0969
G01 X21.4047 Y9.8936
G01 X21.3523 Y9.6842
G01 X21.3206 Y9.4706
G01 X21.3100 Y9.2550
G01 X21.3100 Y7.2120
G01 X21.3206 Y6.9964
G01 X21.3523 Y6.7828
G01 X21.4047 Y6.5734
G01 X21.4775 Y6.3701
G01 X21.5698 Y6.1749
G01 X21.6808 Y5.9897
G01 X21.8094 Y5.8163
G01 X21.9544 Y5.6564
G01 X22.1143 Y5.5114
G01 X22.2877 Y5.3828
G01 X22.4729 Y5.2718
G01 X22.6681 Y5.1795
G01 X22.8714 Y5.1067
G01 X23.0808 Y5.0543
G01 X23.2944 Y5.0226
G01 X23.5100 Y5.0120
G01 X30.5170 Y5.0120
G00 X30.5170 Y5.0120
G01 F50.00
G01 Z-1.0000
G01 F70.00
G01 X23.5100 Y5.0120
G01 X23.2944 Y5.0226
G01 X23.0808 Y5.0543
G01 X22.8714 Y5.1067
G01 X22.6681 Y5.1795
G01 X22.4729 Y5.2718
G01 X22.2877 Y5.3828
G01 X22.1143 Y5.5114
G01 X21.9544 Y5.6564
G01 X21.8094 Y5.8163
G01 X21.6808 Y5.9897
G01 X21.5698 Y6.1749
G01 X21.4775 Y6.3701
G01 X21.4047 Y6.5734
G01 X21.3523 Y6.7828
G01 X21.3206 Y6.9964
G01 X21.3100 Y7.2120
G01 X21.3100 Y9.2550
G01 X21.3206 Y9.4706
G01 X21.3523 Y9.6842
G01 X21.4047 Y9.8936
G01 X21.4775 Y10.0969
G01 X21.5698 Y10.2921
G01 X21.6808 Y10.4773
G01 X21.8100 Y10.6514
G00 X21.8100 Y10.6514
G01 F50.00
G01 Z-1.5000
G01 F70.00
G01 X21.6808 Y10.4773
G01 X21.5698 Y10.2921
G01 X21.4775 Y10.0969
G01 X21.4047 Y9.8936
G01 X21.3523 Y9.6842
G01 X21.3206 Y9.4706
G01 X21.3100 Y9.2550
G01 X21.3100 Y7.2120
G01 X21.3206 Y6.9964
G01 X21.3523 Y6.7828
G01 X21.4047 Y6.5734
G01 X21.4775 Y6.3701
G01 X21.5698 Y6.1749
G01 X21.6808 Y5.9897
G01 X21.8094 Y5.8163
G01 X21.9544 Y5.6564
G01 X22.1143 Y5.5114
G01 X22.2877 Y5.3828
G01 X22.4729 Y5.2718
G01 X22.6681 Y5.1795
G01 X22.8714 Y5.1067
G01 X23.0808 Y5.0543
G01 X23.2944 Y5.0226
G01 X23.5100 Y5.0120
G01 X30.5170 Y5.0120
G00 Z2.0000
G00 X30.5170 Y5.0120
G01 F50.00
G01 Z-0.5000
G01 F70.00
G01 X30.7326 Y5.0226
G01 X30.9462 Y5.0543
G01 X31.1556 Y5.1067
G01 X31.3589 Y5.1795
G01 X31.5541 Y5.2718
G01 X31.7393 Y5.3828
G01 X31.9127 Y5.5114
G01 X32.0726 Y5.6564
G01 X32.2176 Y5.8163
G01 X32.3462 Y5.9897
G01 X32.4572 Y6.1749
G01 X32.5495 Y6.3701
G01 X32.6223 Y6.5734
G01 X32.6747 Y6.7828
G01 X32.7064 Y6.9964
G01 X32.7170 Y7.2120
G01 X32.7170 Y9.2550
G01 X32.7064 Y9.4706
G01 X32.6747 Y9.6842
G01 X32.6223 Y9.8936
G01 X32.5495 Y10.0969
G01 X32.4572 Y10.2921
G01 X32.3462 Y10.4773
G01 X32.2170 Y10.6514
G00 X32.2170 Y10.6514
G01 F50.00
G01 Z-1.0000
G01 F70.00
G01 X32.3462 Y10.4773
G01 X32.4572 Y10.2921
G01 X32.5495 Y10.0969
G01 X32.6223 Y9.8936
G01 X32.6747 Y9.6842
G01 X32.7064 Y9.4706
G01 X32.7170 Y9.2550
G01 X32.7170 Y7.2120
G01 X32.7064 Y6.9964
G01 X32.6747 Y6.7828
G01 X32.6223 Y6.5734
G01 X32.5495 Y6.3701
G01 X32.4572 Y6.1749
G01 X32.3462 Y5.9897
G01 X32.2176 Y5.8163
G01 X32.0726 Y5.6564
G01 X31.9127 Y5.5114
G01 X31.7393 Y5.3828
G01 X31.5541 Y5.2718
G01 X31.3589 Y5.1795
G01 X31.1556 Y5.1067
G01 X30.9462 Y5.0543
G01 X30.7326 Y5.0226
G01 X30.5170 Y5.0120
G00 X30.5170 Y5.0120
G01 F50.00
G01 Z-1.5000
G01 F70.00
G01 X30.7326 Y5.0226
G01 X30.9462 Y5.0543
G01 X31.1556 Y5.1067
G01 X31.3589 Y5.1795
G01 X31.5541 Y5.2718
G01 X31.7393 Y5.3828
G01 X31.9127 Y5.5114
G01 X32.0726 Y5.6564
G01 X32.2176 Y5.8163
G01 X32.3462 Y5.9897
G01 X32.4572 Y6.1749
G01 X32.5495 Y6.3701
G01 X32.6223 Y6.5734
G01 X32.6747 Y6.7828
G01 X32.7064 Y6.9964
G01 X32.7170 Y7.2120
G01 X32.7170 Y9.2550
G01 X32.7064 Y9.4706
G01 X32.6747 Y9.6842
G01 X32.6223 Y9.8936
G01 X32.5495 Y10.0969
G01 X32.4572 Y10.2921
G01 X32.3462 Y10.4773
G01 X32.2170 Y10.6514
G00 Z2.0000
G00 X31.9371 Y10.9335
G01 F50.00
G01 Z-0.5000
G01 F70.00
G01 X31.9127 Y10.9556
G01 X31.7393 Y11.0842
G01 X31.5541 Y11.1952
G01 X31.3589 Y11.2875
G01 X31.1556 Y11.3603
G01 X30.9462 Y11.4127
G01 X30.7326 Y11.4444
G01 X30.5170 Y11.4550
G01 X23.5100 Y11.4550
G01 X23.2944 Y11.4444
G01 X23.0808 Y11.4127
G01 X22.8714 Y11.3603
G01 X22.6681 Y11.2875
G01 X22.4729 Y11.1952
G01 X22.2877 Y11.0842
G01 X22.1143 Y10.9556
G01 X22.0899 Y10.9335
G00 X22.0899 Y10.9335
G01 F50.00
G01 Z-1.0000
G01 F70.00
G01 X22.1143 Y10.9556
G01 X22.2877 Y11.0842
G01 X22.4729 Y11.1952
G01 X22.6681 Y11.2875
G01 X22.8714 Y11.3603
G01 X23.0808 Y11.4127
G01 X23.2944 Y11.4444
G01 X23.5100 Y11.4550
G01 X30.5170 Y11.4550
G01 X30.7326 Y11.4444
G01 X30.9462 Y11.4127
G01 X31.1556 Y11.3603
G01 X31.3589 Y11.2875
G01 X31.5541 Y11.1952
G01 X31.7393 Y11.0842
G01 X31.9127 Y10.9556
G01 X31.9371 Y10.9335
G00 X31.9371 Y10.9335
G01 F50.00
G01 Z-1.5000
G01 F70.00
G01 X31.9127 Y10.9556
G01 X31.7393 Y11.0842
G01 X31.5541 Y11.1952
G01 X31.3589 Y11.2875
G01 X31.1556 Y11.3603
G01 X30.9462 Y11.4127
G01 X30.7326 Y11.4444
G01 X30.5170 Y11.4550
G01 X23.5100 Y11.4550
G01 X23.2944 Y11.4444
G01 X23.0808 Y11.4127
G01 X22.8714 Y11.3603
G01 X22.6681 Y11.2875
G01 X22.4729 Y11.1952
G01 X22.2877 Y11.0842
G01 X22.1143 Y10.9556
G01 X22.0899 Y10.9335
G00 Z2.0000
G00 X25.5100 Y15.5110
G01 F50.00
G01 Z-0.5000
G01 F70.00
G01 X10.5560 Y15.5110
G01 X10.3404 Y15.5216
G01 X10.1268 Y15.5533
G01 X9.9174 Y15.6057
G01 X9.7141 Y15.6785
G01 X9.5189 Y15.7708
G01 X9.3337 Y15.8818
G01 X9.1603 Y16.0104
G01 X9.0004 Y16.1554
G01 X8.8554 Y16.3153
G01 X8.7268 Y16.4887
G01 X8.6158 Y16.6739
G01 X8.5235 Y16.8691
G01 X8.4507 Y17.0724
G01 X8.3983 Y17.2818
G01 X8.3666 Y17.4954
G01 X8.3560 Y17.7110
G01 X8.3560 Y23.3520
G01 X8.3666 Y23.5676
G01 X8.3983 Y23.7812
G01 X8.4507 Y23.9906
G01 X8.5235 Y24.1939
G01 X8.6158 Y24.3891
G01 X8.7268 Y24.5743
G01 X8.8554 Y24.7477
G01 X9.0004 Y24.9076
G01 X9.1603 Y25.0526
G01 X9.3337 Y25.1812
G01 X9.5189 Y25.2922
G01 X9.7141 Y25.3845
G01 X9.9174 Y25.4573
G01 X10.1268 Y25.5097
G01 X10.3404 Y25.5414
G01 X10.5560 Y25.5520
G01 X25.5100 Y25.5520
G01 X25.7256 Y25.5414
G01 X25.9392 Y25.5097
G01 X26.1486 Y25.4573
G01 X26.3519 Y25.3845
G01 X26.5471 Y25.2922
G01 X26.7323 Y25.1812
G01 X26.9057 Y25.0526
G01 X27.0656 Y24.9076
G01 X27.2106 Y24.7477
G01 X27.3392 Y24.5743
G01 X27.4502 Y24.3891
G01 X27.5425 Y24.1939
G01 X27.6153 Y23.9906
G01 X27.6677 Y23.7812
G01 X27.6994 Y23.5676
G01 X27.7100 Y23.3520
G01 X27.7100 Y17.7110
G01 X27.6994 Y17.4954
G01 X27.6677 Y17.2818
G01 X27.6153 Y17.0724
G01 X27.5425 Y16.8691
G01 X27.4502 Y16.6739
G01 X27.3392 Y16.4887
G01 X27.2106 Y16.3153
G01 X27.0656 Y16.1554
G01 X26.9057 Y16.0104
G01 X26.7323 Y15.8818
G01 X26.5471 Y15.7708
G01 X26.3519 Y15.6785
G01 X26.1486 Y15.6057
G01 X25.9392 Y15.5533
G01 X25.7256 Y15.5216
G01 X25.5100 Y15.5110
G00 X25.5100 Y15.5110
G01 F50.00
G01 Z-1.0000
G01 F70.00
G01 X25.7256 Y15.5216
G01 X25.9392 Y15.5533
G01 X26.1486 Y15.6057
G01 X26.3519 Y15.6785
G01 X26.5471 Y15.7708
G01 X26.7323 Y15.8818
G01 X26.9057 Y16.0104
G01 X27.0656 Y16.1554
G01 X27.2106 Y16.3153
G01 X27.3392 Y16.4887
G01 X27.4502 Y16.6739
G01 X27.5425 Y16.8691
G01 X27.6153 Y17.0724
G01 X27.6677 Y17.2818
G01 X27.6994 Y17.4954
G01 X27.7100 Y17.7110
G01 X27.7100 Y23.3520
G01 X27.6994 Y23.5676
G01 X27.6677 Y23.7812
G01 X27.6153 Y23.9906
G01 X27.5425 Y24.1939
G01 X27.4502 Y24.3891
G01 X27.3392 Y24.5743
G01 X27.2106 Y24.7477
G01 X27.0656 Y24.9076
G01 X26.9057 Y25.0526
G01 X26.7323 Y25.1812
G01 X26.5471 Y25.2922
G01 X26.3519 Y25.3845
G01 X26.1486 Y25.4573
G01 X25.9392 Y25.5097
G01 X25.7256 Y25.5414
G01 X25.5100 Y25.5520
G01 X10.5560 Y25.5520
G01 X10.3404 Y25.5414
G01 X10.1268 Y25.5097
G01 X9.9174 Y25.4573
G01 X9.7141 Y25.3845
G01 X9.5189 Y25.2922
G01 X9.3337 Y25.1812
G01 X9.1603 Y25.0526
G01 X9.0004 Y24.9076
G01 X8.8554 Y24.7477
G01 X8.7268 Y24.5743
G01 X8.6158 Y24.3891
G01 X8.5235 Y24.1939
G01 X8.4507 Y23.9906
G01 X8.3983 Y23.7812
G01 X8.3666 Y23.5676
G01 X8.3560 Y23.3520
G01 X8.3560 Y17.7110
G01 X8.3666 Y17.4954
G01 X8.3983 Y17.2818
G01 X8.4507 Y17.0724
G01 X8.5235 Y16.8691
G01 X8.6158 Y16.6739
G01 X8.7268 Y16.4887
G01 X8.8554 Y16.3153
G01 X9.0004 Y16.1554
G01 X9.1603 Y16.0104
G01 X9.3337 Y15.8818
G01 X9.5189 Y15.7708
G01 X9.7141 Y15.6785
G01 X9.9174 Y15.6057
G01 X10.1268 Y15.5533
G01 X10.3404 Y15.5216
G01 X10.5560 Y15.5110
G01 X25.5100 Y15.5110
G00 X25.5100 Y15.5110
G01 F50.00
G01 Z-1.5000
G01 F70.00
G01 X10.5560 Y15.5110
G01 X10.3404 Y15.5216
G01 X10.1268 Y15.5533
G01 X9.9174 Y15.6057
G01 X9.7141 Y15.6785
G01 X9.5189 Y15.7708
G01 X9.3337 Y15.8818
G01 X9.1603 Y16.0104
G01 X9.0004 Y16.1554
G01 X8.8554 Y16.3153
G01 X8.7268 Y16.4887
G01 X8.6158 Y16.6739
G01 X8.5235 Y16.8691
G01 X8.4507 Y17.0724
G01 X8.3983 Y17.2818
G01 X8.3666 Y17.4954
G01 X8.3560 Y17.7110
G01 X8.3560 Y23.3520
G01 X8.3666 Y23.5676
G01 X8.3983 Y23.7812
G01 X8.4507 Y23.9906
G01 X8.5235 Y24.1939
G01 X8.6158 Y24.3891
G01 X8.7268 Y24.5743
G01 X8.8554 Y24.7477
G01 X9.0004 Y24.9076
G01 X9.1603 Y25.0526
G01 X9.3337 Y25.1812
G01 X9.5189 Y25.2922
G01 X9.7141 Y25.3845
G01 X9.9174 Y25.4573
G01 X10.1268 Y25.5097
G01 X10.3404 Y25.5414
G01 X10.5560 Y25.5520
G01 X25.5100 Y25.5520
G01 X25.7256 Y25.5414
G01 X25.9392 Y25.5097
G01 X26.1486 Y25.4573
G01 X26.3519 Y25.3845
G01 X26.5471 Y25.2922
G01 X26.7323 Y25.1812
G01 X26.9057 Y25.0526
G01 X27.0656 Y24.9076
G01 X27.2106 Y24.7477
G01 X27.3392 Y24.5743
G01 X27.4502 Y24.3891
G01 X27.5425 Y24.1939
G01 X27.6153 Y23.9906
G01 X27.6677 Y23.7812
G01 X27.6994 Y23.5676
G01 X27.7100 Y23.3520
G01 X27.7100 Y17.7110
G01 X27.6994 Y17.4954
G01 X27.6677 Y17.2818
G01 X27.6153 Y17.0724
G01 X27.5425 Y16.8691
G01 X27.4502 Y16.6739
G01 X27.3392 Y16.4887
G01 X27.2106 Y16.3153
G01 X27.0656 Y16.1554
G01 X26.9057 Y16.0104
G01 X26.7323 Y15.8818
G01 X26.5471 Y15.7708
G01 X26.3519 Y15.6785
G01 X26.1486 Y15.6057
G01 X25.9392 Y15.5533
G01 X25.7256 Y15.5216
G01 X25.5100 Y15.5110
G00 Z2.0000
G00 X23.0640 Y21.6920
G01 F50.00
G01 Z-0.5000
G01 F70.00
G01 X10.5560 Y21.6920
G01 X10.3404 Y21.7026
G01 X10.1268 Y21.7343
G01 X9.9174 Y21.7867
G01 X9.7141 Y21.8595
G01 X9.5189 Y21.9518
G01 X9.3337 Y22.0628
G01 X9.1603 Y22.1914
G01 X9.0004 Y22.3364
G01 X8.8554 Y22.4963
G01 X8.7268 Y22.6697
G01 X8.6158 Y22.8549
G01 X8.5235 Y23.0501
G01 X8.4507 Y23.2534
G01 X8.3983 Y23.4628
G01 X8.3666 Y23.6764
G01 X8.3560 Y23.8920
G01 X8.3560 Y25.8920
G01 X8.3666 Y26.1076
G01 X8.3983 Y26.3212
G01 X8.4507 Y26.5306
G01 X8.5235 Y26.7339
G01 X8.6158 Y26.9291
G01 X8.7268 Y27.1143
G01 X8.8560 Y27.2884
G00 X8.8560 Y27.2884
G01 F50.00
G01 Z-1.0000
G01 F70.00
G01 X8.7268 Y27.1143
G01 X8.6158 Y26.9291
G01 X8.5235 Y26.7339
G01 X8.4507 Y26.5306
G01 X8.3983 Y26.3212
G01 X8.3666 Y26.1076
G01 X8.3560 Y25.8920
G01 X8.3560 Y23.8920
G01 X8.3666 Y23.6764
G01 X8.3983 Y23.4628
G01 X8.4507 Y23.2534
G01 X8.5235 Y23.0501
G01 X8.6158 Y22.8549
G01 X8.7268 Y22.6697
G01 X8.8554 Y22.4963
G01 X9.0004 Y22.3364
G01 X9.1603 Y22.1914
G01 X9.3337 Y22.0628
G01 X9.5189 Y21.9518
G01 X9.7141 Y21.8595
G01 X9.9174 Y21.7867
G01 X10.1268 Y21.7343
G01 X10.3404 Y21.7026
G01 X10.5560 Y21.6920
G01 X23.0640 Y21.6920
G00 X23.0640 Y21.6920
G01 F50.00
G01 Z-1.5000
G01 F70.00
G01 X10.5560 Y21.6920
G01 X10.3404 Y21.7026
G01 X10.1268 Y21.7343
G01 X9.9174 Y21.7867
G01 X9.7141 Y21.8595
G01 X9.5189 Y21.9518
G01 X9.3337 Y22.0628
G01 X9.1603 Y22.1914
G01 X9.0004 Y22.3364
G01 X8.8554 Y22.4963
G01 X8.7268 Y22.6697
G01 X8.6158 Y22.8549
G01 X8.5235 Y23.0501
G01 X8.4507 Y23.2534
G01 X8.3983 Y23.4628
G01 X8.3666 Y23.6764
G01 X8.3560 Y23.8920
G01 X8.3560 Y25.8920
G01 X8.3666 Y26.1076
G01 X8.3983 Y26.3212
G01 X8.4507 Y26.5306
G01 X8.5235 Y26.7339
G01 X8.6158 Y26.9291
G01 X8.7268 Y27.1143
G01 X8.8560 Y27.2884
G00 Z2.0000
G00 X9.1597 Y27.5920
G01 F50.00
G01 Z-0.5000
G01 F70.00
G01 X9.3337 Y27.7212
G01 X9.5189 Y27.8322
G01 X9.7141 Y27.9245
G01 X9.9174 Y27.9973
G01 X10.1268 Y28.0497
G01 X10.3404 Y28.0814
G01 X10.5560 Y28.0920
G01 X23.0640 Y28.0920
G01 X23.2796 Y28.0814
G01 X23.4932 Y28.0497
G01 X23.7026 Y27.9973
G01 X23.9059 Y27.9245
G01 X24.1011 Y27.8322
G01 X24.2863 Y27.7212
G01 X24.4603 Y27.5920
G00 X24.4603 Y27.5920
G01 F50.00
G01 Z-1.0000
G01 F70.00
G01 X24.2863 Y27.7212
G01 X24.1011 Y27.8322
G01 X23.9059 Y27.9245
G01 X23.7026 Y27.9973
G01 X23.4932 Y28.0497
G01 X23.2796 Y28.0814
G01 X23.0640 Y28.0920
G01 X10.5560 Y28.0920
G01 X10.3404 Y28.0814
G01 X10.1268 Y28.0497
G01 X9.9174 Y27.9973
G01 X9.7141 Y27.9245
G01 X9.5189 Y27.8322
G01 X9.3337 Y27.7212
G01 X9.1597 Y27.5920
G00 X9.1597 Y27.5920
G01 F50.00
G01 Z-1.5000
G01 F70.00
G01 X9.3337 Y27.7212
G01 X9.5189 Y27.8322
G01 X9.7141 Y27.9245
G01 X9.9174 Y27.9973
G01 X10.1268 Y28.0497
G01 X10.3404 Y28.0814
G01 X10.5560 Y28.0920
G01 X23.0640 Y28.0920
G01 X23.2796 Y28.0814
G01 X23.4932 Y28.0497
G01 X23.7026 Y27.9973
G01 X23.9059 Y27.9245
G01 X24.1011 Y27.8322
G01 X24.2863 Y27.7212
G01 X24.4603 Y27.5920
G00 Z2.0000
G00 X24.7640 Y27.2884
G01 F50.00
G01 Z-0.5000
G01 F70.00
G01 X24.8932 Y27.1143
G01 X25.0042 Y26.9291
G01 X25.0965 Y26.7339
G01 X25.1693 Y26.5306
G01 X25.2217 Y26.3212
G01 X25.2534 Y26.1076
G01 X25.2640 Y25.8920
G01 X25.2640 Y23.8920
G01 X25.2534 Y23.6764
G01 X25.2217 Y23.4628
G01 X25.1693 Y23.2534
G01 X25.0965 Y23.0501
G01 X25.0042 Y22.8549
G01 X24.8932 Y22.6697
G01 X24.7646 Y22.4963
G01 X24.6196 Y22.3364
G01 X24.4597 Y22.1914
G01 X24.2863 Y22.0628
G01 X24.1011 Y21.9518
G01 X23.9059 Y21.8595
G01 X23.7026 Y21.7867
G01 X23.4932 Y21.7343
G01 X23.2796 Y21.7026
G01 X23.0640 Y21.6920
G00 X23.0640 Y21.6920
G01 F50.00
G01 Z-1.0000
G01 F70.00
G01 X23.2796 Y21.7026
G01 X23.4932 Y21.7343
G01 X23.7026 Y21.7867
G01 X23.9059 Y21.8595
G01 X24.1011 Y21.9518
G01 X24.2863 Y22.0628
G01 X24.4597 Y22.1914
G01 X24.6196 Y22.3364
G01 X24.7646 Y22.4963
G01 X24.8932 Y22.6697
G01 X25.0042 Y22.8549
G01 X25.0965 Y23.0501
G01 X25.1693 Y23.2534
G01 X25.2217 Y23.4628
G01 X25.2534 Y23.6764
G01 X25.2640 Y23.8920
G01 X25.2640 Y25.8920
G01 X25.2534 Y26.1076
G01 X25.2217 Y26.3212
G01 X25.1693 Y26.5306
G01 X25.0965 Y26.7339
G01 X25.0042 Y26.9291
G01 X24.8932 Y27.1143
G01 X24.7640 Y27.2884
G00 X24.7640 Y27.2884
G01 F50.00
G01 Z-1.5000
G01 F70.00
G01 X24.8932 Y27.1143
G01 X25.0042 Y26.9291
G01 X25.0965 Y26.7339
G01 X25.1693 Y26.5306
G01 X25.2217 Y26.3212
G01 X25.2534 Y26.1076
G01 X25.2640 Y25.8920
G01 X25.2640 Y23.8920
G01 X25.2534 Y23.6764
G01 X25.2217 Y23.4628
G01 X25.1693 Y23.2534
G01 X25.0965 Y23.0501
G01 X25.0042 Y22.8549
G01 X24.8932 Y22.6697
G01 X24.7646 Y22.4963
G01 X24.6196 Y22.3364
G01 X24.4597 Y22.1914
G01 X24.2863 Y22.0628
G01 X24.1011 Y21.9518
G01 X23.9059 Y21.8595
G01 X23.7026 Y21.7867
G01 X23.4932 Y21.7343
G01 X23.2796 Y21.7026
G01 X23.0640 Y21.6920
G00 Z2.0000
G00 X23.0640 Y24.2320
G01 F50.00
G01 Z-0.5000
G01 F70.00
G01 X10.5560 Y24.2320
G01 X10.3404 Y24.2426
G01 X10.1268 Y24.2743
G01 X9.9174 Y24.3267
G01 X9.7141 Y24.3995
G01 X9.5189 Y24.4918
G01 X9.3337 Y24.6028
G01 X9.1603 Y24.7314
G01 X9.0004 Y24.8764
G01 X8.8554 Y25.0363
G01 X8.7268 Y25.2097
G01 X8.6158 Y25.3949
G01 X8.5235 Y25.5901
G01 X8.4507 Y25.7934
G01 X8.3983 Y26.0028
G01 X8.3666 Y26.2164
G01 X8.3560 Y26.4320
G01 X8.3560 Y28.4320
G01 X8.3666 Y28.6476
G01 X8.3983 Y28.8612
G01 X8.4507 Y29.0706
G01 X8.5235 Y29.2739
G01 X8.6158 Y29.4691
G01 X8.7268 Y29.6543
G01 X8.8560 Y29.8284
G00 X8.8560 Y29.8284
G01 F50.00
G01 Z-1.0000
G01 F70.00
G01 X8.7268 Y29.6543
G01 X8.6158 Y29.4691
G01 X8.5235 Y29.2739
G01 X8.4507 Y29.0706
G01 X8.3983 Y28.8612
G01 X8.3666 Y28.6476
G01 X8.3560 Y28.4320
G01 X8.3560 Y26.4320
G01 X8.3666 Y26.2164
G01 X8.3983 Y26.0028
G01 X8.4507 Y25.7934
G01 X8.5235 Y25.5901
G01 X8.6158 Y25.3949
G01 X8.7268 Y25.2097
G01 X8.8554 Y25.0363
G01 X9.0004 Y24.8764
G01 X9.1603 Y24.7314
G01 X9.3337 Y24.6028
G01 X9.5189 Y24.4918
G01 X9.7141 Y24.3995
G01 X9.9174 Y24.3267
G01 X10.1268 Y24.2743
G01 X10.3404 Y24.2426
G01 X10.5560 Y24.2320
G01 X23.0640 Y24.2320
G00 X23.0640 Y24.2320
G01 F50.00
G01 Z-1.5000
G01 F70.00
G01 X10.5560 Y24.2320
G01 X10.3404 Y24.2426
G01 X10.1268 Y24.2743
G01 X9.9174 Y24.3267
G01 X9.7141 Y24.3995
G01 X9.5189 Y24.4918
G01 X9.3337 Y24.6028
G01 X9.1603 Y24.7314
G01 X9.0004 Y24.8764
G01 X8.8554 Y25.0363
G01 X8.7268 Y25.2097
G01 X8.6158 Y25.3949
G01 X8.5235 Y25.5901
G01 X8.4507 Y25.7934
G01 X8.3983 Y26.0028
G01 X8.3666 Y26.2164
G01 X8.3560 Y26.4320
G01 X8.3560 Y28.4320
G01 X8.3666 Y28.6476
G01 X8.3983 Y28.8612
G01 X8.4507 Y29.0706
G01 X8.5235 Y29.2739
G01 X8.6158 Y29.4691
G01 X8.7268 Y29.6543
G01 X8.8560 Y29.8284
G00 Z2.0000
G00 X9.1597 Y30.1320
G01 F50.00
G01 Z-0.5000
G01 F70.00
G01 X9.3337 Y30.2612
G01 X9.5189 Y30.3722
G01 X9.7141 Y30.4645
G01 X9.9174 Y30.5373
G01 X10.1268 Y30.5897
G01 X10.3404 Y30.6214
G01 X10.5560 Y30.6320
G01 X23.0640 Y30.6320
G01 X23.2796 Y30.6214
G01 X23.4932 Y30.5897
G01 X23.7026 Y30.5373
G01 X23.9059 Y30.4645
G01 X24.1011 Y30.3722
G01 X24.2863 Y30.2612
G01 X24.4603 Y30.1320
G00 X24.4603 Y30.1320
G01 F50.00
G01 Z-1.0000
G01 F70.00
G01 X24.2863 Y30.2612
G01 X24.1011 Y30.3722
G01 X23.9059 Y30.4645
G01 X23.7026 Y30.5373
G01 X23.4932 Y30.5897
G01 X23.2796 Y30.6214
G01 X23.0640 Y30.6320
G01 X10.5560 Y30.6320
G01 X10.3404 Y30.6214
G01 X10.1268 Y30.5897
G01 X9.9174 Y30.5373
G01 X9.7141 Y30.4645
G01 X9.5189 Y30.3722
G01 X9.3337 Y30.2612
G01 X9.1597 Y30.1320
G00 X9.1597 Y30.1320
G01 F50.00
G01 Z-1.5000
G01 F70.00
G01 X9.3337 Y30.2612
G01 X9.5189 Y30.3722
G01 X9.7141 Y30.4645
G01 X9.9174 Y30.5373
G01 X10.1268 Y30.5897
G01 X10.3404 Y30.6214
G01 X10.5560 Y30.6320
G01 X23.0640 Y30.6320
G01 X23.2796 Y30.6214
G01 X23.4932 Y30.5897
G01 X23.7026 Y30.5373
G01 X23.9059 Y30.4645
G01 X24.1011 Y30.3722
G01 X24.2863 Y30.2612
G01 X24.4603 Y30.1320
G00 Z2.0000
G00 X24.7640 Y29.8284
G01 F50.00
G01 Z-0.5000
G01 F70.00
G01 X24.8932 Y29.6543
G01 X25.0042 Y29.4691
G01 X25.0965 Y29.2739
G01 X25.1693 Y29.0706
G01 X25.2217 Y28.8612
G01 X25.2534 Y28.6476
G01 X25.2640 Y28.4320
G01 X25.2640 Y26.4320
G01 X25.2534 Y26.2164
G01 X25.2217 Y26.0028
G01 X25.1693 Y25.7934
G01 X25.0965 Y25.5901
G01 X25.0042 Y25.3949
G01 X24.8932 Y25.2097
G01 X24.7646 Y25.0363
G01 X24.6196 Y24.8764
G01 X24.4597 Y24.7314
G01 X24.2863 Y24.6028
G01 X24.1011 Y24.4918
G01 X23.9059 Y24.3995
G01 X23.7026 Y24.3267
G01 X23.4932 Y24.2743
G01 X23.2796 Y24.2426
G01 X23.0640 Y24.2320
G00 X23.0640 Y24.2320
G01 F50.00
G01 Z-1.0000
G01 F70.00
G01 X23.2796 Y24.2426
G01 X23.4932 Y24.2743
G01 X23.7026 Y24.3267
G01 X23.9059 Y24.3995
G01 X24.1011 Y24.4918
G01 X24.2863 Y24.6028
G01 X24.4597 Y24.7314
G01 X24.6196 Y24.8764
G01 X24.7646 Y25.0363
G01 X24.8932 Y25.2097
G01 X25.0042 Y25.3949
G01 X25.0965 Y25.5901
G01 X25.1693 Y25.7934
G01 X25.2217 Y26.0028
G01 X25.2534 Y26.2164
G01 X25.2640 Y26.4320
G01 X25.2640 Y28.4320
G01 X25.2534 Y28.6476
G01 X25.2217 Y28.8612
G01 X25.1693 Y29.0706
G01 X25.0965 Y29.2739
G01 X25.0042 Y29.4691
G01 X24.8932 Y29.6543
G01 X24.7640 Y29.8284
G00 X24.7640 Y29.8284
G01 F50.00
G01 Z-1.5000
G01 F70.00
G01 X24.8932 Y29.6543
G01 X25.0042 Y29.4691
G01 X25.0965 Y29.2739
G01 X25.1693 Y29.0706
G01 X25.2217 Y28.8612
G01 X25.2534 Y28.6476
G01 X25.2640 Y28.4320
G01 X25.2640 Y26.4320
G01 X25.2534 Y26.2164
G01 X25.2217 Y26.0028
G01 X25.1693 Y25.7934
G01 X25.0965 Y25.5901
G01 X25.0042 Y25.3949
G01 X24.8932 Y25.2097
G01 X24.7646 Y25.0363
G01 X24.6196 Y24.8764
G01 X24.4597 Y24.7314
G01 X24.2863 Y24.6028
G01 X24.1011 Y24.4918
G01 X23.9059 Y24.3995
G01 X23.7026 Y24.3267
G01 X23.4932 Y24.2743
G01 X23.2796 Y24.2426
G01 X23.0640 Y24.2320
G00 Z2.0000
G00 X29.7480 Y26.7720
G01 F50.00
G01 Z-0.5000
G01 F70.00
G01 X8.6928 Y26.7720
G01 X8.4771 Y26.7826
G01 X8.2636 Y26.8143
G01 X8.0541 Y26.8667
G01 X7.8509 Y26.9395
G01 X7.6557 Y27.0318
G01 X7.4705 Y27.1428
G01 X7.2971 Y27.2714
G01 X7.1371 Y27.4164
G01 X6.9922 Y27.5763
G01 X6.8635 Y27.7497
G01 X6.7525 Y27.9349
G01 X6.6602 Y28.1301
G01 X6.5875 Y28.3334
G01 X6.5350 Y28.5428
G01 X6.5034 Y28.7564
G01 X6.4928 Y28.9720
G01 X6.4928 Y44.6160
G01 X6.5034 Y44.8316
G01 X6.5350 Y45.0452
G01 X6.5875 Y45.2546
G01 X6.6602 Y45.4579
G01 X6.7525 Y45.6531
G01 X6.8635 Y45.8383
G01 X6.9922 Y46.0117
G01 X7.1371 Y46.1716
G01 X7.2971 Y46.3166
G01 X7.4705 Y46.4452
G01 X7.6557 Y46.5562
G01 X7.8509 Y46.6485
G01 X8.0541 Y46.7213
G01 X8.2636 Y46.7737
G01 X8.4771 Y46.8054
G01 X8.6928 Y46.8160
G01 X29.7480 Y46.8160
G01 X29.9636 Y46.8054
G01 X30.1772 Y46.7737
G01 X30.3866 Y46.7213
G01 X30.5899 Y46.6485
G01 X30.7851 Y46.5562
G01 X30.9703 Y46.4452
G01 X31.1437 Y46.3166
G01 X31.3036 Y46.1716
G01 X31.4486 Y46.0117
G01 X31.5772 Y45.8383
G01 X31.6882 Y45.6531
G01 X31.7805 Y45.4579
G01 X31.8533 Y45.2546
G01 X31.9057 Y45.0452
G01 X31.9374 Y44.8316
G01 X31.9480 Y44.6160
G01 X31.9480 Y28.9720
G01 X31.9374 Y28.7564
G01 X31.9057 Y28.5428
G01 X31.8533 Y28.3334
G01 X31.7805 Y28.1301
G01 X31.6882 Y27.9349
G01 X31.5772 Y27.7497
G01 X31.4486 Y27.5763
G01 X31.3036 Y27.4164
G01 X31.1437 Y27.2714
G01 X30.9703 Y27.1428
G01 X30.7851 Y27.0318
G01 X30.5899 Y26.9395
G01 X30.3866 Y26.8667
G01 X30.1772 Y26.8143
G01 X29.9636 Y26.7826
G01 X29.7480 Y26.7720
G00 X29.7480 Y26.7720
G01 F50.00
G01 Z-1.0000
G01 F70.00
G01 X29.9636 Y26.7826
G01 X30.1772 Y26.8143
G01 X30.3866 Y26.8667
G01 X30.5899 Y26.9395
G01 X30.7851 Y27.0318
G01 X30.9703 Y27.1428
G01 X31.1437 Y27.2714
G01 X31.3036 Y27.4164
G01 X31.4486 Y27.5763
G01 X31.5772 Y27.7497
G01 X31.6882 Y27.9349
G01 X31.7805 Y28.1301
G01 X31.8533 Y28.3334
G01 X31.9057 Y28.5428
G01 X31.9374 Y28.7564
G01 X31.9480 Y28.9720
G01 X31.9480 Y44.6160
G01 X31.9374 Y44.8316
G01 X31.9057 Y45.0452
G01 X31.8533 Y45.2546
G01 X31.7805 Y45.4579
G01 X31.6882 Y45.6531
G01 X31.5772 Y45.8383
G01 X31.4486 Y46.0117
G01 X31.3036 Y46.1716
G01 X31.1437 Y46.3166
G01 X30.9703 Y46.4452
G01 X30.7851 Y46.5562
G01 X30.5899 Y46.6485
G01 X30.3866 Y46.7213
G01 X30.1772 Y46.7737
G01 X29.9636 Y46.8054
G01 X29.7480 Y46.8160
G01 X8.6928 Y46.8160
G01 X8.4771 Y46.8054
G01 X8.2636 Y46.7737
G01 X8.0541 Y46.7213
G01 X7.8509 Y46.6485
G01 X7.6557 Y46.5562
G01 X7.4705 Y46.4452
G01 X7.2971 Y46.3166
G01 X7.1371 Y46.1716
G01 X6.9922 Y46.0117
G01 X6.8635 Y45.8383
G01 X6.7525 Y45.6531
G01 X6.6602 Y45.4579
G01 X6.5875 Y45.2546
G01 X6.5350 Y45.0452
G01 X6.5034 Y44.8316
G01 X6.4928 Y44.6160
G01 X6.4928 Y28.9720
G01 X6.5034 Y28.7564
G01 X6.5350 Y28.5428
G01 X6.5875 Y28.3334
G01 X6.6602 Y28.1301
G01 X6.7525 Y27.9349
G01 X6.8635 Y27.7497
G01 X6.9922 Y27.5763
G01 X7.1371 Y27.4164
G01 X7.2971 Y27.2714
G01 X7.4705 Y27.1428
G01 X7.6557 Y27.0318
G01 X7.8509 Y26.9395
G01 X8.0541 Y26.8667
G01 X8.2636 Y26.8143
G01 X8.4771 Y26.7826
G01 X8.6928 Y26.7720
G01 X29.7480 Y26.7720
G00 X29.7480 Y26.7720
G01 F50.00
G01 Z-1.5000
G01 F70.00
G01 X8.6928 Y26.7720
G01 X8.4771 Y26.7826
G01 X8.2636 Y26.8143
G01 X8.0541 Y26.8667
G01 X7.8509 Y26.9395
G01 X7.6557 Y27.0318
G01 X7.4705 Y27.1428
G01 X7.2971 Y27.2714
G01 X7.1371 Y27.4164
G01 X6.9922 Y27.5763
G01 X6.8635 Y27.7497
G01 X6.7525 Y27.9349
G01 X6.6602 Y28.1301
G01 X6.5875 Y28.3334
G01 X6.5350 Y28.5428
G01 X6.5034 Y28.7564
G01 X6.4928 Y28.9720
G01 X6.4928 Y44.6160
G01 X6.5034 Y44.8316
G01 X6.5350 Y45.0452
G01 X6.5875 Y45.2546
G01 X6.6602 Y45.4579
G01 X6.7525 Y45.6531
G01 X6.8635 Y45.8383
G01 X6.9922 Y46.0117
G01 X7.1371 Y46.1716
G01 X7.2971 Y46.3166
G01 X7.4705 Y46.4452
G01 X7.6557 Y46.5562
G01 X7.8509 Y46.6485
G01 X8.0541 Y46.7213
G01 X8.2636 Y46.7737
G01 X8.4771 Y46.8054
G01 X8.6928 Y46.8160
G01 X29.7480 Y46.8160
G01 X29.9636 Y46.8054
G01 X30.1772 Y46.7737
G01 X30.3866 Y46.7213
G01 X30.5899 Y46.6485
G01 X30.7851 Y46.5562
G01 X30.9703 Y46.4452
G01 X31.1437 Y46.3166
G01 X31.3036 Y46.1716
G01 X31.4486 Y46.0117
G01 X31.5772 Y45.8383
G01 X31.6882 Y45.6531
G01 X31.7805 Y45.4579
G01 X31.8533 Y45.2546
G01 X31.9057 Y45.0452
G01 X31.9374 Y44.8316
G01 X31.9480 Y44.6160
G01 X31.9480 Y28.9720
G01 X31.9374 Y28.7564
G01 X31.9057 Y28.5428
G01 X31.8533 Y28.3334
G01 X31.7805 Y28.1301
G01 X31.6882 Y27.9349
G01 X31.5772 Y27.7497
G01 X31.4486 Y27.5763
G01 X31.3036 Y27.4164
G01 X31.1437 Y27.2714
G01 X30.9703 Y27.1428
G01 X30.7851 Y27.0318
G01 X30.5899 Y26.9395
G01 X30.3866 Y26.8667
G01 X30.1772 Y26.8143
G01 X29.9636 Y26.7826
G01 X29.7480 Y26.7720
G00 Z2.0000
G00 X33.2240 Y24.2320
G01 F50.00
G01 Z-0.5000
G01 F70.00
G01 X10.5560 Y24.2320
G01 X10.3404 Y24.2426
G01 X10.1268 Y24.2743
G01 X9.9174 Y24.3267
G01 X9.7141 Y24.3995
G01 X9.5189 Y24.4918
G01 X9.3337 Y24.6028
G01 X9.1603 Y24.7314
G01 X9.0004 Y24.8764
G01 X8.8554 Y25.0363
G01 X8.7268 Y25.2097
G01 X8.6158 Y25.3949
G01 X8.5235 Y25.5901
G01 X8.4507 Y25.7934
G01 X8.3983 Y26.0028
G01 X8.3666 Y26.2164
G01 X8.3560 Y26.4320
G01 X8.3560 Y36.0520
G01 X8.3666 Y36.2676
G01 X8.3983 Y36.4812
G01 X8.4507 Y36.6906
G01 X8.5235 Y36.8939
G01 X8.6158 Y37.0891
G01 X8.7268 Y37.2743
G01 X8.8554 Y37.4477
G01 X9.0004 Y37.6076
G01 X9.1603 Y37.7526
G01 X9.3337 Y37.8812
G01 X9.5189 Y37.9922
G01 X9.7141 Y38.0845
G01 X9.9174 Y38.1573
G01 X10.1268 Y38.2097
G01 X10.3404 Y38.2414
G01 X10.5560 Y38.2520
G01 X33.2240 Y38.2520
G01 X33.4396 Y38.2414
G01 X33.6532 Y38.2097
G01 X33.8626 Y38.1573
G01 X34.0659 Y38.0845
G01 X34.2611 Y37.9922
G01 X34.4463 Y37.8812
G01 X34.6197 Y37.7526
G01 X34.7796 Y37.6076
G01 X34.9246 Y37.4477
G01 X35.0532 Y37.2743
G01 X35.1642 Y37.0891
G01 X35.2565 Y36.8939
G01 X35.3293 Y36.6906
G01 X35.3817 Y36.4812
G01 X35.4134 Y36.2676
G01 X35.4240 Y36.0520
G01 X35.4240 Y26.4320
G01 X35.4134 Y26.2164
G01 X35.3817 Y26.0028
G01 X35.3293 Y25.7934
G01 X35.2565 Y25.5901
G01 X35.1642 Y25.3949
G01 X35.0532 Y25.2097
G01 X34.9246 Y25.0363
G01 X34.7796 Y24.8764
G01 X34.6197 Y24.7314
G01 X34.4463 Y24.6028
G01 X34.2611 Y24.4918
G01 X34.0659 Y24.3995
G01 X33.8626 Y24.3267
G01 X33.6532 Y24.2743
G01 X33.4396 Y24.2426
G01 X33.2240 Y24.2320
G00 X33.2240 Y24.2320
G01 F50.00
G01 Z-1.0000
G01 F70.00
G01 X33.4396 Y24.2426
G01 X33.6532 Y24.2743
G01 X33.8626 Y24.3267
G01 X34.0659 Y24.3995
G01 X34.2611 Y24.4918
G01 X34.4463 Y24.6028
G01 X34.6197 Y24.7314
G01 X34.7796 Y24.8764
G01 X34.9246 Y25.0363
G01 X35.0532 Y25.2097
G01 X35.1642 Y25.3949
G01 X35.2565 Y25.5901
G01 X35.3293 Y25.7934
G01 X35.3817 Y26.0028
G01 X35.4134 Y26.2164
G01 X35.4240 Y26.4320
G01 X35.4240 Y36.0520
G01 X35.4134 Y36.2676
G01 X35.3817 Y36.4812
G01 X35.3293 Y36.6906
G01 X35.2565 Y36.8939
G01 X35.1642 Y37.0891
G01 X35.0532 Y37.2743
G01 X34.9246 Y37.4477
G01 X34.7796 Y37.6076
G01 X34.6197 Y37.7526
G01 X34.4463 Y37.8812
G01 X34.2611 Y37.9922
G01 X34.0659 Y38.0845
G01 X33.8626 Y38.1573
G01 X33.6532 Y38.2097
G01 X33.4396 Y38.2414
G01 X33.2240 Y38.2520
G01 X10.5560 Y38.2520
G01 X10.3404 Y38.2414
G01 X10.1268 Y38.2097
G01 X9.9174 Y38.1573
G01 X9.7141 Y38.0845
G01 X9.5189 Y37.9922
G01 X9.3337 Y37.8812
G01 X9.1603 Y37.7526
G01 X9.0004 Y37.6076
G01 X8.8554 Y37.4477
G01 X8.7268 Y37.2743
G01 X8.6158 Y37.0891
G01 X8.5235 Y36.8939
G01 X8.4507 Y36.6906
G01 X8.3983 Y36.4812
G01 X8.3666 Y36.2676
G01 X8.3560 Y36.0520
G01 X8.3560 Y26.4320
G01 X8.3666 Y26.2164
G01 X8.3983 Y26.0028
G01 X8.4507 Y25.7934
G01 X8.5235 Y25.5901
G01 X8.6158 Y25.3949
G01 X8.7268 Y25.2097
G01 X8.8554 Y25.0363
G01 X9.0004 Y24.8764
G01 X9.1603 Y24.7314
G01 X9.3337 Y24.6028
G01 X9.5189 Y24.4918
G01 X9.7141 Y24.3995
G01 X9.9174 Y24.3267
G01 X10.1268 Y24.2743
G01 X10.3404 Y24.2426
G01 X10.5560 Y24.2320
G01 X33.2240 Y24.2320
G00 X33.2240 Y24.2320
G01 F50.00
G01 Z-1.5000
G01 F70.00
G01 X10.5560 Y24.2320
G01 X10.3404 Y24.2426
G01 X10.1268 Y24.2743
G01 X9.9174 Y24.3267
G01 X9.7141 Y24.3995
G01 X9.5189 Y24.4918
G01 X9.3337 Y24.6028
G01 X9.1603 Y24.7314
G01 X9.0004 Y24.8764
G01 X8.8554 Y25.0363
G01 X8.7268 Y25.2097
G01 X8.6158 Y25.3949
G01 X8.5235 Y25.5901
G01 X8.4507 Y25.7934
G01 X8.3983 Y26.0028
G01 X8.3666 Y26.2164
G01 X8.3560 Y26.4320
G01 X8.3560 Y36.0520
G01 X8.3666 Y36.2676
G01 X8.3983 Y36.4812
G01 X8.4507 Y36.6906
G01 X8.5235 Y36.8939
G01 X8.6158 Y37.0891
G01 X8.7268 Y37.2743
G01 X8.8554 Y37.4477
G01 X9.0004 Y37.6076
G01 X9.1603 Y37.7526
G01 X9.3337 Y37.8812
G01 X9.5189 Y37.9922
G01 X9.7141 Y38.0845
G01 X9.9174 Y38.1573
G01 X10.1268 Y38.2097
G01 X10.3404 Y38.2414
G01 X10.5560 Y38.2520
G01 X33.2240 Y38.2520
G01 X33.4396 Y38.2414
G01 X33.6532 Y38.2097
G01 X33.8626 Y38.1573
G01 X34.0659 Y38.0845
G01 X34.2611 Y37.9922
G01 X34.4463 Y37.8812
G01 X34.6197 Y37.7526
G01 X34.7796 Y37.6076
G01 X34.9246 Y37.4477
G01 X35.0532 Y37.2743
G01 X35.1642 Y37.0891
G01 X35.2565 Y36.8939
G01 X35.3293 Y36.6906
G01 X35.3817 Y36.4812
G01 X35.4134 Y36.2676
G01 X35.4240 Y36.0520
G01 X35.4240 Y26.4320
G01 X35.4134 Y26.2164
G01 X35.3817 Y26.0028
G01 X35.3293 Y25.7934
G01 X35.2565 Y25.5901
G01 X35.1642 Y25.3949
G01 X35.0532 Y25.2097
G01 X34.9246 Y25.0363
G01 X34.7796 Y24.8764
G01 X34.6197 Y24.7314
G01 X34.4463 Y24.6028
G01 X34.2611 Y24.4918
G01 X34.0659 Y24.3995
G01 X33.8626 Y24.3267
G01 X33.6532 Y24.2743
G01 X33.4396 Y24.2426
G01 X33.2240 Y24.2320
G00 Z2.0000
G00 X33.2240 Y21.6920
G01 F50.00
G01 Z-0.5000
G01 F70.00
G01 X10.5560 Y21.6920
G01 X10.3404 Y21.7026
G01 X10.1268 Y21.7343
G01 X9.9174 Y21.7867
G01 X9.7141 Y21.8595
G01 X9.5189 Y21.9518
G01 X9.3337 Y22.0628
G01 X9.1603 Y22.1914
G01 X9.0004 Y22.3364
G01 X8.8554 Y22.4963
G01 X8.7268 Y22.6697
G01 X8.6158 Y22.8549
G01 X8.5235 Y23.0501
G01 X8.4507 Y23.2534
G01 X8.3983 Y23.4628
G01 X8.3666 Y23.6764
G01 X8.3560 Y23.8920
G01 X8.3560 Y33.5120
G01 X8.3666 Y33.7276
G01 X8.3983 Y33.9412
G01 X8.4507 Y34.1506
G01 X8.5235 Y34.3539
G01 X8.6158 Y34.5491
G01 X8.7268 Y34.7343
G01 X8.8554 Y34.9077
G01 X9.0004 Y35.0676
G01 X9.1603 Y35.2126
G01 X9.3337 Y35.3412
G01 X9.5189 Y35.4522
G01 X9.7141 Y35.5445
G01 X9.9174 Y35.6173
G01 X10.1268 Y35.6697
G01 X10.3404 Y35.7014
G01 X10.5560 Y35.7120
G01 X33.2240 Y35.7120
G01 X33.4396 Y35.7014
G01 X33.6532 Y35.6697
G01 X33.8626 Y35.6173
G01 X34.0659 Y35.5445
G01 X34.2611 Y35.4522
G01 X34.4463 Y35.3412
G01 X34.6197 Y35.2126
G01 X34.7796 Y35.0676
G01 X34.9246 Y34.9077
G01 X35.0532 Y34.7343
G01 X35.1642 Y34.5491
G01 X35.2565 Y34.3539
G01 X35.3293 Y34.1506
G01 X35.3817 Y33.9412
G01 X35.4134 Y33.7276
G01 X35.4240 Y33.5120
G01 X35.4240 Y23.8920
G01 X35.4134 Y23.6764
G01 X35.3817 Y23.4628
G01 X35.3293 Y23.2534
G01 X35.2565 Y23.0501
G01 X35.1642 Y22.8549
G01 X35.0532 Y22.6697
G01 X34.9246 Y22.4963
G01 X34.7796 Y22.3364
G01 X34.6197 Y22.1914
G01 X34.4463 Y22.0628
G01 X34.2611 Y21.9518
G01 X34.0659 Y21.8595
G01 X33.8626 Y21.7867
G01 X33.6532 Y21.7343
G01 X33.4396 Y21.7026
G01 X33.2240 Y21.6920
G00 X33.2240 Y21.6920
G01 F50.00
G01 Z-1.0000
G01 F70.00
G01 X33.4396 Y21.7026
G01 X33.6532 Y21.7343
G01 X33.8626 Y21.7867
G01 X34.0659 Y21.8595
G01 X34.2611 Y21.9518
G01 X34.4463 Y22.0628
G01 X34.6197 Y22.1914
G01 X34.7796 Y22.3364
G01 X34.9246 Y22.4963
G01 X35.0532 Y22.6697
G01 X35.1642 Y22.8549
G01 X35.2565 Y23.0501
G01 X35.3293 Y23.2534
G01 X35.3817 Y23.4628
G01 X35.4134 Y23.6764
G01 X35.4240 Y23.8920
G01 X35.4240 Y33.5120
G01 X35.4134 Y33.7276
G01 X35.3817 Y33.9412
G01 X35.3293 Y34.1506
G01 X35.2565 Y34.3539
G01 X35.1642 Y34.5491
G01 X35.0532 Y34.7343
G01 X34.9246 Y34.9077
G01 X34.7796 Y35.0676
G01 X34.6197 Y35.2126
G01 X34.4463 Y35.3412
G01 X34.2611 Y35.4522
G01 X34.0659 Y35.5445
G01 X33.8626 Y35.6173
G01 X33.6532 Y35.6697
G01 X33.4396 Y35.7014
G01 X33.2240 Y35.7120
G01 X10.5560 Y35.7120
G01 X10.3404 Y35.7014
G01 X10.1268 Y35.6697
G01 X9.9174 Y35.6173
G01 X9.7141 Y35.5445
G01 X9.5189 Y35.4522
G01 X9.3337 Y35.3412
G01 X9.1603 Y35.2126
G01 X9.0004 Y35.0676
G01 X8.8554 Y34.9077
G01 X8.7268 Y34.7343
G01 X8.6158 Y34.5491
G01 X8.5235 Y34.3539
G01 X8.4507 Y34.1506
G01 X8.3983 Y33.9412
G01 X8.3666 Y33.7276
G01 X8.3560 Y33.5120
G01 X8.3560 Y23.8920
G01 X8.3666 Y23.6764
G01 X8.3983 Y23.4628
G01 X8.4507 Y23.2534
G01 X8.5235 Y23.0501
G01 X8.6158 Y22.8549
G01 X8.7268 Y22.6697
G01 X8.8554 Y22.4963
G01 X9.0004 Y22.3364
G01 X9.1603 Y22.1914
G01 X9.3337 Y22.0628
G01 X9.5189 Y21.9518
G01 X9.7141 Y21.8595
G01 X9.9174 Y21.7867
G01 X10.1268 Y21.7343
G01 X10.3404 Y21.7026
G01 X10.5560 Y21.6920
G01 X33.2240 Y21.6920
G00 X33.2240 Y21.6920
G01 F50.00
G01 Z-1.5000
G01 F70.00
G01 X10.5560 Y21.6920
G01 X10.3404 Y21.7026
G01 X10.1268 Y21.7343
G01 X9.9174 Y21.7867
G01 X9.7141 Y21.8595
G01 X9.5189 Y21.9518
G01 X9.3337 Y22.0628
G01 X9.1603 Y22.1914
G01 X9.0004 Y22.3364
G01 X8.8554 Y22.4963
G01 X8.7268 Y22.6697
G01 X8.6158 Y22.8549
G01 X8.5235 Y23.0501
G01 X8.4507 Y23.2534
G01 X8.3983 Y23.4628
G01 X8.3666 Y23.6764
G01 X8.3560 Y23.8920
G01 X8.3560 Y33.5120
G01 X8.3666 Y33.7276
G01 X8.3983 Y33.9412
G01 X8.4507 Y34.1506
G01 X8.5235 Y34.3539
G01 X8.6158 Y34.5491
G01 X8.7268 Y34.7343
G01 X8.8554 Y34.9077
G01 X9.0004 Y35.0676
G01 X9.1603 Y35.2126
G01 X9.3337 Y35.3412
G01 X9.5189 Y35.4522
G01 X9.7141 Y35.5445
G01 X9.9174 Y35.6173
G01 X10.1268 Y35.6697
G01 X10.3404 Y35.7014
G01 X10.5560 Y35.7120
G01 X33.2240 Y35.7120
G01 X33.4396 Y35.7014
G01 X33.6532 Y35.6697
G01 X33.8626 Y35.6173
G01 X34.0659 Y35.5445
G01 X34.2611 Y35.4522
G01 X34.4463 Y35.3412
G01 X34.6197 Y35.2126
G01 X34.7796 Y35.0676
G01 X34.9246 Y34.9077
G01 X35.0532 Y34.7343
G01 X35.1642 Y34.5491
G01 X35.2565 Y34.3539
G01 X35.3293 Y34.1506
G01 X35.3817 Y33.9412
G01 X35.4134 Y33.7276
G01 X35.4240 Y33.5120
G01 X35.4240 Y23.8920
G01 X35.4134 Y23.6764
G01 X35.3817 Y23.4628
G01 X35.3293 Y23.2534
G01 X35.2565 Y23.0501
G01 X35.1642 Y22.8549
G01 X35.0532 Y22.6697
G01 X34.9246 Y22.4963
G01 X34.7796 Y22.3364
G01 X34.6197 Y22.1914
G01 X34.4463 Y22.0628
G01 X34.2611 Y21.9518
G01 X34.0659 Y21.8595
G01 X33.8626 Y21.7867
G01 X33.6532 Y21.7343
G01 X33.4396 Y21.7026
G01 X33.2240 Y21.6920
G00 Z2.0000
G00 X34.7804 Y14.7650
G01 F50.00
G01 Z-0.5000
G01 F70.00
G01 X34.6063 Y14.8942
G01 X34.4211 Y15.0052
G01 X34.2259 Y15.0975
G01 X34.0226 Y15.1703
G01 X33.8132 Y15.2227
G01 X33.5996 Y15.2544
G01 X33.3840 Y15.2650
G01 X31.2570 Y15.2650
G01 X31.0414 Y15.2544
G01 X30.8278 Y15.2227
G01 X30.6184 Y15.1703
G01 X30.4151 Y15.0975
G01 X30.2199 Y15.0052
G01 X30.0347 Y14.8942
G01 X29.8613 Y14.7656
G01 X29.7014 Y14.6206
G01 X29.5564 Y14.4607
G01 X29.4278 Y14.2873
G01 X29.3168 Y14.1021
G01 X29.2245 Y13.9069
G01 X29.1517 Y13.7036
G01 X29.0993 Y13.4942
G01 X29.0676 Y13.2806
G01 X29.0570 Y13.0650
G01 X29.0570 Y7.2550
G01 X29.0676 Y7.0394
G01 X29.0993 Y6.8258
G01 X29.1517 Y6.6164
G01 X29.2245 Y6.4131
G01 X29.3168 Y6.2179
G01 X29.4278 Y6.0327
G01 X29.5564 Y5.8593
G01 X29.7014 Y5.6994
G01 X29.8613 Y5.5544
G01 X30.0347 Y5.4258
G01 X30.2199 Y5.3148
G01 X30.4151 Y5.2225
G01 X30.6184 Y5.1497
G01 X30.8278 Y5.0973
G01 X31.0414 Y5.0656
G01 X31.2570 Y5.0550
G01 X33.3840 Y5.0550
G00 X33.3840 Y5.0550
G01 F50.00
G01 Z-1.0000
G01 F70.00
G01 X31.2570 Y5.0550
G01 X31.0414 Y5.0656
G01 X30.8278 Y5.0973
G01 X30.6184 Y5.1497
G01 X30.4151 Y5.2225
G01 X30.2199 Y5.3148
G01 X30.0347 Y5.4258
G01 X29.8613 Y5.5544
G01 X29.7014 Y5.6994
G01 X29.5564 Y5.8593
G01 X29.4278 Y6.0327
G01 X29.3168 Y6.2179
G01 X29.2245 Y6.4131
G01 X29.1517 Y6.6164
G01 X29.0993 Y6.8258
G01 X29.0676 Y7.0394
G01 X29.0570 Y7.2550
G01 X29.0570 Y13.0650
G01 X29.0676 Y13.2806
G01 X29.0993 Y13.4942
G01 X29.1517 Y13.7036
G01 X29.2245 Y13.9069
G01 X29.3168 Y14.1021
G01 X29.4278 Y14.2873
G01 X29.5564 Y14.4607
G01 X29.7014 Y14.6206
G01 X29.8613 Y14.7656
G01 X30.0347 Y14.8942
G01 X30.2199 Y15.0052
G01 X30.4151 Y15.0975
G01 X30.6184 Y15.1703
G01 X30.8278 Y15.2227
G01 X31.0414 Y15.2544
G01 X31.2570 Y15.2650
G01 X33.3840 Y15.2650
G01 X33.5996 Y15.2544
G01 X33.8132 Y15.2227
G01 X34.0226 Y15.1703
G01 X34.2259 Y15.0975
G01 X34.4211 Y15.0052
G01 X34.6063 Y14.8942
G01 X34.7804 Y14.7650
G00 X34.7804 Y14.7650
G01 F50.00
G01 Z-1.5000
G01 F70.00
G01 X34.6063 Y14.8942
G01 X34.4211 Y15.0052
G01 X34.2259 Y15.0975
G01 X34.0226 Y15.1703
G01 X33.8132 Y15.2227
G01 X33.5996 Y15.2544
G01 X33.3840 Y15.2650
G01 X31.2570 Y15.2650
G01 X31.0414 Y15.2544
G01 X30.8278 Y15.2227
G01 X30.6184 Y15.1703
G01 X30.4151 Y15.0975
G01 X30.2199 Y15.0052
G01 X30.0347 Y14.8942
G01 X29.8613 Y14.7656
G01 X29.7014 Y14.6206
G01 X29.5564 Y14.4607
G01 X29.4278 Y14.2873
G01 X29.3168 Y14.1021
G01 X29.2245 Y13.9069
G01 X29.1517 Y13.7036
G01 X29.0993 Y13.4942
G01 X29.0676 Y13.2806
G01 X29.0570 Y13.0650
G01 X29.0570 Y7.2550
G01 X29.0676 Y7.0394
G01 X29.0993 Y6.8258
G01 X29.1517 Y6.6164
G01 X29.2245 Y6.4131
G01 X29.3168 Y6.2179
G01 X29.4278 Y6.0327
G01 X29.5564 Y5.8593
G01 X29.7014 Y5.6994
G01 X29.8613 Y5.5544
G01 X30.0347 Y5.4258
G01 X30.2199 Y5.3148
G01 X30.4151 Y5.2225
G01 X30.6184 Y5.1497
G01 X30.8278 Y5.0973
G01 X31.0414 Y5.0656
G01 X31.2570 Y5.0550
G01 X33.3840 Y5.0550
G00 Z2.0000
G00 X33.3840 Y5.0550
G01 F50.00
G01 Z-0.5000
G01 F70.00
G01 X33.5996 Y5.0656
G01 X33.8132 Y5.0973
G01 X34.0226 Y5.1497
G01 X34.2259 Y5.2225
G01 X34.4211 Y5.3148
G01 X34.6063 Y5.4258
G01 X34.7804 Y5.5550
G00 X34.7804 Y5.5550
G01 F50.00
G01 Z-1.0000
G01 F70.00
G01 X34.6063 Y5.4258
G01 X34.4211 Y5.3148
G01 X34.2259 Y5.2225
G01 X34.0226 Y5.1497
G01 X33.8132 Y5.0973
G01 X33.5996 Y5.0656
G01 X33.3840 Y5.0550
G00 X33.3840 Y5.0550
G01 F50.00
G01 Z-1.5000
G01 F70.00
G01 X33.5996 Y5.0656
G01 X33.8132 Y5.0973
G01 X34.0226 Y5.1497
G01 X34.2259 Y5.2225
G01 X34.4211 Y5.3148
G01 X34.6063 Y5.4258
G01 X34.7804 Y5.5550
G00 Z2.0000
G00 X35.0205 Y5.7886
G01 F50.00
G01 Z-0.5000
G01 F70.00
G01 X35.0846 Y5.8593
G01 X35.2132 Y6.0327
G01 X35.3242 Y6.2179
G01 X35.4165 Y6.4131
G01 X35.4893 Y6.6164
G01 X35.5417 Y6.8258
G01 X35.5734 Y7.0394
G01 X35.5840 Y7.2550
G01 X35.5840 Y13.0650
G01 X35.5734 Y13.2806
G01 X35.5417 Y13.4942
G01 X35.4893 Y13.7036
G01 X35.4165 Y13.9069
G01 X35.3242 Y14.1021
G01 X35.2132 Y14.2873
G01 X35.0846 Y14.4607
G01 X35.0205 Y14.5314
G00 X35.0205 Y14.5314
G01 F50.00
G01 Z-1.0000
G01 F70.00
G01 X35.0846 Y14.4607
G01 X35.2132 Y14.2873
G01 X35.3242 Y14.1021
G01 X35.4165 Y13.9069
G01 X35.4893 Y13.7036
G01 X35.5417 Y13.4942
G01 X35.5734 Y13.2806
G01 X35.5840 Y13.0650
G01 X35.5840 Y7.2550
G01 X35.5734 Y7.0394
G01 X35.5417 Y6.8258
G01 X35.4893 Y6.6164
G01 X35.4165 Y6.4131
G01 X35.3242 Y6.2179
G01 X35.2132 Y6.0327
G01 X35.0846 Y5.8593
G01 X35.0205 Y5.7886
G00 X35.0205 Y5.7886
G01 F50.00
G01 Z-1.5000
G01 F70.00
G01 X35.0846 Y5.8593
G01 X35.2132 Y6.0327
G01 X35.3242 Y6.2179
G01 X35.4165 Y6.4131
G01 X35.4893 Y6.6164
G01 X35.5417 Y6.8258
G01 X35.5734 Y7.0394
G01 X35.5840 Y7.2550
G01 X35.5840 Y13.0650
G01 X35.5734 Y13.2806
G01 X35.5417 Y13.4942
G01 X35.4893 Y13.7036
G01 X35.4165 Y13.9069
G01 X35.3242 Y14.1021
G01 X35.2132 Y14.2873
G01 X35.0846 Y14.4607
G01 X35.0205 Y14.5314
G00 Z2.0000
G00 X39.9880 Y26.7720
G01 F50.00
G01 Z-0.5000
G01 F70.00
G01 X10.5560 Y26.7720
G01 X10.3404 Y26.7826
G01 X10.1268 Y26.8143
G01 X9.9174 Y26.8667
G01 X9.7141 Y26.9395
G01 X9.5189 Y27.0318
G01 X9.3337 Y27.1428
G01 X9.1603 Y27.2714
G01 X9.0004 Y27.4164
G01 X8.8554 Y27.5763
G01 X8.7268 Y27.7497
G01 X8.6158 Y27.9349
G01 X8.5235 Y28.1301
G01 X8.4507 Y28.3334
G01 X8.3983 Y28.5428
G01 X8.3666 Y28.7564
G01 X8.3560 Y28.9720
G01 X8.3560 Y38.3794
G01 X8.3666 Y38.5950
G01 X8.3983 Y38.8086
G01 X8.4507 Y39.0180
G01 X8.5235 Y39.2213
G01 X8.6158 Y39.4165
G01 X8.7268 Y39.6017
G01 X8.8554 Y39.7751
G01 X9.0004 Y39.9350
G01 X9.1603 Y40.0800
G01 X9.3337 Y40.2086
G01 X9.5189 Y40.3196
G01 X9.7141 Y40.4119
G01 X9.9174 Y40.4847
G01 X10.1268 Y40.5371
G01 X10.3404 Y40.5688
G01 X10.5560 Y40.5794
G01 X39.9880 Y40.5794
G01 X40.2036 Y40.5688
G01 X40.4172 Y40.5371
G01 X40.6266 Y40.4847
G01 X40.8299 Y40.4119
G01 X41.0251 Y40.3196
G01 X41.2103 Y40.2086
G01 X41.3837 Y40.0800
G01 X41.5436 Y39.9350
G01 X41.6886 Y39.7751
G01 X41.8172 Y39.6017
G01 X41.9282 Y39.4165
G01 X42.0205 Y39.2213
G01 X42.0933 Y39.0180
G01 X42.1457 Y38.8086
G01 X42.1774 Y38.5950
G01 X42.1880 Y38.3794
G01 X42.1880 Y28.9720
G01 X42.1774 Y28.7564
G01 X42.1457 Y28.5428
G01 X42.0933 Y28.3334
G01 X42.0205 Y28.1301
G01 X41.9282 Y27.9349
G01 X41.8172 Y27.7497
G01 X41.6886 Y27.5763
G01 X41.5436 Y27.4164
G01 X41.3837 Y27.2714
G01 X41.2103 Y27.1428
G01 X41.0251 Y27.0318
G01 X40.8299 Y26.9395
G01 X40.6266 Y26.8667
G01 X40.4172 Y26.8143
G01 X40.2036 Y26.7826
G01 X39.9880 Y26.7720
G00 X39.9880 Y26.7720
G01 F50.00
G01 Z-1.0000
G01 F70.00
G01 X40.2036 Y26.7826
G01 X40.4172 Y26.8143
G01 X40.6266 Y26.8667
G01 X40.8299 Y26.9395
G01 X41.0251 Y27.0318
G01 X41.2103 Y27.1428
G01 X41.3837 Y27.2714
G01 X41.5436 Y27.4164
G01 X41.6886 Y27.5763
G01 X41.8172 Y27.7497
G01 X41.9282 Y27.9349
G01 X42.0205 Y28.1301
G01 X42.0933 Y28.3334
G01 X42.1457 Y28.5428
G01 X42.1774 Y28.7564
G01 X42.1880 Y28.9720
G01 X42.1880 Y38.3794
G01 X42.1774 Y38.5950
G01 X42.1457 Y38.8086
G01 X42.0933 Y39.0180
G01 X42.0205 Y39.2213
G01 X41.9282 Y39.4165
G01 X41.8172 Y39.6017
G01 X41.6886 Y39.7751
G01 X41.5436 Y39.9350
G01 X41.3837 Y40.0800
G01 X41.2103 Y40.2086
G01 X41.0251 Y40.3196
G01 X40.8299 Y40.4119
G01 X40.6266 Y40.4847
G01 X40.4172 Y40.5371
G01 X40.2036 Y40.5688
G01 X39.9880 Y40.5794
G01 X10.5560 Y40.5794
G01 X10.3404 Y40.5688
G01 X10.1268 Y40.5371
G01 X9.9174 Y40.4847
G01 X9.7141 Y40.4119
G01 X9.5189 Y40.3196
G01 X9.3337 Y40.2086
G01 X9.1603 Y40.0800
G01 X9.0004 Y39.9350
G01 X8.8554 Y39.7751
G01 X8.7268 Y39.6017
G01 X8.6158 Y39.4165
G01 X8.5235 Y39.2213
G01 X8.4507 Y39.0180
G01 X8.3983 Y38.8086
G01 X8.3666 Y38.5950
G01 X8.3560 Y38.3794
G01 X8.3560 Y28.9720
G01 X8.3666 Y28.7564
G01 X8.3983 Y28.5428
G01 X8.4507 Y28.3334
G01 X8.5235 Y28.1301
G01 X8.6158 Y27.9349
G01 X8.7268 Y27.7497
G01 X8.8554 Y27.5763
G01 X9.0004 Y27.4164
G01 X9.1603 Y27.2714
G01 X9.3337 Y27.1428
G01 X9.5189 Y27.0318
G01 X9.7141 Y26.9395
G01 X9.9174 Y26.8667
G01 X10.1268 Y26.8143
G01 X10.3404 Y26.7826
G01 X10.5560 Y26.7720
G01 X39.9880 Y26.7720
G00 X39.9880 Y26.7720
G01 F50.00
G01 Z-1.5000
G01 F70.00
G01 X10.5560 Y26.7720
G01 X10.3404 Y26.7826
G01 X10.1268 Y26.8143
G01 X9.9174 Y26.8667
G01 X9.7141 Y26.9395
G01 X9.5189 Y27.0318
G01 X9.3337 Y27.1428
G01 X9.1603 Y27.2714
G01 X9.0004 Y27.4164
G01 X8.8554 Y27.5763
G01 X8.7268 Y27.7497
G01 X8.6158 Y27.9349
G01 X8.5235 Y28.1301
G01 X8.4507 Y28.3334
G01 X8.3983 Y28.5428
G01 X8.3666 Y28.7564
G01 X8.3560 Y28.9720
G01 X8.3560 Y38.3794
G01 X8.3666 Y38.5950
G01 X8.3983 Y38.8086
G01 X8.4507 Y39.0180
G01 X8.5235 Y39.2213
G01 X8.6158 Y39.4165
G01 X8.7268 Y39.6017
G01 X8.8554 Y39.7751
G01 X9.0004 Y39.9350
G01 X9.1603 Y40.0800
G01 X9.3337 Y40.2086
G01 X9.5189 Y40.3196
G01 X9.7141 Y40.4119
G01 X9.9174 Y40.4847
G01 X10.1268 Y40.5371
G01 X10.3404 Y40.5688
G01 X10.5560 Y40.5794
G01 X39.9880 Y40.5794
G01 X40.2036 Y40.5688
G01 X40.4172 Y40.5371
G01 X40.6266 Y40.4847
G01 X40.8299 Y40.4119
G01 X41.0251 Y40.3196
G01 X41.2103 Y40.2086
G01 X41.3837 Y40.0800
G01 X41.5436 Y39.9350
G01 X41.6886 Y39.7751
G01 X41.8172 Y39.6017
G01 X41.9282 Y39.4165
G01 X42.0205 Y39.2213
G01 X42.0933 Y39.0180
G01 X42.1457 Y38.8086
G01 X42.1774 Y38.5950
G01 X42.1880 Y38.3794
G01 X42.1880 Y28.9720
G01 X42.1774 Y28.7564
G01 X42.1457 Y28.5428
G01 X42.0933 Y28.3334
G01 X42.0205 Y28.1301
G01 X41.9282 Y27.9349
G01 X41.8172 Y27.7497
G01 X41.6886 Y27.5763
G01 X41.5436 Y27.4164
G01 X41.3837 Y27.2714
G01 X41.2103 Y27.1428
G01 X41.0251 Y27.0318
G01 X40.8299 Y26.9395
G01 X40.6266 Y26.8667
G01 X40.4172 Y26.8143
G01 X40.2036 Y26.7826
G01 X39.9880 Y26.7720
G00 Z2.0000
G00 X42.5280 Y44.0440
G01 F50.00
G01 Z-0.5000
G01 F70.00
G01 X22.7480 Y44.0440
G01 X22.5324 Y44.0546
G01 X22.3188 Y44.0863
G01 X22.1094 Y44.1387
G01 X21.9061 Y44.2115
G01 X21.7109 Y44.3038
G01 X21.5257 Y44.4148
G01 X21.3523 Y44.5434
G01 X21.1924 Y44.6884
G01 X21.0474 Y44.8483
G01 X20.9188 Y45.0217
G01 X20.8078 Y45.2069
G01 X20.7155 Y45.4021
G01 X20.6427 Y45.6054
G01 X20.5903 Y45.8148
G01 X20.5586 Y46.0284
G01 X20.5480 Y46.2440
G01 X20.5480 Y48.3150
G01 X20.5586 Y48.5306
G01 X20.5903 Y48.7442
G01 X20.6427 Y48.9536
G01 X20.7155 Y49.1569
G01 X20.8078 Y49.3521
G01 X20.9188 Y49.5373
G01 X21.0480 Y49.7114
G00 X21.0480 Y49.7114
G01 F50.00
G01 Z-1.0000
G01 F70.00
G01 X20.9188 Y49.5373
G01 X20.8078 Y49.3521
G01 X20.7155 Y49.1569
G01 X20.6427 Y48.9536
G01 X20.5903 Y48.7442
G01 X20.5586 Y48.5306
G01 X20.5480 Y48.3150
G01 X20.5480 Y46.2440
G01 X20.5586 Y46.0284
G01 X20.5903 Y45.8148
G01 X20.6427 Y45.6054
G01 X20.7155 Y45.4021
G01 X20.8078 Y45.2069
G01 X20.9188 Y45.0217
G01 X21.0474 Y44.8483
G01 X21.1924 Y44.6884
G01 X21.3523 Y44.5434
G01 X21.5257 Y44.4148
G01 X21.7109 Y44.3038
G01 X21.9061 Y44.2115
G01 X22.1094 Y44.1387
G01 X22.3188 Y44.0863
G01 X22.5324 Y44.0546
G01 X22.7480 Y44.0440
G01 X42.5280 Y44.0440
G00 X42.5280 Y44.0440
G01 F50.00
G01 Z-1.5000
G01 F70.00
G01 X22.7480 Y44.0440
G01 X22.5324 Y44.0546
G01 X22.3188 Y44.0863
G01 X22.1094 Y44.1387
G01 X21.9061 Y44.2115
G01 X21.7109 Y44.3038
G01 X21.5257 Y44.4148
G01 X21.3523 Y44.5434
G01 X21.1924 Y44.6884
G01 X21.0474 Y44.8483
G01 X20.9188 Y45.0217
G01 X20.8078 Y45.2069
G01 X20.7155 Y45.4021
G01 X20.6427 Y45.6054
G01 X20.5903 Y45.8148
G01 X20.5586 Y46.0284
G01 X20.5480 Y46.2440
G01 X20.5480 Y48.3150
G01 X20.5586 Y48.5306
G01 X20.5903 Y48.7442
G01 X20.6427 Y48.9536
G01 X20.7155 Y49.1569
G01 X20.8078 Y49.3521
G01 X20.9188 Y49.5373
G01 X21.0480 Y49.7114
G00 Z2.0000
G00 X21.3125 Y49.9795
G01 F50.00
G01 Z-0.5000
G01 F70.00
G01 X21.3523 Y50.0156
G01 X21.5257 Y50.1442
G01 X21.7109 Y50.2552
G01 X21.9061 Y50.3475
G01 X22.1094 Y50.4203
G01 X22.3188 Y50.4727
G01 X22.5324 Y50.5044
G01 X22.7480 Y50.5150
G01 X42.5280 Y50.5150
G01 X42.7436 Y50.5044
G01 X42.9572 Y50.4727
G01 X43.1666 Y50.4203
G01 X43.3699 Y50.3475
G01 X43.5651 Y50.2552
G01 X43.7503 Y50.1442
G01 X43.9237 Y50.0156
G01 X43.9635 Y49.9795
G00 X43.9635 Y49.9795
G01 F50.00
G01 Z-1.0000
G01 F70.00
G01 X43.9237 Y50.0156
G01 X43.7503 Y50.1442
G01 X43.5651 Y50.2552
G01 X43.3699 Y50.3475
G01 X43.1666 Y50.4203
G01 X42.9572 Y50.4727
G01 X42.7436 Y50.5044
G01 X42.5280 Y50.5150
G01 X22.7480 Y50.5150
G01 X22.5324 Y50.5044
G01 X22.3188 Y50.4727
G01 X22.1094 Y50.4203
G01 X21.9061 Y50.3475
G01 X21.7109 Y50.2552
G01 X21.5257 Y50.1442
G01 X21.3523 Y50.0156
G01 X21.3125 Y49.9795
G00 X21.3125 Y49.9795
G01 F50.00
G01 Z-1.5000
G01 F70.00
G01 X21.3523 Y50.0156
G01 X21.5257 Y50.1442
G01 X21.7109 Y50.2552
G01 X21.9061 Y50.3475
G01 X22.1094 Y50.4203
G01 X22.3188 Y50.4727
G01 X22.5324 Y50.5044
G01 X22.7480 Y50.5150
G01 X42.5280 Y50.5150
G01 X42.7436 Y50.5044
G01 X42.9572 Y50.4727
G01 X43.1666 Y50.4203
G01 X43.3699 Y50.3475
G01 X43.5651 Y50.2552
G01 X43.7503 Y50.1442
G01 X43.9237 Y50.0156
G01 X43.9635 Y49.9795
G00 Z2.0000
G00 X44.2280 Y49.7114
G01 F50.00
G01 Z-0.5000
G01 F70.00
G01 X44.3572 Y49.5373
G01 X44.4682 Y49.3521
G01 X44.5605 Y49.1569
G01 X44.6333 Y48.9536
G01 X44.6857 Y48.7442
G01 X44.7174 Y48.5306
G01 X44.7280 Y48.3150
G01 X44.7280 Y46.2440
G01 X44.7174 Y46.0284
G01 X44.6857 Y45.8148
G01 X44.6333 Y45.6054
G01 X44.5605 Y45.4021
G01 X44.4682 Y45.2069
G01 X44.3572 Y45.0217
G01 X44.2286 Y44.8483
G01 X44.0836 Y44.6884
G01 X43.9237 Y44.5434
G01 X43.7503 Y44.4148
G01 X43.5651 Y44.3038
G01 X43.3699 Y44.2115
G01 X43.1666 Y44.1387
G01 X42.9572 Y44.0863
G01 X42.7436 Y44.0546
G01 X42.5280 Y44.0440
G00 X42.5280 Y44.0440
G01 F50.00
G01 Z-1.0000
G01 F70.00
G01 X42.7436 Y44.0546
G01 X42.9572 Y44.0863
G01 X43.1666 Y44.1387
G01 X43.3699 Y44.2115
G01 X43.5651 Y44.3038
G01 X43.7503 Y44.4148
G01 X43.9237 Y44.5434
G01 X44.0836 Y44.6884
G01 X44.2286 Y44.8483
G01 X44.3572 Y45.0217
G01 X44.4682 Y45.2069
G01 X44.5605 Y45.4021
G01 X44.6333 Y45.6054
G01 X44.6857 Y45.8148
G01 X44.7174 Y46.0284
G01 X44.7280 Y46.2440
G01 X44.7280 Y48.3150
G01 X44.7174 Y48.5306
G01 X44.6857 Y48.7442
G01 X44.6333 Y48.9536
G01 X44.5605 Y49.1569
G01 X44.4682 Y49.3521
G01 X44.3572 Y49.5373
G01 X44.2280 Y49.7114
G00 X44.2280 Y49.7114
G01 F50.00
G01 Z-1.5000
G01 F70.00
G01 X44.3572 Y49.5373
G01 X44.4682 Y49.3521
G01 X44.5605 Y49.1569
G01 X44.6333 Y48.9536
G01 X44.6857 Y48.7442
G01 X44.7174 Y48.5306
G01 X44.7280 Y48.3150
G01 X44.7280 Y46.2440
G01 X44.7174 Y46.0284
G01 X44.6857 Y45.8148
G01 X44.6333 Y45.6054
G01 X44.5605 Y45.4021
G01 X44.4682 Y45.2069
G01 X44.3572 Y45.0217
G01 X44.2286 Y44.8483
G01 X44.0836 Y44.6884
G01 X43.9237 Y44.5434
G01 X43.7503 Y44.4148
G01 X43.5651 Y44.3038
G01 X43.3699 Y44.2115
G01 X43.1666 Y44.1387
G01 X42.9572 Y44.0863
G01 X42.7436 Y44.0546
G01 X42.5280 Y44.0440
G00 Z2.0000
G00 X52.9560 Y-1.9440
G01 F50.00
G01 Z-0.5000
G01 F70.00
G01 X0.2560 Y-1.9440
G01 X0.0404 Y-1.9334
G01 X-0.1732 Y-1.9017
G01 X-0.3826 Y-1.8493
G01 X-0.5859 Y-1.7765
G01 X-0.7811 Y-1.6842
G01 X-0.9663 Y-1.5732
G01 X-1.1397 Y-1.4446
G01 X-1.2996 Y-1.2996
G01 X-1.4446 Y-1.1397
G01 X-1.5732 Y-0.9663
G01 X-1.6842 Y-0.7811
G01 X-1.7765 Y-0.5859
G01 X-1.8493 Y-0.3826
G01 X-1.9017 Y-0.1732
G01 X-1.9334 Y0.0404
G01 X-1.9440 Y0.2560
G01 X-1.9440 Y55.4960
G01 X-1.9334 Y55.7116
G01 X-1.9017 Y55.9252
G01 X-1.8493 Y56.1346
G01 X-1.7765 Y56.3379
G01 X-1.6842 Y56.5331
G01 X-1.5732 Y56.7183
G01 X-1.4446 Y56.8917
G01 X-1.2996 Y57.0516
G01 X-1.1397 Y57.1966
G01 X-0.9663 Y57.3252
G01 X-0.7811 Y57.4362
G01 X-0.5859 Y57.5285
G01 X-0.3826 Y57.6013
G01 X-0.1732 Y57.6537
G01 X0.0404 Y57.6854
G01 X0.2560 Y57.6960
G01 X52.9560 Y57.6960
G01 X53.1716 Y57.6854
G01 X53.3852 Y57.6537
G01 X53.5946 Y57.6013
G01 X53.7979 Y57.5285
G01 X53.9931 Y57.4362
G01 X54.1783 Y57.3252
G01 X54.3517 Y57.1966
G01 X54.5116 Y57.0516
G01 X54.6566 Y56.8917
G01 X54.7852 Y56.7183
G01 X54.8962 Y56.5331
G01 X54.9885 Y56.3379
G01 X55.0613 Y56.1346
G01 X55.1137 Y55.9252
G01 X55.1454 Y55.7116
G01 X55.1560 Y55.4960
G01 X55.1560 Y0.2560
G01 X55.1454 Y0.0404
G01 X55.1137 Y-0.1732
G01 X55.0613 Y-0.3826
G01 X54.9885 Y-0.5859
G01 X54.8962 Y-0.7811
G01 X54.7852 Y-0.9663
G01 X54.6566 Y-1.1397
G01 X54.5116 Y-1.2996
G01 X54.3517 Y-1.4446
G01 X54.1783 Y-1.5732
G01 X53.9931 Y-1.6842
G01 X53.7979 Y-1.7765
G01 X53.5946 Y-1.8493
G01 X53.3852 Y-1.9017
G01 X53.1716 Y-1.9334
G01 X52.9560 Y-1.9440
G00 X52.9560 Y-1.9440
G01 F50.00
G01 Z-1.0000
G01 F70.00
G01 X53.1716 Y-1.9334
G01 X53.3852 Y-1.9017
G01 X53.5946 Y-1.8493
G01 X53.7979 Y-1.7765
G01 X53.9931 Y-1.6842
G01 X54.1783 Y-1.5732
G01 X54.3517 Y-1.4446
G01 X54.5116 Y-1.2996
G01 X54.6566 Y-1.1397
G01 X54.7852 Y-0.9663
G01 X54.8962 Y-0.7811
G01 X54.9885 Y-0.5859
G01 X55.0613 Y-0.3826
G01 X55.1137 Y-0.1732
G01 X55.1454 Y0.0404
G01 X55.1560 Y0.2560
G01 X55.1560 Y55.4960
G01 X55.1454 Y55.7116
G01 X55.1137 Y55.9252
G01 X55.0613 Y56.1346
G01 X54.9885 Y56.3379
G01 X54.8962 Y56.5331
G01 X54.7852 Y56.7183
G01 X54.6566 Y56.8917
G01 X54.5116 Y57.0516
G01 X54.3517 Y57.1966
G01 X54.1783 Y57.3252
G01 X53.9931 Y57.4362
G01 X53.7979 Y57.5285
G01 X53.5946 Y57.6013
G01 X53.3852 Y57.6537
G01 X53.1716 Y57.6854
G01 X52.9560 Y57.6960
G01 X0.2560 Y57.6960
G01 X0.0404 Y57.6854
G01 X-0.1732 Y57.6537
G01 X-0.3826 Y57.6013
G01 X-0.5859 Y57.5285
G01 X-0.7811 Y57.4362
G01 X-0.9663 Y57.3252
G01 X-1.1397 Y57.1966
G01 X-1.2996 Y57.0516
G01 X-1.4446 Y56.8917
G01 X-1.5732 Y56.7183
G01 X-1.6842 Y56.5331
G01 X-1.7765 Y56.3379
G01 X-1.8493 Y56.1346
G01 X-1.9017 Y55.9252
G01 X-1.9334 Y55.7116
G01 X-1.9440 Y55.4960
G01 X-1.9440 Y0.2560
G01 X-1.9334 Y0.0404
G01 X-1.9017 Y-0.1732
G01 X-1.8493 Y-0.3826
G01 X-1.7765 Y-0.5859
G01 X-1.6842 Y-0.7811
G01 X-1.5732 Y-0.9663
G01 X-1.4446 Y-1.1397
G01 X-1.2996 Y-1.2996
G01 X-1.1397 Y-1.4446
G01 X-0.9663 Y-1.5732
G01 X-0.7811 Y-1.6842
G01 X-0.5859 Y-1.7765
G01 X-0.3826 Y-1.8493
G01 X-0.1732 Y-1.9017
G01 X0.0404 Y-1.9334
G01 X0.2560 Y-1.9440
G01 X52.9560 Y-1.9440
G00 X52.9560 Y-1.9440
G01 F50.00
G01 Z-1.5000
G01 F70.00
G01 X0.2560 Y-1.9440
G01 X0.0404 Y-1.9334
G01 X-0.1732 Y-1.9017
G01 X-0.3826 Y-1.8493
G01 X-0.5859 Y-1.7765
G01 X-0.7811 Y-1.6842
G01 X-0.9663 Y-1.5732
G01 X-1.1397 Y-1.4446
G01 X-1.2996 Y-1.2996
G01 X-1.4446 Y-1.1397
G01 X-1.5732 Y-0.9663
G01 X-1.6842 Y-0.7811
G01 X-1.7765 Y-0.5859
G01 X-1.8493 Y-0.3826
G01 X-1.9017 Y-0.1732
G01 X-1.9334 Y0.0404
G01 X-1.9440 Y0.2560
G01 X-1.9440 Y55.4960
G01 X-1.9334 Y55.7116
G01 X-1.9017 Y55.9252
G01 X-1.8493 Y56.1346
G01 X-1.7765 Y56.3379
G01 X-1.6842 Y56.5331
G01 X-1.5732 Y56.7183
G01 X-1.4446 Y56.8917
G01 X-1.2996 Y57.0516
G01 X-1.1397 Y57.1966
G01 X-0.9663 Y57.3252
G01 X-0.7811 Y57.4362
G01 X-0.5859 Y57.5285
G01 X-0.3826 Y57.6013
G01 X-0.1732 Y57.6537
G01 X0.0404 Y57.6854
G01 X0.2560 Y57.6960
G01 X52.9560 Y57.6960
G01 X53.1716 Y57.6854
G01 X53.3852 Y57.6537
G01 X53.5946 Y57.6013
G01 X53.7979 Y57.5285
G01 X53.9931 Y57.4362
G01 X54.1783 Y57.3252
G01 X54.3517 Y57.1966
G01 X54.5116 Y57.0516
G01 X54.6566 Y56.8917
G01 X54.7852 Y56.7183
G01 X54.8962 Y56.5331
G01 X54.9885 Y56.3379
G01 X55.0613 Y56.1346
G01 X55.1137 Y55.9252
G01 X55.1454 Y55.7116
G01 X55.1560 Y55.4960
G01 X55.1560 Y0.2560
G01 X55.1454 Y0.0404
G01 X55.1137 Y-0.1732
G01 X55.0613 Y-0.3826
G01 X54.9885 Y-0.5859
G01 X54.8962 Y-0.7811
G01 X54.7852 Y-0.9663
G01 X54.6566 Y-1.1397
G01 X54.5116 Y-1.2996
G01 X54.3517 Y-1.4446
G01 X54.1783 Y-1.5732
G01 X53.9931 Y-1.6842
G01 X53.7979 Y-1.7765
G01 X53.5946 Y-1.8493
G01 X53.3852 Y-1.9017
G01 X53.1716 Y-1.9334
G01 X52.9560 Y-1.9440
G00 Z2.0000
M05
G00 Z2.0000
G00 Z5.00
G00 X0.0 Y0.0

